( Generated by T2Laser ) 
( SketchGcode for Grbl )
( Start Point: LL      )
( Frame Mode : Abs.    )
( X Maximum  : 67      )
( Y Maximum  : 67      )
( Laser Max  : 255     )
( Vector Rate: 100     )
( Rapid Feed : 1500    )
G21
G90
F100
M05
G01 X66.5 Y33.25 F1500
M03 S0
X66.325 Y36.65 M03 S255 F100
X65.825 Y39.95 M03 S255 F100
X65.025 Y43.125 M03 S255 F100
X63.9 Y46.175 M03 S255 F100
X62.525 Y49.1 M03 S255 F100
X60.875 Y51.825 M03 S255 F100
X58.975 Y54.4 M03 S255 F100
X56.825 Y56.75 M03 S255 F100
X54.5 Y58.9 M03 S255 F100
X51.95 Y60.825 M03 S255 F100
X49.225 Y62.475 M03 S255 F100
X46.35 Y63.875 M03 S255 F100
X43.325 Y65 M03 S255 F100
X40.15 Y65.825 M03 S255 F100
X36.875 Y66.325 M03 S255 F100
X33.5 Y66.5 M03 S255 F100
X30.125 Y66.325 M03 S255 F100
X26.85 Y65.825 M03 S255 F100
X23.675 Y65 M03 S255 F100
X20.65 Y63.875 M03 S255 F100
X17.775 Y62.475 M03 S255 F100
X15.05 Y60.825 M03 S255 F100
X12.5 Y58.9 M03 S255 F100
X10.175 Y56.75 M03 S255 F100
X8.025 Y54.4 M03 S255 F100
X6.125 Y51.825 M03 S255 F100
X4.475 Y49.1 M03 S255 F100
X3.1 Y46.175 M03 S255 F100
X1.975 Y43.125 M03 S255 F100
X1.175 Y39.95 M03 S255 F100
X0.675 Y36.65 M03 S255 F100
X0.5 Y33.25 M03 S255 F100
X0.675 Y29.85 M03 S255 F100
X1.175 Y26.55 M03 S255 F100
X1.975 Y23.35 M03 S255 F100
X3.1 Y20.3 M03 S255 F100
X4.475 Y17.4 M03 S255 F100
X6.125 Y14.65 M03 S255 F100
X8.025 Y12.1 M03 S255 F100
X10.175 Y9.725 M03 S255 F100
X12.5 Y7.6 M03 S255 F100
X15.05 Y5.675 M03 S255 F100
X17.775 Y4 M03 S255 F100
X20.65 Y2.6 M03 S255 F100
X23.675 Y1.5 M03 S255 F100
X26.85 Y0.675 M03 S255 F100
X30.125 Y0.175 M03 S255 F100
X33.5 Y0 M03 S255 F100
X36.875 Y0.175 M03 S255 F100
X40.15 Y0.675 M03 S255 F100
X43.325 Y1.5 M03 S255 F100
X46.35 Y2.6 M03 S255 F100
X49.225 Y4 M03 S255 F100
X51.95 Y5.675 M03 S255 F100
X54.5 Y7.6 M03 S255 F100
X56.825 Y9.725 M03 S255 F100
X58.975 Y12.1 M03 S255 F100
X60.875 Y14.65 M03 S255 F100
X62.525 Y17.4 M03 S255 F100
X63.9 Y20.3 M03 S255 F100
X65.025 Y23.35 M03 S255 F100
X65.825 Y26.55 M03 S255 F100
X66.325 Y29.85 M03 S255 F100
X66.5 Y33.25 M03 S255 F100
X6 Y33.5 M03 S0 F1500
X5.8 Y34.475 M03 S255 F100
X5.275 Y35.275 M03 S255 F100
X4.475 Y35.8 M03 S255 F100
X3.5 Y36 M03 S255 F100
X2.525 Y35.8 M03 S255 F100
X1.725 Y35.275 M03 S255 F100
X1.2 Y34.475 M03 S255 F100
X1 Y33.5 M03 S255 F100
X1.2 Y32.525 M03 S255 F100
X1.725 Y31.725 M03 S255 F100
X2.525 Y31.2 M03 S255 F100
X3.5 Y31 M03 S255 F100
X4.475 Y31.2 M03 S255 F100
X5.275 Y31.725 M03 S255 F100
X5.8 Y32.525 M03 S255 F100
X6 Y33.5 M03 S255 F100
X36 Y33.625 M03 S0 F1500
X35.8 Y34.55 M03 S255 F100
X35.275 Y35.3 M03 S255 F100
X34.475 Y35.8 M03 S255 F100
X33.5 Y36 M03 S255 F100
X32.525 Y35.8 M03 S255 F100
X31.725 Y35.3 M03 S255 F100
X31.2 Y34.55 M03 S255 F100
X31 Y33.625 M03 S255 F100
X31.2 Y32.7 M03 S255 F100
X31.725 Y31.95 M03 S255 F100
X32.525 Y31.425 M03 S255 F100
X33.5 Y31.25 M03 S255 F100
X34.475 Y31.425 M03 S255 F100
X35.275 Y31.95 M03 S255 F100
X35.8 Y32.7 M03 S255 F100
X36 Y33.625 M03 S255 F100
M03 S0
M05
G01 X66.5 Y33.25 M03 S0 F1500
M03 S0
X66.5 Y33.25 M03 S0 F1500
X66.325 Y36.65 M03 S255 F100
X65.825 Y39.95 M03 S255 F100
X65.025 Y43.125 M03 S255 F100
X63.9 Y46.175 M03 S255 F100
X62.525 Y49.1 M03 S255 F100
X60.875 Y51.825 M03 S255 F100
X58.975 Y54.4 M03 S255 F100
X56.825 Y56.75 M03 S255 F100
X54.5 Y58.9 M03 S255 F100
X51.95 Y60.825 M03 S255 F100
X49.225 Y62.475 M03 S255 F100
X46.35 Y63.875 M03 S255 F100
X43.325 Y65 M03 S255 F100
X40.15 Y65.825 M03 S255 F100
X36.875 Y66.325 M03 S255 F100
X33.5 Y66.5 M03 S255 F100
X30.125 Y66.325 M03 S255 F100
X26.85 Y65.825 M03 S255 F100
X23.675 Y65 M03 S255 F100
X20.65 Y63.875 M03 S255 F100
X17.775 Y62.475 M03 S255 F100
X15.05 Y60.825 M03 S255 F100
X12.5 Y58.9 M03 S255 F100
X10.175 Y56.75 M03 S255 F100
X8.025 Y54.4 M03 S255 F100
X6.125 Y51.825 M03 S255 F100
X4.475 Y49.1 M03 S255 F100
X3.1 Y46.175 M03 S255 F100
X1.975 Y43.125 M03 S255 F100
X1.175 Y39.95 M03 S255 F100
X0.675 Y36.65 M03 S255 F100
X0.5 Y33.25 M03 S255 F100
X0.675 Y29.85 M03 S255 F100
X1.175 Y26.55 M03 S255 F100
X1.975 Y23.35 M03 S255 F100
X3.1 Y20.3 M03 S255 F100
X4.475 Y17.4 M03 S255 F100
X6.125 Y14.65 M03 S255 F100
X8.025 Y12.1 M03 S255 F100
X10.175 Y9.725 M03 S255 F100
X12.5 Y7.6 M03 S255 F100
X15.05 Y5.675 M03 S255 F100
X17.775 Y4 M03 S255 F100
X20.65 Y2.6 M03 S255 F100
X23.675 Y1.5 M03 S255 F100
X26.85 Y0.675 M03 S255 F100
X30.125 Y0.175 M03 S255 F100
X33.5 Y0 M03 S255 F100
X36.875 Y0.175 M03 S255 F100
X40.15 Y0.675 M03 S255 F100
X43.325 Y1.5 M03 S255 F100
X46.35 Y2.6 M03 S255 F100
X49.225 Y4 M03 S255 F100
X51.95 Y5.675 M03 S255 F100
X54.5 Y7.6 M03 S255 F100
X56.825 Y9.725 M03 S255 F100
X58.975 Y12.1 M03 S255 F100
X60.875 Y14.65 M03 S255 F100
X62.525 Y17.4 M03 S255 F100
X63.9 Y20.3 M03 S255 F100
X65.025 Y23.35 M03 S255 F100
X65.825 Y26.55 M03 S255 F100
X66.325 Y29.85 M03 S255 F100
X66.5 Y33.25 M03 S255 F100
X6 Y33.5 M03 S0 F1500
X5.8 Y34.475 M03 S255 F100
X5.275 Y35.275 M03 S255 F100
X4.475 Y35.8 M03 S255 F100
X3.5 Y36 M03 S255 F100
X2.525 Y35.8 M03 S255 F100
X1.725 Y35.275 M03 S255 F100
X1.2 Y34.475 M03 S255 F100
X1 Y33.5 M03 S255 F100
X1.2 Y32.525 M03 S255 F100
X1.725 Y31.725 M03 S255 F100
X2.525 Y31.2 M03 S255 F100
X3.5 Y31 M03 S255 F100
X4.475 Y31.2 M03 S255 F100
X5.275 Y31.725 M03 S255 F100
X5.8 Y32.525 M03 S255 F100
X6 Y33.5 M03 S255 F100
X36 Y33.625 M03 S0 F1500
X35.8 Y34.55 M03 S255 F100
X35.275 Y35.3 M03 S255 F100
X34.475 Y35.8 M03 S255 F100
X33.5 Y36 M03 S255 F100
X32.525 Y35.8 M03 S255 F100
X31.725 Y35.3 M03 S255 F100
X31.2 Y34.55 M03 S255 F100
X31 Y33.625 M03 S255 F100
X31.2 Y32.7 M03 S255 F100
X31.725 Y31.95 M03 S255 F100
X32.525 Y31.425 M03 S255 F100
X33.5 Y31.25 M03 S255 F100
X34.475 Y31.425 M03 S255 F100
X35.275 Y31.95 M03 S255 F100
X35.8 Y32.7 M03 S255 F100
X36 Y33.625 M03 S255 F100
M03 S0
M05
G01 X66.5 Y33.25 M03 S0 F1500
M03 S0
X66.5 Y33.25 M03 S0 F1500
X66.325 Y36.65 M03 S255 F100
X65.825 Y39.95 M03 S255 F100
X65.025 Y43.125 M03 S255 F100
X63.9 Y46.175 M03 S255 F100
X62.525 Y49.1 M03 S255 F100
X60.875 Y51.825 M03 S255 F100
X58.975 Y54.4 M03 S255 F100
X56.825 Y56.75 M03 S255 F100
X54.5 Y58.9 M03 S255 F100
X51.95 Y60.825 M03 S255 F100
X49.225 Y62.475 M03 S255 F100
X46.35 Y63.875 M03 S255 F100
X43.325 Y65 M03 S255 F100
X40.15 Y65.825 M03 S255 F100
X36.875 Y66.325 M03 S255 F100
X33.5 Y66.5 M03 S255 F100
X30.125 Y66.325 M03 S255 F100
X26.85 Y65.825 M03 S255 F100
X23.675 Y65 M03 S255 F100
X20.65 Y63.875 M03 S255 F100
X17.775 Y62.475 M03 S255 F100
X15.05 Y60.825 M03 S255 F100
X12.5 Y58.9 M03 S255 F100
X10.175 Y56.75 M03 S255 F100
X8.025 Y54.4 M03 S255 F100
X6.125 Y51.825 M03 S255 F100
X4.475 Y49.1 M03 S255 F100
X3.1 Y46.175 M03 S255 F100
X1.975 Y43.125 M03 S255 F100
X1.175 Y39.95 M03 S255 F100
X0.675 Y36.65 M03 S255 F100
X0.5 Y33.25 M03 S255 F100
X0.675 Y29.85 M03 S255 F100
X1.175 Y26.55 M03 S255 F100
X1.975 Y23.35 M03 S255 F100
X3.1 Y20.3 M03 S255 F100
X4.475 Y17.4 M03 S255 F100
X6.125 Y14.65 M03 S255 F100
X8.025 Y12.1 M03 S255 F100
X10.175 Y9.725 M03 S255 F100
X12.5 Y7.6 M03 S255 F100
X15.05 Y5.675 M03 S255 F100
X17.775 Y4 M03 S255 F100
X20.65 Y2.6 M03 S255 F100
X23.675 Y1.5 M03 S255 F100
X26.85 Y0.675 M03 S255 F100
X30.125 Y0.175 M03 S255 F100
X33.5 Y0 M03 S255 F100
X36.875 Y0.175 M03 S255 F100
X40.15 Y0.675 M03 S255 F100
X43.325 Y1.5 M03 S255 F100
X46.35 Y2.6 M03 S255 F100
X49.225 Y4 M03 S255 F100
X51.95 Y5.675 M03 S255 F100
X54.5 Y7.6 M03 S255 F100
X56.825 Y9.725 M03 S255 F100
X58.975 Y12.1 M03 S255 F100
X60.875 Y14.65 M03 S255 F100
X62.525 Y17.4 M03 S255 F100
X63.9 Y20.3 M03 S255 F100
X65.025 Y23.35 M03 S255 F100
X65.825 Y26.55 M03 S255 F100
X66.325 Y29.85 M03 S255 F100
X66.5 Y33.25 M03 S255 F100
X6 Y33.5 M03 S0 F1500
X5.8 Y34.475 M03 S255 F100
X5.275 Y35.275 M03 S255 F100
X4.475 Y35.8 M03 S255 F100
X3.5 Y36 M03 S255 F100
X2.525 Y35.8 M03 S255 F100
X1.725 Y35.275 M03 S255 F100
X1.2 Y34.475 M03 S255 F100
X1 Y33.5 M03 S255 F100
X1.2 Y32.525 M03 S255 F100
X1.725 Y31.725 M03 S255 F100
X2.525 Y31.2 M03 S255 F100
X3.5 Y31 M03 S255 F100
X4.475 Y31.2 M03 S255 F100
X5.275 Y31.725 M03 S255 F100
X5.8 Y32.525 M03 S255 F100
X6 Y33.5 M03 S255 F100
X36 Y33.625 M03 S0 F1500
X35.8 Y34.55 M03 S255 F100
X35.275 Y35.3 M03 S255 F100
X34.475 Y35.8 M03 S255 F100
X33.5 Y36 M03 S255 F100
X32.525 Y35.8 M03 S255 F100
X31.725 Y35.3 M03 S255 F100
X31.2 Y34.55 M03 S255 F100
X31 Y33.625 M03 S255 F100
X31.2 Y32.7 M03 S255 F100
X31.725 Y31.95 M03 S255 F100
X32.525 Y31.425 M03 S255 F100
X33.5 Y31.25 M03 S255 F100
X34.475 Y31.425 M03 S255 F100
X35.275 Y31.95 M03 S255 F100
X35.8 Y32.7 M03 S255 F100
X36 Y33.625 M03 S255 F100
M03 S0
M05
G01 X66.5 Y33.25 M03 S0 F1500
M03 S0
X66.5 Y33.25 M03 S0 F1500
X66.325 Y36.65 M03 S255 F100
X65.825 Y39.95 M03 S255 F100
X65.025 Y43.125 M03 S255 F100
X63.9 Y46.175 M03 S255 F100
X62.525 Y49.1 M03 S255 F100
X60.875 Y51.825 M03 S255 F100
X58.975 Y54.4 M03 S255 F100
X56.825 Y56.75 M03 S255 F100
X54.5 Y58.9 M03 S255 F100
X51.95 Y60.825 M03 S255 F100
X49.225 Y62.475 M03 S255 F100
X46.35 Y63.875 M03 S255 F100
X43.325 Y65 M03 S255 F100
X40.15 Y65.825 M03 S255 F100
X36.875 Y66.325 M03 S255 F100
X33.5 Y66.5 M03 S255 F100
X30.125 Y66.325 M03 S255 F100
X26.85 Y65.825 M03 S255 F100
X23.675 Y65 M03 S255 F100
X20.65 Y63.875 M03 S255 F100
X17.775 Y62.475 M03 S255 F100
X15.05 Y60.825 M03 S255 F100
X12.5 Y58.9 M03 S255 F100
X10.175 Y56.75 M03 S255 F100
X8.025 Y54.4 M03 S255 F100
X6.125 Y51.825 M03 S255 F100
X4.475 Y49.1 M03 S255 F100
X3.1 Y46.175 M03 S255 F100
X1.975 Y43.125 M03 S255 F100
X1.175 Y39.95 M03 S255 F100
X0.675 Y36.65 M03 S255 F100
X0.5 Y33.25 M03 S255 F100
X0.675 Y29.85 M03 S255 F100
X1.175 Y26.55 M03 S255 F100
X1.975 Y23.35 M03 S255 F100
X3.1 Y20.3 M03 S255 F100
X4.475 Y17.4 M03 S255 F100
X6.125 Y14.65 M03 S255 F100
X8.025 Y12.1 M03 S255 F100
X10.175 Y9.725 M03 S255 F100
X12.5 Y7.6 M03 S255 F100
X15.05 Y5.675 M03 S255 F100
X17.775 Y4 M03 S255 F100
X20.65 Y2.6 M03 S255 F100
X23.675 Y1.5 M03 S255 F100
X26.85 Y0.675 M03 S255 F100
X30.125 Y0.175 M03 S255 F100
X33.5 Y0 M03 S255 F100
X36.875 Y0.175 M03 S255 F100
X40.15 Y0.675 M03 S255 F100
X43.325 Y1.5 M03 S255 F100
X46.35 Y2.6 M03 S255 F100
X49.225 Y4 M03 S255 F100
X51.95 Y5.675 M03 S255 F100
X54.5 Y7.6 M03 S255 F100
X56.825 Y9.725 M03 S255 F100
X58.975 Y12.1 M03 S255 F100
X60.875 Y14.65 M03 S255 F100
X62.525 Y17.4 M03 S255 F100
X63.9 Y20.3 M03 S255 F100
X65.025 Y23.35 M03 S255 F100
X65.825 Y26.55 M03 S255 F100
X66.325 Y29.85 M03 S255 F100
X66.5 Y33.25 M03 S255 F100
X6 Y33.5 M03 S0 F1500
X5.8 Y34.475 M03 S255 F100
X5.275 Y35.275 M03 S255 F100
X4.475 Y35.8 M03 S255 F100
X3.5 Y36 M03 S255 F100
X2.525 Y35.8 M03 S255 F100
X1.725 Y35.275 M03 S255 F100
X1.2 Y34.475 M03 S255 F100
X1 Y33.5 M03 S255 F100
X1.2 Y32.525 M03 S255 F100
X1.725 Y31.725 M03 S255 F100
X2.525 Y31.2 M03 S255 F100
X3.5 Y31 M03 S255 F100
X4.475 Y31.2 M03 S255 F100
X5.275 Y31.725 M03 S255 F100
X5.8 Y32.525 M03 S255 F100
X6 Y33.5 M03 S255 F100
X36 Y33.625 M03 S0 F1500
X35.8 Y34.55 M03 S255 F100
X35.275 Y35.3 M03 S255 F100
X34.475 Y35.8 M03 S255 F100
X33.5 Y36 M03 S255 F100
X32.525 Y35.8 M03 S255 F100
X31.725 Y35.3 M03 S255 F100
X31.2 Y34.55 M03 S255 F100
X31 Y33.625 M03 S255 F100
X31.2 Y32.7 M03 S255 F100
X31.725 Y31.95 M03 S255 F100
X32.525 Y31.425 M03 S255 F100
X33.5 Y31.25 M03 S255 F100
X34.475 Y31.425 M03 S255 F100
X35.275 Y31.95 M03 S255 F100
X35.8 Y32.7 M03 S255 F100
X36 Y33.625 M03 S255 F100
M03 S0
M05
G00 X0 Y0 
