( Generated by T2Laser ) 
(  DXF2Gcode for Grbl  )
( Start Point: LL      )
( Frame Mode : Abs.    )
( X Maximum  : 232.9   )
( Y Maximum  : 239.5   )
( Laser Power: 255     )
( Vector Rate: 110     )
( Rapid Feed : 1500    )
( Vector Name: Circles.dxf )
G21
G90
F110
M05
G01 X36.3 Y33.525 F1500
M03 S0
X36.35 Y33.025 M03 S255 F110
X36.15 Y34.005 M03 S0 F1500
X36.3 Y33.525 M03 S255 F110
X35.93 Y34.425 M03 S0 F1500
X36.15 Y34.005 M03 S255 F110
X35.63 Y34.805 M03 S0 F1500
X35.93 Y34.425 M03 S255 F110
X35.25 Y35.105 M03 S0 F1500
X35.63 Y34.805 M03 S255 F110
X34.83 Y35.325 M03 S0 F1500
X35.25 Y35.105 M03 S255 F110
X34.35 Y35.475 M03 S0 F1500
X34.83 Y35.325 M03 S255 F110
X33.85 Y35.525 M03 S0 F1500
X34.35 Y35.475 M03 S255 F110
X33.35 Y35.475 M03 S0 F1500
X33.85 Y35.525 M03 S255 F110
X32.87 Y35.325 M03 S0 F1500
X33.35 Y35.475 M03 S255 F110
X32.45 Y35.105 M03 S0 F1500
X32.87 Y35.325 M03 S255 F110
X32.09 Y34.805 M03 S0 F1500
X32.45 Y35.105 M03 S255 F110
X31.77 Y34.425 M03 S0 F1500
X32.09 Y34.805 M03 S255 F110
X31.55 Y34.005 M03 S0 F1500
X31.77 Y34.425 M03 S255 F110
X31.4 Y33.525 M03 S0 F1500
X31.55 Y34.005 M03 S255 F110
X31.35 Y33.025 M03 S0 F1500
X31.4 Y33.525 M03 S255 F110
X31.4 Y32.525 M03 S0 F1500
X31.35 Y33.025 M03 S255 F110
X31.55 Y32.045 M03 S0 F1500
X31.4 Y32.525 M03 S255 F110
X31.77 Y31.625 M03 S0 F1500
X31.55 Y32.045 M03 S255 F110
X32.09 Y31.265 M03 S0 F1500
X31.77 Y31.625 M03 S255 F110
X32.45 Y30.945 M03 S0 F1500
X32.09 Y31.265 M03 S255 F110
X32.87 Y30.725 M03 S0 F1500
X32.45 Y30.945 M03 S255 F110
X33.35 Y30.575 M03 S0 F1500
X32.87 Y30.725 M03 S255 F110
X33.85 Y30.525 M03 S0 F1500
X33.35 Y30.575 M03 S255 F110
X34.35 Y30.575 M03 S0 F1500
X33.85 Y30.525 M03 S255 F110
X34.83 Y30.725 M03 S0 F1500
X34.35 Y30.575 M03 S255 F110
X35.25 Y30.945 M03 S0 F1500
X34.83 Y30.725 M03 S255 F110
X35.63 Y31.265 M03 S0 F1500
X35.25 Y30.945 M03 S255 F110
X35.93 Y31.625 M03 S0 F1500
X35.63 Y31.265 M03 S255 F110
X36.15 Y32.045 M03 S0 F1500
X35.93 Y31.625 M03 S255 F110
X36.3 Y32.525 M03 S0 F1500
X36.15 Y32.045 M03 S255 F110
X36.35 Y33.025 M03 S0 F1500
X36.3 Y32.525 M03 S255 F110
X36.35 Y33.025 M03 S0 F1500
X36.35 Y33.025 M03 S255 F110
X1.59 Y35.935 M03 S0 F1500
X0.99 Y36.025 M03 S255 F110
X2.15 Y35.735 M03 S0 F1500
X1.59 Y35.935 M03 S255 F110
X2.64 Y35.435 M03 S0 F1500
X2.15 Y35.735 M03 S255 F110
X3.07 Y35.055 M03 S0 F1500
X2.64 Y35.435 M03 S255 F110
X3.41 Y34.605 M03 S0 F1500
X3.07 Y35.055 M03 S255 F110
X3.66 Y34.075 M03 S0 F1500
X3.41 Y34.605 M03 S255 F110
X3.81 Y33.505 M03 S0 F1500
X3.66 Y34.075 M03 S255 F110
X3.85 Y32.895 M03 S0 F1500
X3.81 Y33.505 M03 S255 F110
X3.77 Y32.335 M03 S0 F1500
X3.85 Y32.895 M03 S255 F110
X3.6 Y31.815 M03 S0 F1500
X3.77 Y32.335 M03 S255 F110
X3.32 Y31.325 M03 S0 F1500
X3.6 Y31.815 M03 S255 F110
X2.97 Y30.915 M03 S0 F1500
X3.32 Y31.325 M03 S255 F110
X2.56 Y30.565 M03 S0 F1500
X2.97 Y30.915 M03 S255 F110
X2.07 Y30.285 M03 S0 F1500
X2.56 Y30.565 M03 S255 F110
X1.55 Y30.115 M03 S0 F1500
X2.07 Y30.285 M03 S255 F110
X0.99 Y30.035 M03 S0 F1500
X1.55 Y30.115 M03 S255 F110
X0.2 Y28.245 M03 S0 F1500
X0 Y29.935 M03 S255 F110
X0.49 Y26.585 M03 S0 F1500
X0.2 Y28.245 M03 S255 F110
X0.85 Y24.965 M03 S0 F1500
X0.49 Y26.585 M03 S255 F110
X1.29 Y23.375 M03 S0 F1500
X0.85 Y24.965 M03 S255 F110
X1.8 Y21.825 M03 S0 F1500
X1.29 Y23.375 M03 S255 F110
X2.39 Y20.295 M03 S0 F1500
X1.8 Y21.825 M03 S255 F110
X3.79 Y17.385 M03 S0 F1500
X2.39 Y20.295 M03 S255 F110
X5.44 Y14.645 M03 S0 F1500
X3.79 Y17.385 M03 S255 F110
X7.34 Y12.085 M03 S0 F1500
X5.44 Y14.645 M03 S255 F110
X9.46 Y9.735 M03 S0 F1500
X7.34 Y12.085 M03 S255 F110
X11.81 Y7.595 M03 S0 F1500
X9.46 Y9.735 M03 S255 F110
X14.34 Y5.695 M03 S0 F1500
X11.81 Y7.595 M03 S255 F110
X17.05 Y4.035 M03 S0 F1500
X14.34 Y5.695 M03 S255 F110
X19.91 Y2.645 M03 S0 F1500
X17.05 Y4.035 M03 S255 F110
X22.91 Y1.535 M03 S0 F1500
X19.91 Y2.645 M03 S255 F110
X24.46 Y1.085 M03 S0 F1500
X22.91 Y1.535 M03 S255 F110
X26.04 Y0.715 M03 S0 F1500
X24.46 Y1.085 M03 S255 F110
X27.65 Y0.415 M03 S0 F1500
X26.04 Y0.715 M03 S255 F110
X29.27 Y0.195 M03 S0 F1500
X27.65 Y0.415 M03 S255 F110
X30.91 Y0.065 M03 S0 F1500
X29.27 Y0.195 M03 S255 F110
X32.57 Y-0.005 M03 S0 F1500
X30.91 Y0.065 M03 S255 F110
X34.26 Y0.035 M03 S0 F1500
X32.57 Y-0.005 M03 S255 F110
X35.96 Y0.145 M03 S0 F1500
X34.26 Y0.035 M03 S255 F110
X37.65 Y0.345 M03 S0 F1500
X35.96 Y0.145 M03 S255 F110
X39.31 Y0.635 M03 S0 F1500
X37.65 Y0.345 M03 S255 F110
X40.94 Y0.995 M03 S0 F1500
X39.31 Y0.635 M03 S255 F110
X42.52 Y1.435 M03 S0 F1500
X40.94 Y0.995 M03 S255 F110
X44.08 Y1.965 M03 S0 F1500
X42.52 Y1.435 M03 S255 F110
X45.6 Y2.545 M03 S0 F1500
X44.08 Y1.965 M03 S255 F110
X48.51 Y3.935 M03 S0 F1500
X45.6 Y2.545 M03 S255 F110
X51.25 Y5.595 M03 S0 F1500
X48.51 Y3.935 M03 S255 F110
X53.81 Y7.495 M03 S0 F1500
X51.25 Y5.595 M03 S255 F110
X56.16 Y9.625 M03 S0 F1500
X53.81 Y7.495 M03 S255 F110
X58.3 Y11.965 M03 S0 F1500
X56.16 Y9.625 M03 S255 F110
X60.2 Y14.495 M03 S0 F1500
X58.3 Y11.965 M03 S255 F110
X61.86 Y17.215 M03 S0 F1500
X60.2 Y14.495 M03 S255 F110
X63.25 Y20.075 M03 S0 F1500
X61.86 Y17.215 M03 S255 F110
X64.36 Y23.075 M03 S0 F1500
X63.25 Y20.075 M03 S255 F110
X64.81 Y24.625 M03 S0 F1500
X64.36 Y23.075 M03 S255 F110
X65.19 Y26.195 M03 S0 F1500
X64.81 Y24.625 M03 S255 F110
X65.49 Y27.795 M03 S0 F1500
X65.19 Y26.195 M03 S255 F110
X65.7 Y29.425 M03 S0 F1500
X65.49 Y27.795 M03 S255 F110
X65.84 Y31.075 M03 S0 F1500
X65.7 Y29.425 M03 S255 F110
X65.9 Y32.735 M03 S0 F1500
X65.84 Y31.075 M03 S255 F110
X65.86 Y34.415 M03 S0 F1500
X65.9 Y32.735 M03 S255 F110
X65.75 Y36.115 M03 S0 F1500
X65.86 Y34.415 M03 S255 F110
X65.55 Y37.805 M03 S0 F1500
X65.75 Y36.115 M03 S255 F110
X65.26 Y39.465 M03 S0 F1500
X65.55 Y37.805 M03 S255 F110
X64.9 Y41.085 M03 S0 F1500
X65.26 Y39.465 M03 S255 F110
X64.46 Y42.675 M03 S0 F1500
X64.9 Y41.085 M03 S255 F110
X63.94 Y44.225 M03 S0 F1500
X64.46 Y42.675 M03 S255 F110
X63.35 Y45.755 M03 S0 F1500
X63.94 Y44.225 M03 S255 F110
X61.96 Y48.665 M03 S0 F1500
X63.35 Y45.755 M03 S255 F110
X60.3 Y51.405 M03 S0 F1500
X61.96 Y48.665 M03 S255 F110
X58.4 Y53.965 M03 S0 F1500
X60.3 Y51.405 M03 S255 F110
X56.28 Y56.315 M03 S0 F1500
X58.4 Y53.965 M03 S255 F110
X53.94 Y58.455 M03 S0 F1500
X56.28 Y56.315 M03 S255 F110
X51.4 Y60.355 M03 S0 F1500
X53.94 Y58.455 M03 S255 F110
X48.69 Y62.015 M03 S0 F1500
X51.4 Y60.355 M03 S255 F110
X45.83 Y63.405 M03 S0 F1500
X48.69 Y62.015 M03 S255 F110
X42.82 Y64.515 M03 S0 F1500
X45.83 Y63.405 M03 S255 F110
X41.28 Y64.965 M03 S0 F1500
X42.82 Y64.515 M03 S255 F110
X39.7 Y65.335 M03 S0 F1500
X41.28 Y64.965 M03 S255 F110
X38.1 Y65.635 M03 S0 F1500
X39.7 Y65.335 M03 S255 F110
X36.48 Y65.855 M03 S0 F1500
X38.1 Y65.635 M03 S255 F110
X34.83 Y65.985 M03 S0 F1500
X36.48 Y65.855 M03 S255 F110
X33.16 Y66.055 M03 S0 F1500
X34.83 Y65.985 M03 S255 F110
X31.47 Y66.015 M03 S0 F1500
X33.16 Y66.055 M03 S255 F110
X29.79 Y65.905 M03 S0 F1500
X31.47 Y66.015 M03 S255 F110
X26.86 Y65.505 M03 S0 F1500
X29.79 Y65.905 M03 S255 F110
X24.04 Y64.835 M03 S0 F1500
X26.86 Y65.505 M03 S255 F110
X21.3 Y63.955 M03 S0 F1500
X24.04 Y64.835 M03 S255 F110
X18.69 Y62.835 M03 S0 F1500
X21.3 Y63.955 M03 S255 F110
X16.19 Y61.515 M03 S0 F1500
X18.69 Y62.835 M03 S255 F110
X13.81 Y59.985 M03 S0 F1500
X16.19 Y61.515 M03 S255 F110
X11.6 Y58.275 M03 S0 F1500
X13.81 Y59.985 M03 S255 F110
X9.54 Y56.375 M03 S0 F1500
X11.6 Y58.275 M03 S255 F110
X7.64 Y54.315 M03 S0 F1500
X9.54 Y56.375 M03 S255 F110
X5.91 Y52.085 M03 S0 F1500
X7.64 Y54.315 M03 S255 F110
X4.39 Y49.725 M03 S0 F1500
X5.91 Y52.085 M03 S255 F110
X3.06 Y47.225 M03 S0 F1500
X4.39 Y49.725 M03 S255 F110
X1.95 Y44.615 M03 S0 F1500
X3.06 Y47.225 M03 S255 F110
X1.06 Y41.875 M03 S0 F1500
X1.95 Y44.615 M03 S255 F110
X0.4 Y39.055 M03 S0 F1500
X1.06 Y41.875 M03 S255 F110
X0 Y36.125 M03 S0 F1500
X0.4 Y39.055 M03 S255 F110
X33.2 Y95.315 M03 S0 F1500
X33 Y93.625 M03 S255 F110
X33.49 Y96.965 M03 S0 F1500
X33.2 Y95.315 M03 S255 F110
X33.85 Y98.585 M03 S0 F1500
X33.49 Y96.965 M03 S255 F110
X34.29 Y100.175 M03 S0 F1500
X33.85 Y98.585 M03 S255 F110
X34.81 Y101.735 M03 S0 F1500
X34.29 Y100.175 M03 S255 F110
X35.4 Y103.255 M03 S0 F1500
X34.81 Y101.735 M03 S255 F110
X36.79 Y106.165 M03 S0 F1500
X35.4 Y103.255 M03 S255 F110
X38.44 Y108.915 M03 S0 F1500
X36.79 Y106.165 M03 S255 F110
X40.34 Y111.465 M03 S0 F1500
X38.44 Y108.915 M03 S255 F110
X42.48 Y113.815 M03 S0 F1500
X40.34 Y111.465 M03 S255 F110
X44.81 Y115.955 M03 S0 F1500
X42.48 Y113.815 M03 S255 F110
X47.34 Y117.855 M03 S0 F1500
X44.81 Y115.955 M03 S255 F110
X50.05 Y119.505 M03 S0 F1500
X47.34 Y117.855 M03 S255 F110
X52.91 Y120.885 M03 S0 F1500
X50.05 Y119.505 M03 S255 F110
X55.91 Y122.005 M03 S0 F1500
X52.91 Y120.885 M03 S255 F110
X57.46 Y122.455 M03 S0 F1500
X55.91 Y122.005 M03 S255 F110
X59.04 Y122.825 M03 S0 F1500
X57.46 Y122.455 M03 S255 F110
X60.64 Y123.125 M03 S0 F1500
X59.04 Y122.825 M03 S255 F110
X62.26 Y123.335 M03 S0 F1500
X60.64 Y123.125 M03 S255 F110
X63.91 Y123.475 M03 S0 F1500
X62.26 Y123.335 M03 S255 F110
X65.58 Y123.525 M03 S0 F1500
X63.91 Y123.475 M03 S255 F110
X67.25 Y123.505 M03 S0 F1500
X65.58 Y123.525 M03 S255 F110
X68.95 Y123.385 M03 S0 F1500
X67.25 Y123.505 M03 S255 F110
X70.64 Y123.185 M03 S0 F1500
X68.95 Y123.385 M03 S255 F110
X72.29 Y122.905 M03 S0 F1500
X70.64 Y123.185 M03 S255 F110
X73.91 Y122.535 M03 S0 F1500
X72.29 Y122.905 M03 S255 F110
X75.5 Y122.105 M03 S0 F1500
X73.91 Y122.535 M03 S255 F110
X77.06 Y121.575 M03 S0 F1500
X75.5 Y122.105 M03 S255 F110
X78.58 Y120.985 M03 S0 F1500
X77.06 Y121.575 M03 S255 F110
X81.49 Y119.605 M03 S0 F1500
X78.58 Y120.985 M03 S255 F110
X84.24 Y117.955 M03 S0 F1500
X81.49 Y119.605 M03 S255 F110
X86.79 Y116.045 M03 S0 F1500
X84.24 Y117.955 M03 S255 F110
X89.14 Y113.915 M03 S0 F1500
X86.79 Y116.045 M03 S255 F110
X91.28 Y111.575 M03 S0 F1500
X89.14 Y113.915 M03 S255 F110
X93.18 Y109.035 M03 S0 F1500
X91.28 Y111.575 M03 S255 F110
X94.83 Y106.335 M03 S0 F1500
X93.18 Y109.035 M03 S255 F110
X96.21 Y103.475 M03 S0 F1500
X94.83 Y106.335 M03 S255 F110
X97.33 Y100.475 M03 S0 F1500
X96.21 Y103.475 M03 S255 F110
X97.78 Y98.925 M03 S0 F1500
X97.33 Y100.475 M03 S255 F110
X98.15 Y97.355 M03 S0 F1500
X97.78 Y98.925 M03 S255 F110
X98.45 Y95.755 M03 S0 F1500
X98.15 Y97.355 M03 S255 F110
X98.66 Y94.125 M03 S0 F1500
X98.45 Y95.755 M03 S255 F110
X98.8 Y92.475 M03 S0 F1500
X98.66 Y94.125 M03 S255 F110
X98.85 Y90.815 M03 S0 F1500
X98.8 Y92.475 M03 S255 F110
X98.83 Y89.125 M03 S0 F1500
X98.85 Y90.815 M03 S255 F110
X98.71 Y87.435 M03 S0 F1500
X98.83 Y89.125 M03 S255 F110
X98.51 Y85.755 M03 S0 F1500
X98.71 Y87.435 M03 S255 F110
X98.23 Y84.105 M03 S0 F1500
X98.51 Y85.755 M03 S255 F110
X97.86 Y82.475 M03 S0 F1500
X98.23 Y84.105 M03 S255 F110
X97.43 Y80.885 M03 S0 F1500
X97.86 Y82.475 M03 S255 F110
X96.9 Y79.325 M03 S0 F1500
X97.43 Y80.885 M03 S255 F110
X96.31 Y77.815 M03 S0 F1500
X96.9 Y79.325 M03 S255 F110
X94.93 Y74.905 M03 S0 F1500
X96.31 Y77.815 M03 S255 F110
X93.28 Y72.155 M03 S0 F1500
X94.93 Y74.905 M03 S255 F110
X91.38 Y69.605 M03 S0 F1500
X93.28 Y72.155 M03 S255 F110
X89.24 Y67.255 M03 S0 F1500
X91.38 Y69.605 M03 S255 F110
X86.9 Y65.115 M03 S0 F1500
X89.24 Y67.255 M03 S255 F110
X84.36 Y63.215 M03 S0 F1500
X86.9 Y65.115 M03 S255 F110
X81.66 Y61.565 M03 S0 F1500
X84.36 Y63.215 M03 S255 F110
X78.8 Y60.175 M03 S0 F1500
X81.66 Y61.565 M03 S255 F110
X75.8 Y59.055 M03 S0 F1500
X78.8 Y60.175 M03 S255 F110
X74.25 Y58.615 M03 S0 F1500
X75.8 Y59.055 M03 S255 F110
X72.68 Y58.235 M03 S0 F1500
X74.25 Y58.615 M03 S255 F110
X71.08 Y57.935 M03 S0 F1500
X72.68 Y58.235 M03 S255 F110
X69.45 Y57.725 M03 S0 F1500
X71.08 Y57.935 M03 S255 F110
X67.8 Y57.585 M03 S0 F1500
X69.45 Y57.725 M03 S255 F110
X66.14 Y57.525 M03 S0 F1500
X67.8 Y57.585 M03 S255 F110
X64.45 Y57.555 M03 S0 F1500
X66.14 Y57.525 M03 S255 F110
X62.76 Y57.675 M03 S0 F1500
X64.45 Y57.555 M03 S255 F110
X59.85 Y58.075 M03 S0 F1500
X62.76 Y57.675 M03 S255 F110
X57.01 Y58.735 M03 S0 F1500
X59.85 Y58.075 M03 S255 F110
X54.29 Y59.625 M03 S0 F1500
X57.01 Y58.735 M03 S255 F110
X51.66 Y60.735 M03 S0 F1500
X54.29 Y59.625 M03 S255 F110
X49.18 Y62.065 M03 S0 F1500
X51.66 Y60.735 M03 S255 F110
X46.8 Y63.585 M03 S0 F1500
X49.18 Y62.065 M03 S255 F110
X44.59 Y65.305 M03 S0 F1500
X46.8 Y63.585 M03 S255 F110
X42.52 Y67.205 M03 S0 F1500
X44.59 Y65.305 M03 S255 F110
X40.63 Y69.265 M03 S0 F1500
X42.52 Y67.205 M03 S255 F110
X38.91 Y71.475 M03 S0 F1500
X40.63 Y69.265 M03 S255 F110
X37.39 Y73.855 M03 S0 F1500
X38.91 Y71.475 M03 S255 F110
X36.06 Y76.335 M03 S0 F1500
X37.39 Y73.855 M03 S255 F110
X34.95 Y78.965 M03 S0 F1500
X36.06 Y76.335 M03 S255 F110
X34.06 Y81.685 M03 S0 F1500
X34.95 Y78.965 M03 S255 F110
X33.4 Y84.525 M03 S0 F1500
X34.06 Y81.685 M03 S255 F110
X33 Y87.435 M03 S0 F1500
X33.4 Y84.525 M03 S255 F110
X34.59 Y87.725 M03 S0 F1500
X33.99 Y87.535 M03 S255 F110
X35.11 Y88.025 M03 S0 F1500
X34.59 Y87.725 M03 S255 F110
X35.58 Y88.415 M03 S0 F1500
X35.11 Y88.025 M03 S255 F110
X35.95 Y88.875 M03 S0 F1500
X35.58 Y88.415 M03 S255 F110
X36.23 Y89.405 M03 S0 F1500
X35.95 Y88.875 M03 S255 F110
X36.4 Y89.965 M03 S0 F1500
X36.23 Y89.405 M03 S255 F110
X36.45 Y90.565 M03 S0 F1500
X36.4 Y89.965 M03 S255 F110
X36.39 Y91.185 M03 S0 F1500
X36.45 Y90.565 M03 S255 F110
X36.21 Y91.755 M03 S0 F1500
X36.39 Y91.185 M03 S255 F110
X35.95 Y92.265 M03 S0 F1500
X36.21 Y91.755 M03 S255 F110
X35.6 Y92.705 M03 S0 F1500
X35.95 Y92.265 M03 S255 F110
X35.18 Y93.065 M03 S0 F1500
X35.6 Y92.705 M03 S255 F110
X34.69 Y93.355 M03 S0 F1500
X35.18 Y93.065 M03 S255 F110
X34.16 Y93.555 M03 S0 F1500
X34.69 Y93.355 M03 S255 F110
X33.59 Y93.635 M03 S0 F1500
X34.16 Y93.555 M03 S255 F110
X33 Y93.625 M03 S0 F1500
X33.59 Y93.635 M03 S255 F110
X69.3 Y91.025 M03 S0 F1500
X69.35 Y90.525 M03 S255 F110
X69.15 Y91.505 M03 S0 F1500
X69.3 Y91.025 M03 S255 F110
X68.93 Y91.925 M03 S0 F1500
X69.15 Y91.505 M03 S255 F110
X68.63 Y92.305 M03 S0 F1500
X68.93 Y91.925 M03 S255 F110
X68.25 Y92.605 M03 S0 F1500
X68.63 Y92.305 M03 S255 F110
X67.83 Y92.825 M03 S0 F1500
X68.25 Y92.605 M03 S255 F110
X67.35 Y92.975 M03 S0 F1500
X67.83 Y92.825 M03 S255 F110
X66.85 Y93.025 M03 S0 F1500
X67.35 Y92.975 M03 S255 F110
X66.35 Y92.975 M03 S0 F1500
X66.85 Y93.025 M03 S255 F110
X65.88 Y92.825 M03 S0 F1500
X66.35 Y92.975 M03 S255 F110
X65.45 Y92.605 M03 S0 F1500
X65.88 Y92.825 M03 S255 F110
X65.09 Y92.305 M03 S0 F1500
X65.45 Y92.605 M03 S255 F110
X64.78 Y91.925 M03 S0 F1500
X65.09 Y92.305 M03 S255 F110
X64.55 Y91.505 M03 S0 F1500
X64.78 Y91.925 M03 S255 F110
X64.4 Y91.025 M03 S0 F1500
X64.55 Y91.505 M03 S255 F110
X64.35 Y90.525 M03 S0 F1500
X64.4 Y91.025 M03 S255 F110
X64.4 Y90.025 M03 S0 F1500
X64.35 Y90.525 M03 S255 F110
X64.55 Y89.555 M03 S0 F1500
X64.4 Y90.025 M03 S255 F110
X64.78 Y89.125 M03 S0 F1500
X64.55 Y89.555 M03 S255 F110
X65.09 Y88.765 M03 S0 F1500
X64.78 Y89.125 M03 S255 F110
X65.45 Y88.455 M03 S0 F1500
X65.09 Y88.765 M03 S255 F110
X65.88 Y88.225 M03 S0 F1500
X65.45 Y88.455 M03 S255 F110
X66.35 Y88.075 M03 S0 F1500
X65.88 Y88.225 M03 S255 F110
X66.85 Y88.025 M03 S0 F1500
X66.35 Y88.075 M03 S255 F110
X67.35 Y88.075 M03 S0 F1500
X66.85 Y88.025 M03 S255 F110
X67.83 Y88.225 M03 S0 F1500
X67.35 Y88.075 M03 S255 F110
X68.25 Y88.455 M03 S0 F1500
X67.83 Y88.225 M03 S255 F110
X68.63 Y88.765 M03 S0 F1500
X68.25 Y88.455 M03 S255 F110
X68.93 Y89.125 M03 S0 F1500
X68.63 Y88.765 M03 S255 F110
X69.15 Y89.555 M03 S0 F1500
X68.93 Y89.125 M03 S255 F110
X69.3 Y90.025 M03 S0 F1500
X69.15 Y89.555 M03 S255 F110
X69.35 Y90.525 M03 S0 F1500
X69.3 Y90.025 M03 S255 F110
X69.35 Y90.525 M03 S0 F1500
X69.35 Y90.525 M03 S255 F110
X67.2 Y37.815 M03 S0 F1500
X67 Y36.125 M03 S255 F110
X67.49 Y39.465 M03 S0 F1500
X67.2 Y37.815 M03 S255 F110
X67.85 Y41.085 M03 S0 F1500
X67.49 Y39.465 M03 S255 F110
X68.29 Y42.675 M03 S0 F1500
X67.85 Y41.085 M03 S255 F110
X68.81 Y44.235 M03 S0 F1500
X68.29 Y42.675 M03 S255 F110
X69.4 Y45.755 M03 S0 F1500
X68.81 Y44.235 M03 S255 F110
X70.79 Y48.665 M03 S0 F1500
X69.4 Y45.755 M03 S255 F110
X72.44 Y51.415 M03 S0 F1500
X70.79 Y48.665 M03 S255 F110
X74.34 Y53.965 M03 S0 F1500
X72.44 Y51.415 M03 S255 F110
X76.48 Y56.315 M03 S0 F1500
X74.34 Y53.965 M03 S255 F110
X78.81 Y58.455 M03 S0 F1500
X76.48 Y56.315 M03 S255 F110
X81.34 Y60.355 M03 S0 F1500
X78.81 Y58.455 M03 S255 F110
X84.05 Y62.005 M03 S0 F1500
X81.34 Y60.355 M03 S255 F110
X86.91 Y63.385 M03 S0 F1500
X84.05 Y62.005 M03 S255 F110
X89.91 Y64.505 M03 S0 F1500
X86.91 Y63.385 M03 S255 F110
X91.46 Y64.955 M03 S0 F1500
X89.91 Y64.505 M03 S255 F110
X93.04 Y65.325 M03 S0 F1500
X91.46 Y64.955 M03 S255 F110
X94.64 Y65.625 M03 S0 F1500
X93.04 Y65.325 M03 S255 F110
X96.26 Y65.835 M03 S0 F1500
X94.64 Y65.625 M03 S255 F110
X97.91 Y65.975 M03 S0 F1500
X96.26 Y65.835 M03 S255 F110
X99.58 Y66.025 M03 S0 F1500
X97.91 Y65.975 M03 S255 F110
X101.25 Y66.005 M03 S0 F1500
X99.58 Y66.025 M03 S255 F110
X102.95 Y65.885 M03 S0 F1500
X101.25 Y66.005 M03 S255 F110
X104.64 Y65.685 M03 S0 F1500
X102.95 Y65.885 M03 S255 F110
X106.29 Y65.405 M03 S0 F1500
X104.64 Y65.685 M03 S255 F110
X107.91 Y65.035 M03 S0 F1500
X106.29 Y65.405 M03 S255 F110
X109.5 Y64.605 M03 S0 F1500
X107.91 Y65.035 M03 S255 F110
X111.06 Y64.075 M03 S0 F1500
X109.5 Y64.605 M03 S255 F110
X112.58 Y63.485 M03 S0 F1500
X111.06 Y64.075 M03 S255 F110
X115.49 Y62.105 M03 S0 F1500
X112.58 Y63.485 M03 S255 F110
X118.24 Y60.455 M03 S0 F1500
X115.49 Y62.105 M03 S255 F110
X120.79 Y58.555 M03 S0 F1500
X118.24 Y60.455 M03 S255 F110
X123.14 Y56.415 M03 S0 F1500
X120.79 Y58.555 M03 S255 F110
X125.28 Y54.075 M03 S0 F1500
X123.14 Y56.415 M03 S255 F110
X127.18 Y51.535 M03 S0 F1500
X125.28 Y54.075 M03 S255 F110
X128.83 Y48.835 M03 S0 F1500
X127.18 Y51.535 M03 S255 F110
X130.21 Y45.975 M03 S0 F1500
X128.83 Y48.835 M03 S255 F110
X131.33 Y42.975 M03 S0 F1500
X130.21 Y45.975 M03 S255 F110
X131.78 Y41.425 M03 S0 F1500
X131.33 Y42.975 M03 S255 F110
X132.15 Y39.855 M03 S0 F1500
X131.78 Y41.425 M03 S255 F110
X132.45 Y38.255 M03 S0 F1500
X132.15 Y39.855 M03 S255 F110
X132.66 Y36.625 M03 S0 F1500
X132.45 Y38.255 M03 S255 F110
X132.8 Y34.975 M03 S0 F1500
X132.66 Y36.625 M03 S255 F110
X132.85 Y33.315 M03 S0 F1500
X132.8 Y34.975 M03 S255 F110
X132.83 Y31.625 M03 S0 F1500
X132.85 Y33.315 M03 S255 F110
X132.71 Y29.935 M03 S0 F1500
X132.83 Y31.625 M03 S255 F110
X132.51 Y28.245 M03 S0 F1500
X132.71 Y29.935 M03 S255 F110
X132.23 Y26.595 M03 S0 F1500
X132.51 Y28.245 M03 S255 F110
X131.86 Y24.975 M03 S0 F1500
X132.23 Y26.595 M03 S255 F110
X131.43 Y23.385 M03 S0 F1500
X131.86 Y24.975 M03 S255 F110
X130.9 Y21.825 M03 S0 F1500
X131.43 Y23.385 M03 S255 F110
X130.31 Y20.315 M03 S0 F1500
X130.9 Y21.825 M03 S255 F110
X128.93 Y17.395 M03 S0 F1500
X130.31 Y20.315 M03 S255 F110
X127.28 Y14.645 M03 S0 F1500
X128.93 Y17.395 M03 S255 F110
X125.37 Y12.095 M03 S0 F1500
X127.28 Y14.645 M03 S255 F110
X123.24 Y9.745 M03 S0 F1500
X125.37 Y12.095 M03 S255 F110
X120.9 Y7.615 M03 S0 F1500
X123.24 Y9.745 M03 S255 F110
X118.36 Y5.715 M03 S0 F1500
X120.9 Y7.615 M03 S255 F110
X115.66 Y4.065 M03 S0 F1500
X118.36 Y5.715 M03 S255 F110
X112.8 Y2.675 M03 S0 F1500
X115.66 Y4.065 M03 S255 F110
X109.8 Y1.545 M03 S0 F1500
X112.8 Y2.675 M03 S255 F110
X108.25 Y1.115 M03 S0 F1500
X109.8 Y1.545 M03 S255 F110
X106.68 Y0.735 M03 S0 F1500
X108.25 Y1.115 M03 S255 F110
X105.08 Y0.435 M03 S0 F1500
X106.68 Y0.735 M03 S255 F110
X103.45 Y0.225 M03 S0 F1500
X105.08 Y0.435 M03 S255 F110
X101.8 Y0.085 M03 S0 F1500
X103.45 Y0.225 M03 S255 F110
X100.14 Y0.025 M03 S0 F1500
X101.8 Y0.085 M03 S255 F110
X98.45 Y0.045 M03 S0 F1500
X100.14 Y0.025 M03 S255 F110
X96.76 Y0.175 M03 S0 F1500
X98.45 Y0.045 M03 S255 F110
X93.85 Y0.575 M03 S0 F1500
X96.76 Y0.175 M03 S255 F110
X91.01 Y1.235 M03 S0 F1500
X93.85 Y0.575 M03 S255 F110
X88.29 Y2.125 M03 S0 F1500
X91.01 Y1.235 M03 S255 F110
X85.66 Y3.235 M03 S0 F1500
X88.29 Y2.125 M03 S255 F110
X83.18 Y4.565 M03 S0 F1500
X85.66 Y3.235 M03 S255 F110
X80.8 Y6.085 M03 S0 F1500
X83.18 Y4.565 M03 S255 F110
X78.59 Y7.795 M03 S0 F1500
X80.8 Y6.085 M03 S255 F110
X76.53 Y9.695 M03 S0 F1500
X78.59 Y7.795 M03 S255 F110
X74.63 Y11.765 M03 S0 F1500
X76.53 Y9.695 M03 S255 F110
X72.91 Y13.975 M03 S0 F1500
X74.63 Y11.765 M03 S255 F110
X71.39 Y16.345 M03 S0 F1500
X72.91 Y13.975 M03 S255 F110
X70.06 Y18.835 M03 S0 F1500
X71.39 Y16.345 M03 S255 F110
X68.95 Y21.465 M03 S0 F1500
X70.06 Y18.835 M03 S255 F110
X68.06 Y24.185 M03 S0 F1500
X68.95 Y21.465 M03 S255 F110
X67.4 Y27.025 M03 S0 F1500
X68.06 Y24.185 M03 S255 F110
X67 Y29.935 M03 S0 F1500
X67.4 Y27.025 M03 S255 F110
X68.59 Y30.225 M03 S0 F1500
X67.99 Y30.035 M03 S255 F110
X69.11 Y30.525 M03 S0 F1500
X68.59 Y30.225 M03 S255 F110
X69.58 Y30.915 M03 S0 F1500
X69.11 Y30.525 M03 S255 F110
X69.95 Y31.375 M03 S0 F1500
X69.58 Y30.915 M03 S255 F110
X70.23 Y31.895 M03 S0 F1500
X69.95 Y31.375 M03 S255 F110
X70.4 Y32.465 M03 S0 F1500
X70.23 Y31.895 M03 S255 F110
X70.45 Y33.065 M03 S0 F1500
X70.4 Y32.465 M03 S255 F110
X70.39 Y33.685 M03 S0 F1500
X70.45 Y33.065 M03 S255 F110
X70.21 Y34.255 M03 S0 F1500
X70.39 Y33.685 M03 S255 F110
X69.95 Y34.765 M03 S0 F1500
X70.21 Y34.255 M03 S255 F110
X69.6 Y35.205 M03 S0 F1500
X69.95 Y34.765 M03 S255 F110
X69.18 Y35.565 M03 S0 F1500
X69.6 Y35.205 M03 S255 F110
X68.69 Y35.855 M03 S0 F1500
X69.18 Y35.565 M03 S255 F110
X68.16 Y36.055 M03 S0 F1500
X68.69 Y35.855 M03 S255 F110
X67.59 Y36.135 M03 S0 F1500
X68.16 Y36.055 M03 S255 F110
X67 Y36.125 M03 S0 F1500
X67.59 Y36.135 M03 S255 F110
X103.3 Y33.525 M03 S0 F1500
X103.35 Y33.025 M03 S255 F110
X103.15 Y34.005 M03 S0 F1500
X103.3 Y33.525 M03 S255 F110
X102.93 Y34.425 M03 S0 F1500
X103.15 Y34.005 M03 S255 F110
X102.62 Y34.805 M03 S0 F1500
X102.93 Y34.425 M03 S255 F110
X102.25 Y35.105 M03 S0 F1500
X102.62 Y34.805 M03 S255 F110
X101.83 Y35.325 M03 S0 F1500
X102.25 Y35.105 M03 S255 F110
X101.35 Y35.475 M03 S0 F1500
X101.83 Y35.325 M03 S255 F110
X100.85 Y35.525 M03 S0 F1500
X101.35 Y35.475 M03 S255 F110
X100.35 Y35.475 M03 S0 F1500
X100.85 Y35.525 M03 S255 F110
X99.87 Y35.325 M03 S0 F1500
X100.35 Y35.475 M03 S255 F110
X99.45 Y35.105 M03 S0 F1500
X99.87 Y35.325 M03 S255 F110
X99.09 Y34.805 M03 S0 F1500
X99.45 Y35.105 M03 S255 F110
X98.78 Y34.425 M03 S0 F1500
X99.09 Y34.805 M03 S255 F110
X98.55 Y34.005 M03 S0 F1500
X98.78 Y34.425 M03 S255 F110
X98.4 Y33.525 M03 S0 F1500
X98.55 Y34.005 M03 S255 F110
X98.35 Y33.025 M03 S0 F1500
X98.4 Y33.525 M03 S255 F110
X98.4 Y32.525 M03 S0 F1500
X98.35 Y33.025 M03 S255 F110
X98.55 Y32.045 M03 S0 F1500
X98.4 Y32.525 M03 S255 F110
X98.78 Y31.625 M03 S0 F1500
X98.55 Y32.045 M03 S255 F110
X99.09 Y31.265 M03 S0 F1500
X98.78 Y31.625 M03 S255 F110
X99.45 Y30.945 M03 S0 F1500
X99.09 Y31.265 M03 S255 F110
X99.87 Y30.725 M03 S0 F1500
X99.45 Y30.945 M03 S255 F110
X100.35 Y30.575 M03 S0 F1500
X99.87 Y30.725 M03 S255 F110
X100.85 Y30.525 M03 S0 F1500
X100.35 Y30.575 M03 S255 F110
X101.35 Y30.575 M03 S0 F1500
X100.85 Y30.525 M03 S255 F110
X101.83 Y30.725 M03 S0 F1500
X101.35 Y30.575 M03 S255 F110
X102.25 Y30.945 M03 S0 F1500
X101.83 Y30.725 M03 S255 F110
X102.62 Y31.265 M03 S0 F1500
X102.25 Y30.945 M03 S255 F110
X102.93 Y31.625 M03 S0 F1500
X102.62 Y31.265 M03 S255 F110
X103.15 Y32.045 M03 S0 F1500
X102.93 Y31.625 M03 S255 F110
X103.3 Y32.525 M03 S0 F1500
X103.15 Y32.045 M03 S255 F110
X103.35 Y33.025 M03 S0 F1500
X103.3 Y32.525 M03 S255 F110
X103.35 Y33.025 M03 S0 F1500
X103.35 Y33.025 M03 S255 F110
X100.2 Y95.315 M03 S0 F1500
X100 Y93.625 M03 S255 F110
X100.49 Y96.965 M03 S0 F1500
X100.2 Y95.315 M03 S255 F110
X100.85 Y98.585 M03 S0 F1500
X100.49 Y96.965 M03 S255 F110
X101.29 Y100.175 M03 S0 F1500
X100.85 Y98.585 M03 S255 F110
X101.81 Y101.735 M03 S0 F1500
X101.29 Y100.175 M03 S255 F110
X102.4 Y103.255 M03 S0 F1500
X101.81 Y101.735 M03 S255 F110
X103.79 Y106.165 M03 S0 F1500
X102.4 Y103.255 M03 S255 F110
X105.44 Y108.915 M03 S0 F1500
X103.79 Y106.165 M03 S255 F110
X107.34 Y111.465 M03 S0 F1500
X105.44 Y108.915 M03 S255 F110
X109.48 Y113.815 M03 S0 F1500
X107.34 Y111.465 M03 S255 F110
X111.81 Y115.955 M03 S0 F1500
X109.48 Y113.815 M03 S255 F110
X114.34 Y117.855 M03 S0 F1500
X111.81 Y115.955 M03 S255 F110
X117.05 Y119.505 M03 S0 F1500
X114.34 Y117.855 M03 S255 F110
X119.91 Y120.885 M03 S0 F1500
X117.05 Y119.505 M03 S255 F110
X122.91 Y122.005 M03 S0 F1500
X119.91 Y120.885 M03 S255 F110
X124.46 Y122.455 M03 S0 F1500
X122.91 Y122.005 M03 S255 F110
X126.04 Y122.825 M03 S0 F1500
X124.46 Y122.455 M03 S255 F110
X127.64 Y123.125 M03 S0 F1500
X126.04 Y122.825 M03 S255 F110
X129.26 Y123.335 M03 S0 F1500
X127.64 Y123.125 M03 S255 F110
X130.91 Y123.475 M03 S0 F1500
X129.26 Y123.335 M03 S255 F110
X132.58 Y123.525 M03 S0 F1500
X130.91 Y123.475 M03 S255 F110
X134.25 Y123.505 M03 S0 F1500
X132.58 Y123.525 M03 S255 F110
X135.95 Y123.385 M03 S0 F1500
X134.25 Y123.505 M03 S255 F110
X137.64 Y123.185 M03 S0 F1500
X135.95 Y123.385 M03 S255 F110
X139.29 Y122.905 M03 S0 F1500
X137.64 Y123.185 M03 S255 F110
X140.91 Y122.535 M03 S0 F1500
X139.29 Y122.905 M03 S255 F110
X142.5 Y122.105 M03 S0 F1500
X140.91 Y122.535 M03 S255 F110
X144.06 Y121.575 M03 S0 F1500
X142.5 Y122.105 M03 S255 F110
X145.58 Y120.985 M03 S0 F1500
X144.06 Y121.575 M03 S255 F110
X148.49 Y119.605 M03 S0 F1500
X145.58 Y120.985 M03 S255 F110
X151.24 Y117.955 M03 S0 F1500
X148.49 Y119.605 M03 S255 F110
X153.79 Y116.045 M03 S0 F1500
X151.24 Y117.955 M03 S255 F110
X156.14 Y113.915 M03 S0 F1500
X153.79 Y116.045 M03 S255 F110
X158.28 Y111.575 M03 S0 F1500
X156.14 Y113.915 M03 S255 F110
X160.18 Y109.035 M03 S0 F1500
X158.28 Y111.575 M03 S255 F110
X161.83 Y106.335 M03 S0 F1500
X160.18 Y109.035 M03 S255 F110
X163.21 Y103.475 M03 S0 F1500
X161.83 Y106.335 M03 S255 F110
X164.33 Y100.475 M03 S0 F1500
X163.21 Y103.475 M03 S255 F110
X164.78 Y98.925 M03 S0 F1500
X164.33 Y100.475 M03 S255 F110
X165.15 Y97.355 M03 S0 F1500
X164.78 Y98.925 M03 S255 F110
X165.45 Y95.755 M03 S0 F1500
X165.15 Y97.355 M03 S255 F110
X165.66 Y94.125 M03 S0 F1500
X165.45 Y95.755 M03 S255 F110
X165.8 Y92.475 M03 S0 F1500
X165.66 Y94.125 M03 S255 F110
X165.85 Y90.815 M03 S0 F1500
X165.8 Y92.475 M03 S255 F110
X165.83 Y89.125 M03 S0 F1500
X165.85 Y90.815 M03 S255 F110
X165.71 Y87.435 M03 S0 F1500
X165.83 Y89.125 M03 S255 F110
X165.51 Y85.755 M03 S0 F1500
X165.71 Y87.435 M03 S255 F110
X165.23 Y84.105 M03 S0 F1500
X165.51 Y85.755 M03 S255 F110
X164.86 Y82.475 M03 S0 F1500
X165.23 Y84.105 M03 S255 F110
X164.43 Y80.885 M03 S0 F1500
X164.86 Y82.475 M03 S255 F110
X163.9 Y79.325 M03 S0 F1500
X164.43 Y80.885 M03 S255 F110
X163.31 Y77.815 M03 S0 F1500
X163.9 Y79.325 M03 S255 F110
X161.93 Y74.905 M03 S0 F1500
X163.31 Y77.815 M03 S255 F110
X160.28 Y72.155 M03 S0 F1500
X161.93 Y74.905 M03 S255 F110
X158.38 Y69.605 M03 S0 F1500
X160.28 Y72.155 M03 S255 F110
X156.24 Y67.255 M03 S0 F1500
X158.38 Y69.605 M03 S255 F110
X153.9 Y65.115 M03 S0 F1500
X156.24 Y67.255 M03 S255 F110
X151.36 Y63.215 M03 S0 F1500
X153.9 Y65.115 M03 S255 F110
X148.66 Y61.565 M03 S0 F1500
X151.36 Y63.215 M03 S255 F110
X145.8 Y60.175 M03 S0 F1500
X148.66 Y61.565 M03 S255 F110
X142.8 Y59.055 M03 S0 F1500
X145.8 Y60.175 M03 S255 F110
X141.25 Y58.615 M03 S0 F1500
X142.8 Y59.055 M03 S255 F110
X139.68 Y58.235 M03 S0 F1500
X141.25 Y58.615 M03 S255 F110
X138.08 Y57.935 M03 S0 F1500
X139.68 Y58.235 M03 S255 F110
X136.45 Y57.725 M03 S0 F1500
X138.08 Y57.935 M03 S255 F110
X134.8 Y57.585 M03 S0 F1500
X136.45 Y57.725 M03 S255 F110
X133.14 Y57.525 M03 S0 F1500
X134.8 Y57.585 M03 S255 F110
X131.45 Y57.555 M03 S0 F1500
X133.14 Y57.525 M03 S255 F110
X129.76 Y57.675 M03 S0 F1500
X131.45 Y57.555 M03 S255 F110
X126.85 Y58.075 M03 S0 F1500
X129.76 Y57.675 M03 S255 F110
X124.01 Y58.735 M03 S0 F1500
X126.85 Y58.075 M03 S255 F110
X121.29 Y59.625 M03 S0 F1500
X124.01 Y58.735 M03 S255 F110
X118.66 Y60.735 M03 S0 F1500
X121.29 Y59.625 M03 S255 F110
X116.18 Y62.065 M03 S0 F1500
X118.66 Y60.735 M03 S255 F110
X113.8 Y63.585 M03 S0 F1500
X116.18 Y62.065 M03 S255 F110
X111.59 Y65.305 M03 S0 F1500
X113.8 Y63.585 M03 S255 F110
X109.53 Y67.205 M03 S0 F1500
X111.59 Y65.305 M03 S255 F110
X107.62 Y69.265 M03 S0 F1500
X109.53 Y67.205 M03 S255 F110
X105.91 Y71.475 M03 S0 F1500
X107.62 Y69.265 M03 S255 F110
X104.39 Y73.855 M03 S0 F1500
X105.91 Y71.475 M03 S255 F110
X103.06 Y76.335 M03 S0 F1500
X104.39 Y73.855 M03 S255 F110
X101.95 Y78.965 M03 S0 F1500
X103.06 Y76.335 M03 S255 F110
X101.06 Y81.685 M03 S0 F1500
X101.95 Y78.965 M03 S255 F110
X100.4 Y84.525 M03 S0 F1500
X101.06 Y81.685 M03 S255 F110
X100 Y87.435 M03 S0 F1500
X100.4 Y84.525 M03 S255 F110
X101.59 Y87.725 M03 S0 F1500
X100.99 Y87.535 M03 S255 F110
X102.11 Y88.025 M03 S0 F1500
X101.59 Y87.725 M03 S255 F110
X102.58 Y88.415 M03 S0 F1500
X102.11 Y88.025 M03 S255 F110
X102.95 Y88.875 M03 S0 F1500
X102.58 Y88.415 M03 S255 F110
X103.23 Y89.405 M03 S0 F1500
X102.95 Y88.875 M03 S255 F110
X103.4 Y89.965 M03 S0 F1500
X103.23 Y89.405 M03 S255 F110
X103.45 Y90.565 M03 S0 F1500
X103.4 Y89.965 M03 S255 F110
X103.39 Y91.185 M03 S0 F1500
X103.45 Y90.565 M03 S255 F110
X103.21 Y91.755 M03 S0 F1500
X103.39 Y91.185 M03 S255 F110
X102.95 Y92.265 M03 S0 F1500
X103.21 Y91.755 M03 S255 F110
X102.6 Y92.705 M03 S0 F1500
X102.95 Y92.265 M03 S255 F110
X102.18 Y93.065 M03 S0 F1500
X102.6 Y92.705 M03 S255 F110
X101.69 Y93.355 M03 S0 F1500
X102.18 Y93.065 M03 S255 F110
X101.16 Y93.555 M03 S0 F1500
X101.69 Y93.355 M03 S255 F110
X100.59 Y93.635 M03 S0 F1500
X101.16 Y93.555 M03 S255 F110
X100 Y93.625 M03 S0 F1500
X100.59 Y93.635 M03 S255 F110
X136.3 Y91.025 M03 S0 F1500
X136.35 Y90.525 M03 S255 F110
X136.15 Y91.505 M03 S0 F1500
X136.3 Y91.025 M03 S255 F110
X135.93 Y91.925 M03 S0 F1500
X136.15 Y91.505 M03 S255 F110
X135.63 Y92.305 M03 S0 F1500
X135.93 Y91.925 M03 S255 F110
X135.25 Y92.605 M03 S0 F1500
X135.63 Y92.305 M03 S255 F110
X134.83 Y92.825 M03 S0 F1500
X135.25 Y92.605 M03 S255 F110
X134.35 Y92.975 M03 S0 F1500
X134.83 Y92.825 M03 S255 F110
X133.85 Y93.025 M03 S0 F1500
X134.35 Y92.975 M03 S255 F110
X133.35 Y92.975 M03 S0 F1500
X133.85 Y93.025 M03 S255 F110
X132.87 Y92.825 M03 S0 F1500
X133.35 Y92.975 M03 S255 F110
X132.45 Y92.605 M03 S0 F1500
X132.87 Y92.825 M03 S255 F110
X132.09 Y92.305 M03 S0 F1500
X132.45 Y92.605 M03 S255 F110
X131.78 Y91.925 M03 S0 F1500
X132.09 Y92.305 M03 S255 F110
X131.55 Y91.505 M03 S0 F1500
X131.78 Y91.925 M03 S255 F110
X131.4 Y91.025 M03 S0 F1500
X131.55 Y91.505 M03 S255 F110
X131.35 Y90.525 M03 S0 F1500
X131.4 Y91.025 M03 S255 F110
X131.4 Y90.025 M03 S0 F1500
X131.35 Y90.525 M03 S255 F110
X131.55 Y89.555 M03 S0 F1500
X131.4 Y90.025 M03 S255 F110
X131.78 Y89.125 M03 S0 F1500
X131.55 Y89.555 M03 S255 F110
X132.09 Y88.765 M03 S0 F1500
X131.78 Y89.125 M03 S255 F110
X132.45 Y88.455 M03 S0 F1500
X132.09 Y88.765 M03 S255 F110
X132.87 Y88.225 M03 S0 F1500
X132.45 Y88.455 M03 S255 F110
X133.35 Y88.075 M03 S0 F1500
X132.87 Y88.225 M03 S255 F110
X133.85 Y88.025 M03 S0 F1500
X133.35 Y88.075 M03 S255 F110
X134.35 Y88.075 M03 S0 F1500
X133.85 Y88.025 M03 S255 F110
X134.83 Y88.225 M03 S0 F1500
X134.35 Y88.075 M03 S255 F110
X135.25 Y88.455 M03 S0 F1500
X134.83 Y88.225 M03 S255 F110
X135.63 Y88.765 M03 S0 F1500
X135.25 Y88.455 M03 S255 F110
X135.93 Y89.125 M03 S0 F1500
X135.63 Y88.765 M03 S255 F110
X136.15 Y89.555 M03 S0 F1500
X135.93 Y89.125 M03 S255 F110
X136.3 Y90.025 M03 S0 F1500
X136.15 Y89.555 M03 S255 F110
X136.35 Y90.525 M03 S0 F1500
X136.3 Y90.025 M03 S255 F110
X136.35 Y90.525 M03 S0 F1500
X136.35 Y90.525 M03 S255 F110
X134.2 Y37.815 M03 S0 F1500
X134 Y36.125 M03 S255 F110
X134.49 Y39.465 M03 S0 F1500
X134.2 Y37.815 M03 S255 F110
X134.85 Y41.085 M03 S0 F1500
X134.49 Y39.465 M03 S255 F110
X135.29 Y42.675 M03 S0 F1500
X134.85 Y41.085 M03 S255 F110
X135.81 Y44.235 M03 S0 F1500
X135.29 Y42.675 M03 S255 F110
X136.4 Y45.755 M03 S0 F1500
X135.81 Y44.235 M03 S255 F110
X137.79 Y48.665 M03 S0 F1500
X136.4 Y45.755 M03 S255 F110
X139.44 Y51.415 M03 S0 F1500
X137.79 Y48.665 M03 S255 F110
X141.34 Y53.965 M03 S0 F1500
X139.44 Y51.415 M03 S255 F110
X143.48 Y56.315 M03 S0 F1500
X141.34 Y53.965 M03 S255 F110
X145.81 Y58.455 M03 S0 F1500
X143.48 Y56.315 M03 S255 F110
X148.34 Y60.355 M03 S0 F1500
X145.81 Y58.455 M03 S255 F110
X151.05 Y62.005 M03 S0 F1500
X148.34 Y60.355 M03 S255 F110
X153.91 Y63.385 M03 S0 F1500
X151.05 Y62.005 M03 S255 F110
X156.91 Y64.505 M03 S0 F1500
X153.91 Y63.385 M03 S255 F110
X158.46 Y64.955 M03 S0 F1500
X156.91 Y64.505 M03 S255 F110
X160.04 Y65.325 M03 S0 F1500
X158.46 Y64.955 M03 S255 F110
X161.64 Y65.625 M03 S0 F1500
X160.04 Y65.325 M03 S255 F110
X163.26 Y65.835 M03 S0 F1500
X161.64 Y65.625 M03 S255 F110
X164.91 Y65.975 M03 S0 F1500
X163.26 Y65.835 M03 S255 F110
X166.58 Y66.025 M03 S0 F1500
X164.91 Y65.975 M03 S255 F110
X168.25 Y66.005 M03 S0 F1500
X166.58 Y66.025 M03 S255 F110
X169.95 Y65.885 M03 S0 F1500
X168.25 Y66.005 M03 S255 F110
X171.64 Y65.685 M03 S0 F1500
X169.95 Y65.885 M03 S255 F110
X173.29 Y65.405 M03 S0 F1500
X171.64 Y65.685 M03 S255 F110
X174.91 Y65.035 M03 S0 F1500
X173.29 Y65.405 M03 S255 F110
X176.5 Y64.605 M03 S0 F1500
X174.91 Y65.035 M03 S255 F110
X178.06 Y64.075 M03 S0 F1500
X176.5 Y64.605 M03 S255 F110
X179.58 Y63.485 M03 S0 F1500
X178.06 Y64.075 M03 S255 F110
X182.49 Y62.105 M03 S0 F1500
X179.58 Y63.485 M03 S255 F110
X185.24 Y60.455 M03 S0 F1500
X182.49 Y62.105 M03 S255 F110
X187.79 Y58.555 M03 S0 F1500
X185.24 Y60.455 M03 S255 F110
X190.14 Y56.415 M03 S0 F1500
X187.79 Y58.555 M03 S255 F110
X192.28 Y54.075 M03 S0 F1500
X190.14 Y56.415 M03 S255 F110
X194.18 Y51.535 M03 S0 F1500
X192.28 Y54.075 M03 S255 F110
X195.83 Y48.835 M03 S0 F1500
X194.18 Y51.535 M03 S255 F110
X197.21 Y45.975 M03 S0 F1500
X195.83 Y48.835 M03 S255 F110
X198.33 Y42.975 M03 S0 F1500
X197.21 Y45.975 M03 S255 F110
X198.78 Y41.425 M03 S0 F1500
X198.33 Y42.975 M03 S255 F110
X199.15 Y39.855 M03 S0 F1500
X198.78 Y41.425 M03 S255 F110
X199.45 Y38.255 M03 S0 F1500
X199.15 Y39.855 M03 S255 F110
X199.66 Y36.625 M03 S0 F1500
X199.45 Y38.255 M03 S255 F110
X199.8 Y34.975 M03 S0 F1500
X199.66 Y36.625 M03 S255 F110
X199.85 Y33.315 M03 S0 F1500
X199.8 Y34.975 M03 S255 F110
X199.83 Y31.625 M03 S0 F1500
X199.85 Y33.315 M03 S255 F110
X199.71 Y29.935 M03 S0 F1500
X199.83 Y31.625 M03 S255 F110
X199.51 Y28.245 M03 S0 F1500
X199.71 Y29.935 M03 S255 F110
X199.23 Y26.595 M03 S0 F1500
X199.51 Y28.245 M03 S255 F110
X198.86 Y24.975 M03 S0 F1500
X199.23 Y26.595 M03 S255 F110
X198.43 Y23.385 M03 S0 F1500
X198.86 Y24.975 M03 S255 F110
X197.9 Y21.825 M03 S0 F1500
X198.43 Y23.385 M03 S255 F110
X197.31 Y20.315 M03 S0 F1500
X197.9 Y21.825 M03 S255 F110
X195.93 Y17.395 M03 S0 F1500
X197.31 Y20.315 M03 S255 F110
X194.28 Y14.645 M03 S0 F1500
X195.93 Y17.395 M03 S255 F110
X192.38 Y12.095 M03 S0 F1500
X194.28 Y14.645 M03 S255 F110
X190.24 Y9.745 M03 S0 F1500
X192.38 Y12.095 M03 S255 F110
X187.9 Y7.615 M03 S0 F1500
X190.24 Y9.745 M03 S255 F110
X185.36 Y5.715 M03 S0 F1500
X187.9 Y7.615 M03 S255 F110
X182.66 Y4.065 M03 S0 F1500
X185.36 Y5.715 M03 S255 F110
X179.8 Y2.675 M03 S0 F1500
X182.66 Y4.065 M03 S255 F110
X176.8 Y1.545 M03 S0 F1500
X179.8 Y2.675 M03 S255 F110
X175.25 Y1.115 M03 S0 F1500
X176.8 Y1.545 M03 S255 F110
X173.68 Y0.735 M03 S0 F1500
X175.25 Y1.115 M03 S255 F110
X172.08 Y0.435 M03 S0 F1500
X173.68 Y0.735 M03 S255 F110
X170.45 Y0.225 M03 S0 F1500
X172.08 Y0.435 M03 S255 F110
X168.8 Y0.085 M03 S0 F1500
X170.45 Y0.225 M03 S255 F110
X167.14 Y0.025 M03 S0 F1500
X168.8 Y0.085 M03 S255 F110
X165.45 Y0.045 M03 S0 F1500
X167.14 Y0.025 M03 S255 F110
X163.76 Y0.175 M03 S0 F1500
X165.45 Y0.045 M03 S255 F110
X160.85 Y0.575 M03 S0 F1500
X163.76 Y0.175 M03 S255 F110
X158.01 Y1.235 M03 S0 F1500
X160.85 Y0.575 M03 S255 F110
X155.29 Y2.125 M03 S0 F1500
X158.01 Y1.235 M03 S255 F110
X152.66 Y3.235 M03 S0 F1500
X155.29 Y2.125 M03 S255 F110
X150.18 Y4.565 M03 S0 F1500
X152.66 Y3.235 M03 S255 F110
X147.8 Y6.085 M03 S0 F1500
X150.18 Y4.565 M03 S255 F110
X145.59 Y7.795 M03 S0 F1500
X147.8 Y6.085 M03 S255 F110
X143.53 Y9.695 M03 S0 F1500
X145.59 Y7.795 M03 S255 F110
X141.63 Y11.765 M03 S0 F1500
X143.53 Y9.695 M03 S255 F110
X139.91 Y13.975 M03 S0 F1500
X141.63 Y11.765 M03 S255 F110
X138.39 Y16.345 M03 S0 F1500
X139.91 Y13.975 M03 S255 F110
X137.06 Y18.835 M03 S0 F1500
X138.39 Y16.345 M03 S255 F110
X135.95 Y21.465 M03 S0 F1500
X137.06 Y18.835 M03 S255 F110
X135.06 Y24.185 M03 S0 F1500
X135.95 Y21.465 M03 S255 F110
X134.4 Y27.025 M03 S0 F1500
X135.06 Y24.185 M03 S255 F110
X134 Y29.935 M03 S0 F1500
X134.4 Y27.025 M03 S255 F110
X135.59 Y30.225 M03 S0 F1500
X134.99 Y30.035 M03 S255 F110
X136.11 Y30.525 M03 S0 F1500
X135.59 Y30.225 M03 S255 F110
X136.58 Y30.915 M03 S0 F1500
X136.11 Y30.525 M03 S255 F110
X136.95 Y31.375 M03 S0 F1500
X136.58 Y30.915 M03 S255 F110
X137.23 Y31.895 M03 S0 F1500
X136.95 Y31.375 M03 S255 F110
X137.4 Y32.465 M03 S0 F1500
X137.23 Y31.895 M03 S255 F110
X137.45 Y33.065 M03 S0 F1500
X137.4 Y32.465 M03 S255 F110
X137.39 Y33.685 M03 S0 F1500
X137.45 Y33.065 M03 S255 F110
X137.21 Y34.255 M03 S0 F1500
X137.39 Y33.685 M03 S255 F110
X136.95 Y34.765 M03 S0 F1500
X137.21 Y34.255 M03 S255 F110
X136.6 Y35.205 M03 S0 F1500
X136.95 Y34.765 M03 S255 F110
X136.18 Y35.565 M03 S0 F1500
X136.6 Y35.205 M03 S255 F110
X135.69 Y35.855 M03 S0 F1500
X136.18 Y35.565 M03 S255 F110
X135.16 Y36.055 M03 S0 F1500
X135.69 Y35.855 M03 S255 F110
X134.59 Y36.135 M03 S0 F1500
X135.16 Y36.055 M03 S255 F110
X134 Y36.125 M03 S0 F1500
X134.59 Y36.135 M03 S255 F110
X170.3 Y33.525 M03 S0 F1500
X170.35 Y33.025 M03 S255 F110
X170.15 Y34.005 M03 S0 F1500
X170.3 Y33.525 M03 S255 F110
X169.93 Y34.425 M03 S0 F1500
X170.15 Y34.005 M03 S255 F110
X169.63 Y34.805 M03 S0 F1500
X169.93 Y34.425 M03 S255 F110
X169.25 Y35.105 M03 S0 F1500
X169.63 Y34.805 M03 S255 F110
X168.83 Y35.325 M03 S0 F1500
X169.25 Y35.105 M03 S255 F110
X168.35 Y35.475 M03 S0 F1500
X168.83 Y35.325 M03 S255 F110
X167.85 Y35.525 M03 S0 F1500
X168.35 Y35.475 M03 S255 F110
X167.35 Y35.475 M03 S0 F1500
X167.85 Y35.525 M03 S255 F110
X166.88 Y35.325 M03 S0 F1500
X167.35 Y35.475 M03 S255 F110
X166.45 Y35.105 M03 S0 F1500
X166.88 Y35.325 M03 S255 F110
X166.09 Y34.805 M03 S0 F1500
X166.45 Y35.105 M03 S255 F110
X165.78 Y34.425 M03 S0 F1500
X166.09 Y34.805 M03 S255 F110
X165.55 Y34.005 M03 S0 F1500
X165.78 Y34.425 M03 S255 F110
X165.4 Y33.525 M03 S0 F1500
X165.55 Y34.005 M03 S255 F110
X165.35 Y33.025 M03 S0 F1500
X165.4 Y33.525 M03 S255 F110
X165.4 Y32.525 M03 S0 F1500
X165.35 Y33.025 M03 S255 F110
X165.55 Y32.045 M03 S0 F1500
X165.4 Y32.525 M03 S255 F110
X165.78 Y31.625 M03 S0 F1500
X165.55 Y32.045 M03 S255 F110
X166.09 Y31.265 M03 S0 F1500
X165.78 Y31.625 M03 S255 F110
X166.45 Y30.945 M03 S0 F1500
X166.09 Y31.265 M03 S255 F110
X166.88 Y30.725 M03 S0 F1500
X166.45 Y30.945 M03 S255 F110
X167.35 Y30.575 M03 S0 F1500
X166.88 Y30.725 M03 S255 F110
X167.85 Y30.525 M03 S0 F1500
X167.35 Y30.575 M03 S255 F110
X168.35 Y30.575 M03 S0 F1500
X167.85 Y30.525 M03 S255 F110
X168.83 Y30.725 M03 S0 F1500
X168.35 Y30.575 M03 S255 F110
X169.25 Y30.945 M03 S0 F1500
X168.83 Y30.725 M03 S255 F110
X169.63 Y31.265 M03 S0 F1500
X169.25 Y30.945 M03 S255 F110
X169.93 Y31.625 M03 S0 F1500
X169.63 Y31.265 M03 S255 F110
X170.15 Y32.045 M03 S0 F1500
X169.93 Y31.625 M03 S255 F110
X170.3 Y32.525 M03 S0 F1500
X170.15 Y32.045 M03 S255 F110
X170.35 Y33.025 M03 S0 F1500
X170.3 Y32.525 M03 S255 F110
X170.35 Y33.025 M03 S0 F1500
X170.35 Y33.025 M03 S255 F110
X167.2 Y95.315 M03 S0 F1500
X167 Y93.625 M03 S255 F110
X167.49 Y96.965 M03 S0 F1500
X167.2 Y95.315 M03 S255 F110
X167.85 Y98.585 M03 S0 F1500
X167.49 Y96.965 M03 S255 F110
X168.29 Y100.175 M03 S0 F1500
X167.85 Y98.585 M03 S255 F110
X168.81 Y101.735 M03 S0 F1500
X168.29 Y100.175 M03 S255 F110
X169.4 Y103.255 M03 S0 F1500
X168.81 Y101.735 M03 S255 F110
X170.79 Y106.165 M03 S0 F1500
X169.4 Y103.255 M03 S255 F110
X172.44 Y108.915 M03 S0 F1500
X170.79 Y106.165 M03 S255 F110
X174.34 Y111.465 M03 S0 F1500
X172.44 Y108.915 M03 S255 F110
X176.48 Y113.815 M03 S0 F1500
X174.34 Y111.465 M03 S255 F110
X178.81 Y115.955 M03 S0 F1500
X176.48 Y113.815 M03 S255 F110
X181.34 Y117.855 M03 S0 F1500
X178.81 Y115.955 M03 S255 F110
X184.05 Y119.505 M03 S0 F1500
X181.34 Y117.855 M03 S255 F110
X186.91 Y120.885 M03 S0 F1500
X184.05 Y119.505 M03 S255 F110
X189.91 Y122.005 M03 S0 F1500
X186.91 Y120.885 M03 S255 F110
X191.46 Y122.455 M03 S0 F1500
X189.91 Y122.005 M03 S255 F110
X193.04 Y122.825 M03 S0 F1500
X191.46 Y122.455 M03 S255 F110
X194.64 Y123.125 M03 S0 F1500
X193.04 Y122.825 M03 S255 F110
X196.26 Y123.335 M03 S0 F1500
X194.64 Y123.125 M03 S255 F110
X197.91 Y123.475 M03 S0 F1500
X196.26 Y123.335 M03 S255 F110
X199.58 Y123.525 M03 S0 F1500
X197.91 Y123.475 M03 S255 F110
X201.25 Y123.505 M03 S0 F1500
X199.58 Y123.525 M03 S255 F110
X202.95 Y123.385 M03 S0 F1500
X201.25 Y123.505 M03 S255 F110
X204.64 Y123.185 M03 S0 F1500
X202.95 Y123.385 M03 S255 F110
X206.29 Y122.905 M03 S0 F1500
X204.64 Y123.185 M03 S255 F110
X207.91 Y122.535 M03 S0 F1500
X206.29 Y122.905 M03 S255 F110
X209.5 Y122.105 M03 S0 F1500
X207.91 Y122.535 M03 S255 F110
X211.06 Y121.575 M03 S0 F1500
X209.5 Y122.105 M03 S255 F110
X212.58 Y120.985 M03 S0 F1500
X211.06 Y121.575 M03 S255 F110
X215.49 Y119.605 M03 S0 F1500
X212.58 Y120.985 M03 S255 F110
X218.24 Y117.955 M03 S0 F1500
X215.49 Y119.605 M03 S255 F110
X220.79 Y116.045 M03 S0 F1500
X218.24 Y117.955 M03 S255 F110
X223.14 Y113.915 M03 S0 F1500
X220.79 Y116.045 M03 S255 F110
X225.28 Y111.575 M03 S0 F1500
X223.14 Y113.915 M03 S255 F110
X227.18 Y109.035 M03 S0 F1500
X225.28 Y111.575 M03 S255 F110
X228.83 Y106.335 M03 S0 F1500
X227.18 Y109.035 M03 S255 F110
X230.21 Y103.475 M03 S0 F1500
X228.83 Y106.335 M03 S255 F110
X231.33 Y100.475 M03 S0 F1500
X230.21 Y103.475 M03 S255 F110
X231.78 Y98.925 M03 S0 F1500
X231.33 Y100.475 M03 S255 F110
X232.15 Y97.355 M03 S0 F1500
X231.78 Y98.925 M03 S255 F110
X232.45 Y95.755 M03 S0 F1500
X232.15 Y97.355 M03 S255 F110
X232.66 Y94.125 M03 S0 F1500
X232.45 Y95.755 M03 S255 F110
X232.8 Y92.475 M03 S0 F1500
X232.66 Y94.125 M03 S255 F110
X232.85 Y90.815 M03 S0 F1500
X232.8 Y92.475 M03 S255 F110
X232.83 Y89.125 M03 S0 F1500
X232.85 Y90.815 M03 S255 F110
X232.71 Y87.435 M03 S0 F1500
X232.83 Y89.125 M03 S255 F110
X232.51 Y85.755 M03 S0 F1500
X232.71 Y87.435 M03 S255 F110
X232.23 Y84.105 M03 S0 F1500
X232.51 Y85.755 M03 S255 F110
X231.86 Y82.475 M03 S0 F1500
X232.23 Y84.105 M03 S255 F110
X231.43 Y80.885 M03 S0 F1500
X231.86 Y82.475 M03 S255 F110
X230.9 Y79.325 M03 S0 F1500
X231.43 Y80.885 M03 S255 F110
X230.31 Y77.815 M03 S0 F1500
X230.9 Y79.325 M03 S255 F110
X228.93 Y74.905 M03 S0 F1500
X230.31 Y77.815 M03 S255 F110
X227.28 Y72.155 M03 S0 F1500
X228.93 Y74.905 M03 S255 F110
X225.38 Y69.605 M03 S0 F1500
X227.28 Y72.155 M03 S255 F110
X223.24 Y67.255 M03 S0 F1500
X225.38 Y69.605 M03 S255 F110
X220.9 Y65.115 M03 S0 F1500
X223.24 Y67.255 M03 S255 F110
X218.36 Y63.215 M03 S0 F1500
X220.9 Y65.115 M03 S255 F110
X215.66 Y61.565 M03 S0 F1500
X218.36 Y63.215 M03 S255 F110
X212.8 Y60.175 M03 S0 F1500
X215.66 Y61.565 M03 S255 F110
X209.8 Y59.055 M03 S0 F1500
X212.8 Y60.175 M03 S255 F110
X208.25 Y58.615 M03 S0 F1500
X209.8 Y59.055 M03 S255 F110
X206.68 Y58.235 M03 S0 F1500
X208.25 Y58.615 M03 S255 F110
X205.08 Y57.935 M03 S0 F1500
X206.68 Y58.235 M03 S255 F110
X203.45 Y57.725 M03 S0 F1500
X205.08 Y57.935 M03 S255 F110
X201.8 Y57.585 M03 S0 F1500
X203.45 Y57.725 M03 S255 F110
X200.14 Y57.525 M03 S0 F1500
X201.8 Y57.585 M03 S255 F110
X198.45 Y57.555 M03 S0 F1500
X200.14 Y57.525 M03 S255 F110
X196.76 Y57.675 M03 S0 F1500
X198.45 Y57.555 M03 S255 F110
X193.85 Y58.075 M03 S0 F1500
X196.76 Y57.675 M03 S255 F110
X191.01 Y58.735 M03 S0 F1500
X193.85 Y58.075 M03 S255 F110
X188.29 Y59.625 M03 S0 F1500
X191.01 Y58.735 M03 S255 F110
X185.66 Y60.735 M03 S0 F1500
X188.29 Y59.625 M03 S255 F110
X183.18 Y62.065 M03 S0 F1500
X185.66 Y60.735 M03 S255 F110
X180.8 Y63.585 M03 S0 F1500
X183.18 Y62.065 M03 S255 F110
X178.59 Y65.305 M03 S0 F1500
X180.8 Y63.585 M03 S255 F110
X176.53 Y67.205 M03 S0 F1500
X178.59 Y65.305 M03 S255 F110
X174.63 Y69.265 M03 S0 F1500
X176.53 Y67.205 M03 S255 F110
X172.91 Y71.475 M03 S0 F1500
X174.63 Y69.265 M03 S255 F110
X171.39 Y73.855 M03 S0 F1500
X172.91 Y71.475 M03 S255 F110
X170.06 Y76.335 M03 S0 F1500
X171.39 Y73.855 M03 S255 F110
X168.95 Y78.965 M03 S0 F1500
X170.06 Y76.335 M03 S255 F110
X168.06 Y81.685 M03 S0 F1500
X168.95 Y78.965 M03 S255 F110
X167.4 Y84.525 M03 S0 F1500
X168.06 Y81.685 M03 S255 F110
X167 Y87.435 M03 S0 F1500
X167.4 Y84.525 M03 S255 F110
X168.59 Y87.725 M03 S0 F1500
X167.99 Y87.535 M03 S255 F110
X169.11 Y88.025 M03 S0 F1500
X168.59 Y87.725 M03 S255 F110
X169.58 Y88.415 M03 S0 F1500
X169.11 Y88.025 M03 S255 F110
X169.95 Y88.875 M03 S0 F1500
X169.58 Y88.415 M03 S255 F110
X170.23 Y89.405 M03 S0 F1500
X169.95 Y88.875 M03 S255 F110
X170.4 Y89.965 M03 S0 F1500
X170.23 Y89.405 M03 S255 F110
X170.45 Y90.565 M03 S0 F1500
X170.4 Y89.965 M03 S255 F110
X170.39 Y91.185 M03 S0 F1500
X170.45 Y90.565 M03 S255 F110
X170.21 Y91.755 M03 S0 F1500
X170.39 Y91.185 M03 S255 F110
X169.95 Y92.265 M03 S0 F1500
X170.21 Y91.755 M03 S255 F110
X169.6 Y92.705 M03 S0 F1500
X169.95 Y92.265 M03 S255 F110
X169.18 Y93.065 M03 S0 F1500
X169.6 Y92.705 M03 S255 F110
X168.69 Y93.355 M03 S0 F1500
X169.18 Y93.065 M03 S255 F110
X168.16 Y93.555 M03 S0 F1500
X168.69 Y93.355 M03 S255 F110
X167.59 Y93.635 M03 S0 F1500
X168.16 Y93.555 M03 S255 F110
X167 Y93.625 M03 S0 F1500
X167.59 Y93.635 M03 S255 F110
X203.3 Y91.025 M03 S0 F1500
X203.35 Y90.525 M03 S255 F110
X203.15 Y91.505 M03 S0 F1500
X203.3 Y91.025 M03 S255 F110
X202.93 Y91.925 M03 S0 F1500
X203.15 Y91.505 M03 S255 F110
X202.63 Y92.305 M03 S0 F1500
X202.93 Y91.925 M03 S255 F110
X202.25 Y92.605 M03 S0 F1500
X202.63 Y92.305 M03 S255 F110
X201.83 Y92.825 M03 S0 F1500
X202.25 Y92.605 M03 S255 F110
X201.35 Y92.975 M03 S0 F1500
X201.83 Y92.825 M03 S255 F110
X200.85 Y93.025 M03 S0 F1500
X201.35 Y92.975 M03 S255 F110
X200.35 Y92.975 M03 S0 F1500
X200.85 Y93.025 M03 S255 F110
X199.88 Y92.825 M03 S0 F1500
X200.35 Y92.975 M03 S255 F110
X199.45 Y92.605 M03 S0 F1500
X199.88 Y92.825 M03 S255 F110
X199.09 Y92.305 M03 S0 F1500
X199.45 Y92.605 M03 S255 F110
X198.78 Y91.925 M03 S0 F1500
X199.09 Y92.305 M03 S255 F110
X198.55 Y91.505 M03 S0 F1500
X198.78 Y91.925 M03 S255 F110
X198.4 Y91.025 M03 S0 F1500
X198.55 Y91.505 M03 S255 F110
X198.35 Y90.525 M03 S0 F1500
X198.4 Y91.025 M03 S255 F110
X198.4 Y90.025 M03 S0 F1500
X198.35 Y90.525 M03 S255 F110
X198.55 Y89.555 M03 S0 F1500
X198.4 Y90.025 M03 S255 F110
X198.78 Y89.125 M03 S0 F1500
X198.55 Y89.555 M03 S255 F110
X199.09 Y88.765 M03 S0 F1500
X198.78 Y89.125 M03 S255 F110
X199.45 Y88.455 M03 S0 F1500
X199.09 Y88.765 M03 S255 F110
X199.88 Y88.225 M03 S0 F1500
X199.45 Y88.455 M03 S255 F110
X200.35 Y88.075 M03 S0 F1500
X199.88 Y88.225 M03 S255 F110
X200.85 Y88.025 M03 S0 F1500
X200.35 Y88.075 M03 S255 F110
X201.35 Y88.075 M03 S0 F1500
X200.85 Y88.025 M03 S255 F110
X201.83 Y88.225 M03 S0 F1500
X201.35 Y88.075 M03 S255 F110
X202.25 Y88.455 M03 S0 F1500
X201.83 Y88.225 M03 S255 F110
X202.63 Y88.765 M03 S0 F1500
X202.25 Y88.455 M03 S255 F110
X202.93 Y89.125 M03 S0 F1500
X202.63 Y88.765 M03 S255 F110
X203.15 Y89.555 M03 S0 F1500
X202.93 Y89.125 M03 S255 F110
X203.3 Y90.025 M03 S0 F1500
X203.15 Y89.555 M03 S255 F110
X203.35 Y90.525 M03 S0 F1500
X203.3 Y90.025 M03 S255 F110
X203.35 Y90.525 M03 S0 F1500
X203.35 Y90.525 M03 S255 F110
X0.2 Y153.815 M03 S0 F1500
X0 Y152.125 M03 S255 F110
X0.49 Y155.465 M03 S0 F1500
X0.2 Y153.815 M03 S255 F110
X0.85 Y157.085 M03 S0 F1500
X0.49 Y155.465 M03 S255 F110
X1.29 Y158.675 M03 S0 F1500
X0.85 Y157.085 M03 S255 F110
X1.81 Y160.235 M03 S0 F1500
X1.29 Y158.675 M03 S255 F110
X2.4 Y161.755 M03 S0 F1500
X1.81 Y160.235 M03 S255 F110
X3.79 Y164.665 M03 S0 F1500
X2.4 Y161.755 M03 S255 F110
X5.44 Y167.415 M03 S0 F1500
X3.79 Y164.665 M03 S255 F110
X7.34 Y169.965 M03 S0 F1500
X5.44 Y167.415 M03 S255 F110
X9.47 Y172.315 M03 S0 F1500
X7.34 Y169.965 M03 S255 F110
X11.81 Y174.455 M03 S0 F1500
X9.47 Y172.315 M03 S255 F110
X14.34 Y176.355 M03 S0 F1500
X11.81 Y174.455 M03 S255 F110
X17.05 Y178.005 M03 S0 F1500
X14.34 Y176.355 M03 S255 F110
X19.91 Y179.385 M03 S0 F1500
X17.05 Y178.005 M03 S255 F110
X22.91 Y180.505 M03 S0 F1500
X19.91 Y179.385 M03 S255 F110
X24.46 Y180.955 M03 S0 F1500
X22.91 Y180.505 M03 S255 F110
X26.04 Y181.325 M03 S0 F1500
X24.46 Y180.955 M03 S255 F110
X27.64 Y181.625 M03 S0 F1500
X26.04 Y181.325 M03 S255 F110
X29.26 Y181.835 M03 S0 F1500
X27.64 Y181.625 M03 S255 F110
X30.91 Y181.975 M03 S0 F1500
X29.26 Y181.835 M03 S255 F110
X32.57 Y182.025 M03 S0 F1500
X30.91 Y181.975 M03 S255 F110
X34.25 Y182.005 M03 S0 F1500
X32.57 Y182.025 M03 S255 F110
X35.95 Y181.885 M03 S0 F1500
X34.25 Y182.005 M03 S255 F110
X37.64 Y181.685 M03 S0 F1500
X35.95 Y181.885 M03 S255 F110
X39.29 Y181.405 M03 S0 F1500
X37.64 Y181.685 M03 S255 F110
X40.91 Y181.035 M03 S0 F1500
X39.29 Y181.405 M03 S255 F110
X42.5 Y180.605 M03 S0 F1500
X40.91 Y181.035 M03 S255 F110
X44.06 Y180.075 M03 S0 F1500
X42.5 Y180.605 M03 S255 F110
X45.58 Y179.485 M03 S0 F1500
X44.06 Y180.075 M03 S255 F110
X48.49 Y178.105 M03 S0 F1500
X45.58 Y179.485 M03 S255 F110
X51.24 Y176.455 M03 S0 F1500
X48.49 Y178.105 M03 S255 F110
X53.79 Y174.555 M03 S0 F1500
X51.24 Y176.455 M03 S255 F110
X56.14 Y172.415 M03 S0 F1500
X53.79 Y174.555 M03 S255 F110
X58.28 Y170.075 M03 S0 F1500
X56.14 Y172.415 M03 S255 F110
X60.18 Y167.535 M03 S0 F1500
X58.28 Y170.075 M03 S255 F110
X61.83 Y164.835 M03 S0 F1500
X60.18 Y167.535 M03 S255 F110
X63.21 Y161.975 M03 S0 F1500
X61.83 Y164.835 M03 S255 F110
X64.33 Y158.975 M03 S0 F1500
X63.21 Y161.975 M03 S255 F110
X64.78 Y157.425 M03 S0 F1500
X64.33 Y158.975 M03 S255 F110
X65.15 Y155.855 M03 S0 F1500
X64.78 Y157.425 M03 S255 F110
X65.45 Y154.255 M03 S0 F1500
X65.15 Y155.855 M03 S255 F110
X65.66 Y152.625 M03 S0 F1500
X65.45 Y154.255 M03 S255 F110
X65.8 Y150.975 M03 S0 F1500
X65.66 Y152.625 M03 S255 F110
X65.85 Y149.315 M03 S0 F1500
X65.8 Y150.975 M03 S255 F110
X65.83 Y147.625 M03 S0 F1500
X65.85 Y149.315 M03 S255 F110
X65.71 Y145.935 M03 S0 F1500
X65.83 Y147.625 M03 S255 F110
X65.51 Y144.255 M03 S0 F1500
X65.71 Y145.935 M03 S255 F110
X65.23 Y142.605 M03 S0 F1500
X65.51 Y144.255 M03 S255 F110
X64.86 Y140.975 M03 S0 F1500
X65.23 Y142.605 M03 S255 F110
X64.43 Y139.385 M03 S0 F1500
X64.86 Y140.975 M03 S255 F110
X63.9 Y137.825 M03 S0 F1500
X64.43 Y139.385 M03 S255 F110
X63.31 Y136.315 M03 S0 F1500
X63.9 Y137.825 M03 S255 F110
X61.93 Y133.405 M03 S0 F1500
X63.31 Y136.315 M03 S255 F110
X60.28 Y130.655 M03 S0 F1500
X61.93 Y133.405 M03 S255 F110
X58.38 Y128.105 M03 S0 F1500
X60.28 Y130.655 M03 S255 F110
X56.24 Y125.755 M03 S0 F1500
X58.38 Y128.105 M03 S255 F110
X53.9 Y123.615 M03 S0 F1500
X56.24 Y125.755 M03 S255 F110
X51.36 Y121.715 M03 S0 F1500
X53.9 Y123.615 M03 S255 F110
X48.66 Y120.065 M03 S0 F1500
X51.36 Y121.715 M03 S255 F110
X45.8 Y118.675 M03 S0 F1500
X48.66 Y120.065 M03 S255 F110
X42.8 Y117.545 M03 S0 F1500
X45.8 Y118.675 M03 S255 F110
X41.25 Y117.115 M03 S0 F1500
X42.8 Y117.545 M03 S255 F110
X39.68 Y116.735 M03 S0 F1500
X41.25 Y117.115 M03 S255 F110
X38.08 Y116.435 M03 S0 F1500
X39.68 Y116.735 M03 S255 F110
X36.45 Y116.225 M03 S0 F1500
X38.08 Y116.435 M03 S255 F110
X34.8 Y116.085 M03 S0 F1500
X36.45 Y116.225 M03 S255 F110
X33.14 Y116.025 M03 S0 F1500
X34.8 Y116.085 M03 S255 F110
X31.45 Y116.045 M03 S0 F1500
X33.14 Y116.025 M03 S255 F110
X29.76 Y116.175 M03 S0 F1500
X31.45 Y116.045 M03 S255 F110
X26.85 Y116.575 M03 S0 F1500
X29.76 Y116.175 M03 S255 F110
X24.01 Y117.235 M03 S0 F1500
X26.85 Y116.575 M03 S255 F110
X21.29 Y118.125 M03 S0 F1500
X24.01 Y117.235 M03 S255 F110
X18.66 Y119.235 M03 S0 F1500
X21.29 Y118.125 M03 S255 F110
X16.17 Y120.565 M03 S0 F1500
X18.66 Y119.235 M03 S255 F110
X13.8 Y122.085 M03 S0 F1500
X16.17 Y120.565 M03 S255 F110
X11.59 Y123.795 M03 S0 F1500
X13.8 Y122.085 M03 S255 F110
X9.52 Y125.705 M03 S0 F1500
X11.59 Y123.795 M03 S255 F110
X7.62 Y127.765 M03 S0 F1500
X9.52 Y125.705 M03 S255 F110
X5.91 Y129.975 M03 S0 F1500
X7.62 Y127.765 M03 S255 F110
X4.39 Y132.355 M03 S0 F1500
X5.91 Y129.975 M03 S255 F110
X3.06 Y134.835 M03 S0 F1500
X4.39 Y132.355 M03 S255 F110
X1.95 Y137.465 M03 S0 F1500
X3.06 Y134.835 M03 S255 F110
X1.06 Y140.185 M03 S0 F1500
X1.95 Y137.465 M03 S255 F110
X0.4 Y143.025 M03 S0 F1500
X1.06 Y140.185 M03 S255 F110
X0 Y145.935 M03 S0 F1500
X0.4 Y143.025 M03 S255 F110
X1.59 Y146.225 M03 S0 F1500
X0.99 Y146.035 M03 S255 F110
X2.11 Y146.525 M03 S0 F1500
X1.59 Y146.225 M03 S255 F110
X2.57 Y146.915 M03 S0 F1500
X2.11 Y146.525 M03 S255 F110
X2.95 Y147.375 M03 S0 F1500
X2.57 Y146.915 M03 S255 F110
X3.22 Y147.905 M03 S0 F1500
X2.95 Y147.375 M03 S255 F110
X3.4 Y148.465 M03 S0 F1500
X3.22 Y147.905 M03 S255 F110
X3.45 Y149.065 M03 S0 F1500
X3.4 Y148.465 M03 S255 F110
X3.39 Y149.685 M03 S0 F1500
X3.45 Y149.065 M03 S255 F110
X3.21 Y150.255 M03 S0 F1500
X3.39 Y149.685 M03 S255 F110
X2.95 Y150.765 M03 S0 F1500
X3.21 Y150.255 M03 S255 F110
X2.59 Y151.205 M03 S0 F1500
X2.95 Y150.765 M03 S255 F110
X2.16 Y151.565 M03 S0 F1500
X2.59 Y151.205 M03 S255 F110
X1.69 Y151.855 M03 S0 F1500
X2.16 Y151.565 M03 S255 F110
X1.15 Y152.055 M03 S0 F1500
X1.69 Y151.855 M03 S255 F110
X0.59 Y152.135 M03 S0 F1500
X1.15 Y152.055 M03 S255 F110
X0 Y152.125 M03 S0 F1500
X0.59 Y152.135 M03 S255 F110
X36.3 Y149.525 M03 S0 F1500
X36.35 Y149.025 M03 S255 F110
X36.15 Y150.005 M03 S0 F1500
X36.3 Y149.525 M03 S255 F110
X35.93 Y150.425 M03 S0 F1500
X36.15 Y150.005 M03 S255 F110
X35.63 Y150.805 M03 S0 F1500
X35.93 Y150.425 M03 S255 F110
X35.25 Y151.105 M03 S0 F1500
X35.63 Y150.805 M03 S255 F110
X34.83 Y151.325 M03 S0 F1500
X35.25 Y151.105 M03 S255 F110
X34.35 Y151.475 M03 S0 F1500
X34.83 Y151.325 M03 S255 F110
X33.85 Y151.525 M03 S0 F1500
X34.35 Y151.475 M03 S255 F110
X33.35 Y151.475 M03 S0 F1500
X33.85 Y151.525 M03 S255 F110
X32.87 Y151.325 M03 S0 F1500
X33.35 Y151.475 M03 S255 F110
X32.45 Y151.105 M03 S0 F1500
X32.87 Y151.325 M03 S255 F110
X32.09 Y150.805 M03 S0 F1500
X32.45 Y151.105 M03 S255 F110
X31.77 Y150.425 M03 S0 F1500
X32.09 Y150.805 M03 S255 F110
X31.55 Y150.005 M03 S0 F1500
X31.77 Y150.425 M03 S255 F110
X31.4 Y149.525 M03 S0 F1500
X31.55 Y150.005 M03 S255 F110
X31.35 Y149.025 M03 S0 F1500
X31.4 Y149.525 M03 S255 F110
X31.4 Y148.525 M03 S0 F1500
X31.35 Y149.025 M03 S255 F110
X31.55 Y148.055 M03 S0 F1500
X31.4 Y148.525 M03 S255 F110
X31.77 Y147.625 M03 S0 F1500
X31.55 Y148.055 M03 S255 F110
X32.09 Y147.265 M03 S0 F1500
X31.77 Y147.625 M03 S255 F110
X32.45 Y146.955 M03 S0 F1500
X32.09 Y147.265 M03 S255 F110
X32.87 Y146.725 M03 S0 F1500
X32.45 Y146.955 M03 S255 F110
X33.35 Y146.575 M03 S0 F1500
X32.87 Y146.725 M03 S255 F110
X33.85 Y146.525 M03 S0 F1500
X33.35 Y146.575 M03 S255 F110
X34.35 Y146.575 M03 S0 F1500
X33.85 Y146.525 M03 S255 F110
X34.83 Y146.725 M03 S0 F1500
X34.35 Y146.575 M03 S255 F110
X35.25 Y146.955 M03 S0 F1500
X34.83 Y146.725 M03 S255 F110
X35.63 Y147.265 M03 S0 F1500
X35.25 Y146.955 M03 S255 F110
X35.93 Y147.625 M03 S0 F1500
X35.63 Y147.265 M03 S255 F110
X36.15 Y148.055 M03 S0 F1500
X35.93 Y147.625 M03 S255 F110
X36.3 Y148.525 M03 S0 F1500
X36.15 Y148.055 M03 S255 F110
X36.35 Y149.025 M03 S0 F1500
X36.3 Y148.525 M03 S255 F110
X36.35 Y149.025 M03 S0 F1500
X36.35 Y149.025 M03 S255 F110
X33.2 Y211.315 M03 S0 F1500
X33 Y209.625 M03 S255 F110
X33.49 Y212.965 M03 S0 F1500
X33.2 Y211.315 M03 S255 F110
X33.85 Y214.585 M03 S0 F1500
X33.49 Y212.965 M03 S255 F110
X34.29 Y216.175 M03 S0 F1500
X33.85 Y214.585 M03 S255 F110
X34.81 Y217.735 M03 S0 F1500
X34.29 Y216.175 M03 S255 F110
X35.4 Y219.255 M03 S0 F1500
X34.81 Y217.735 M03 S255 F110
X36.79 Y222.165 M03 S0 F1500
X35.4 Y219.255 M03 S255 F110
X38.44 Y224.915 M03 S0 F1500
X36.79 Y222.165 M03 S255 F110
X40.34 Y227.465 M03 S0 F1500
X38.44 Y224.915 M03 S255 F110
X42.48 Y229.815 M03 S0 F1500
X40.34 Y227.465 M03 S255 F110
X44.81 Y231.955 M03 S0 F1500
X42.48 Y229.815 M03 S255 F110
X47.34 Y233.855 M03 S0 F1500
X44.81 Y231.955 M03 S255 F110
X50.05 Y235.505 M03 S0 F1500
X47.34 Y233.855 M03 S255 F110
X52.91 Y236.885 M03 S0 F1500
X50.05 Y235.505 M03 S255 F110
X55.91 Y238.005 M03 S0 F1500
X52.91 Y236.885 M03 S255 F110
X57.46 Y238.455 M03 S0 F1500
X55.91 Y238.005 M03 S255 F110
X59.04 Y238.825 M03 S0 F1500
X57.46 Y238.455 M03 S255 F110
X60.64 Y239.125 M03 S0 F1500
X59.04 Y238.825 M03 S255 F110
X62.26 Y239.335 M03 S0 F1500
X60.64 Y239.125 M03 S255 F110
X63.91 Y239.475 M03 S0 F1500
X62.26 Y239.335 M03 S255 F110
X65.58 Y239.525 M03 S0 F1500
X63.91 Y239.475 M03 S255 F110
X67.25 Y239.505 M03 S0 F1500
X65.58 Y239.525 M03 S255 F110
X68.95 Y239.385 M03 S0 F1500
X67.25 Y239.505 M03 S255 F110
X70.64 Y239.185 M03 S0 F1500
X68.95 Y239.385 M03 S255 F110
X72.29 Y238.905 M03 S0 F1500
X70.64 Y239.185 M03 S255 F110
X73.91 Y238.535 M03 S0 F1500
X72.29 Y238.905 M03 S255 F110
X75.5 Y238.105 M03 S0 F1500
X73.91 Y238.535 M03 S255 F110
X77.06 Y237.575 M03 S0 F1500
X75.5 Y238.105 M03 S255 F110
X78.58 Y236.985 M03 S0 F1500
X77.06 Y237.575 M03 S255 F110
X81.49 Y235.605 M03 S0 F1500
X78.58 Y236.985 M03 S255 F110
X84.24 Y233.955 M03 S0 F1500
X81.49 Y235.605 M03 S255 F110
X86.79 Y232.055 M03 S0 F1500
X84.24 Y233.955 M03 S255 F110
X89.14 Y229.915 M03 S0 F1500
X86.79 Y232.055 M03 S255 F110
X91.28 Y227.575 M03 S0 F1500
X89.14 Y229.915 M03 S255 F110
X93.18 Y225.035 M03 S0 F1500
X91.28 Y227.575 M03 S255 F110
X94.83 Y222.335 M03 S0 F1500
X93.18 Y225.035 M03 S255 F110
X96.21 Y219.475 M03 S0 F1500
X94.83 Y222.335 M03 S255 F110
X97.33 Y216.475 M03 S0 F1500
X96.21 Y219.475 M03 S255 F110
X97.78 Y214.925 M03 S0 F1500
X97.33 Y216.475 M03 S255 F110
X98.15 Y213.355 M03 S0 F1500
X97.78 Y214.925 M03 S255 F110
X98.45 Y211.755 M03 S0 F1500
X98.15 Y213.355 M03 S255 F110
X98.66 Y210.125 M03 S0 F1500
X98.45 Y211.755 M03 S255 F110
X98.8 Y208.475 M03 S0 F1500
X98.66 Y210.125 M03 S255 F110
X98.85 Y206.815 M03 S0 F1500
X98.8 Y208.475 M03 S255 F110
X98.83 Y205.125 M03 S0 F1500
X98.85 Y206.815 M03 S255 F110
X98.71 Y203.435 M03 S0 F1500
X98.83 Y205.125 M03 S255 F110
X98.51 Y201.755 M03 S0 F1500
X98.71 Y203.435 M03 S255 F110
X98.23 Y200.105 M03 S0 F1500
X98.51 Y201.755 M03 S255 F110
X97.86 Y198.475 M03 S0 F1500
X98.23 Y200.105 M03 S255 F110
X97.43 Y196.885 M03 S0 F1500
X97.86 Y198.475 M03 S255 F110
X96.9 Y195.325 M03 S0 F1500
X97.43 Y196.885 M03 S255 F110
X96.31 Y193.815 M03 S0 F1500
X96.9 Y195.325 M03 S255 F110
X94.93 Y190.905 M03 S0 F1500
X96.31 Y193.815 M03 S255 F110
X93.28 Y188.155 M03 S0 F1500
X94.93 Y190.905 M03 S255 F110
X91.38 Y185.605 M03 S0 F1500
X93.28 Y188.155 M03 S255 F110
X89.24 Y183.255 M03 S0 F1500
X91.38 Y185.605 M03 S255 F110
X86.9 Y181.115 M03 S0 F1500
X89.24 Y183.255 M03 S255 F110
X84.36 Y179.215 M03 S0 F1500
X86.9 Y181.115 M03 S255 F110
X81.66 Y177.565 M03 S0 F1500
X84.36 Y179.215 M03 S255 F110
X78.8 Y176.175 M03 S0 F1500
X81.66 Y177.565 M03 S255 F110
X75.8 Y175.055 M03 S0 F1500
X78.8 Y176.175 M03 S255 F110
X74.25 Y174.615 M03 S0 F1500
X75.8 Y175.055 M03 S255 F110
X72.68 Y174.235 M03 S0 F1500
X74.25 Y174.615 M03 S255 F110
X71.08 Y173.935 M03 S0 F1500
X72.68 Y174.235 M03 S255 F110
X69.45 Y173.725 M03 S0 F1500
X71.08 Y173.935 M03 S255 F110
X67.8 Y173.585 M03 S0 F1500
X69.45 Y173.725 M03 S255 F110
X66.14 Y173.525 M03 S0 F1500
X67.8 Y173.585 M03 S255 F110
X64.45 Y173.555 M03 S0 F1500
X66.14 Y173.525 M03 S255 F110
X62.76 Y173.675 M03 S0 F1500
X64.45 Y173.555 M03 S255 F110
X59.85 Y174.075 M03 S0 F1500
X62.76 Y173.675 M03 S255 F110
X57.01 Y174.735 M03 S0 F1500
X59.85 Y174.075 M03 S255 F110
X54.29 Y175.625 M03 S0 F1500
X57.01 Y174.735 M03 S255 F110
X51.66 Y176.735 M03 S0 F1500
X54.29 Y175.625 M03 S255 F110
X49.18 Y178.065 M03 S0 F1500
X51.66 Y176.735 M03 S255 F110
X46.8 Y179.585 M03 S0 F1500
X49.18 Y178.065 M03 S255 F110
X44.59 Y181.305 M03 S0 F1500
X46.8 Y179.585 M03 S255 F110
X42.52 Y183.205 M03 S0 F1500
X44.59 Y181.305 M03 S255 F110
X40.63 Y185.265 M03 S0 F1500
X42.52 Y183.205 M03 S255 F110
X38.91 Y187.475 M03 S0 F1500
X40.63 Y185.265 M03 S255 F110
X37.39 Y189.855 M03 S0 F1500
X38.91 Y187.475 M03 S255 F110
X36.06 Y192.335 M03 S0 F1500
X37.39 Y189.855 M03 S255 F110
X34.95 Y194.965 M03 S0 F1500
X36.06 Y192.335 M03 S255 F110
X34.06 Y197.685 M03 S0 F1500
X34.95 Y194.965 M03 S255 F110
X33.4 Y200.525 M03 S0 F1500
X34.06 Y197.685 M03 S255 F110
X33 Y203.435 M03 S0 F1500
X33.4 Y200.525 M03 S255 F110
X34.59 Y203.725 M03 S0 F1500
X33.99 Y203.535 M03 S255 F110
X35.11 Y204.025 M03 S0 F1500
X34.59 Y203.725 M03 S255 F110
X35.58 Y204.415 M03 S0 F1500
X35.11 Y204.025 M03 S255 F110
X35.95 Y204.875 M03 S0 F1500
X35.58 Y204.415 M03 S255 F110
X36.23 Y205.405 M03 S0 F1500
X35.95 Y204.875 M03 S255 F110
X36.4 Y205.965 M03 S0 F1500
X36.23 Y205.405 M03 S255 F110
X36.45 Y206.565 M03 S0 F1500
X36.4 Y205.965 M03 S255 F110
X36.39 Y207.185 M03 S0 F1500
X36.45 Y206.565 M03 S255 F110
X36.21 Y207.755 M03 S0 F1500
X36.39 Y207.185 M03 S255 F110
X35.95 Y208.265 M03 S0 F1500
X36.21 Y207.755 M03 S255 F110
X35.6 Y208.705 M03 S0 F1500
X35.95 Y208.265 M03 S255 F110
X35.18 Y209.065 M03 S0 F1500
X35.6 Y208.705 M03 S255 F110
X34.69 Y209.355 M03 S0 F1500
X35.18 Y209.065 M03 S255 F110
X34.16 Y209.555 M03 S0 F1500
X34.69 Y209.355 M03 S255 F110
X33.59 Y209.635 M03 S0 F1500
X34.16 Y209.555 M03 S255 F110
X33 Y209.625 M03 S0 F1500
X33.59 Y209.635 M03 S255 F110
X69.3 Y207.025 M03 S0 F1500
X69.35 Y206.525 M03 S255 F110
X69.15 Y207.505 M03 S0 F1500
X69.3 Y207.025 M03 S255 F110
X68.93 Y207.925 M03 S0 F1500
X69.15 Y207.505 M03 S255 F110
X68.63 Y208.305 M03 S0 F1500
X68.93 Y207.925 M03 S255 F110
X68.25 Y208.605 M03 S0 F1500
X68.63 Y208.305 M03 S255 F110
X67.83 Y208.825 M03 S0 F1500
X68.25 Y208.605 M03 S255 F110
X67.35 Y208.975 M03 S0 F1500
X67.83 Y208.825 M03 S255 F110
X66.85 Y209.025 M03 S0 F1500
X67.35 Y208.975 M03 S255 F110
X66.35 Y208.975 M03 S0 F1500
X66.85 Y209.025 M03 S255 F110
X65.88 Y208.825 M03 S0 F1500
X66.35 Y208.975 M03 S255 F110
X65.45 Y208.605 M03 S0 F1500
X65.88 Y208.825 M03 S255 F110
X65.09 Y208.305 M03 S0 F1500
X65.45 Y208.605 M03 S255 F110
X64.78 Y207.925 M03 S0 F1500
X65.09 Y208.305 M03 S255 F110
X64.55 Y207.505 M03 S0 F1500
X64.78 Y207.925 M03 S255 F110
X64.4 Y207.025 M03 S0 F1500
X64.55 Y207.505 M03 S255 F110
X64.35 Y206.525 M03 S0 F1500
X64.4 Y207.025 M03 S255 F110
X64.4 Y206.025 M03 S0 F1500
X64.35 Y206.525 M03 S255 F110
X64.55 Y205.555 M03 S0 F1500
X64.4 Y206.025 M03 S255 F110
X64.78 Y205.125 M03 S0 F1500
X64.55 Y205.555 M03 S255 F110
X65.09 Y204.765 M03 S0 F1500
X64.78 Y205.125 M03 S255 F110
X65.45 Y204.455 M03 S0 F1500
X65.09 Y204.765 M03 S255 F110
X65.88 Y204.225 M03 S0 F1500
X65.45 Y204.455 M03 S255 F110
X66.35 Y204.075 M03 S0 F1500
X65.88 Y204.225 M03 S255 F110
X66.85 Y204.025 M03 S0 F1500
X66.35 Y204.075 M03 S255 F110
X67.35 Y204.075 M03 S0 F1500
X66.85 Y204.025 M03 S255 F110
X67.83 Y204.225 M03 S0 F1500
X67.35 Y204.075 M03 S255 F110
X68.25 Y204.455 M03 S0 F1500
X67.83 Y204.225 M03 S255 F110
X68.63 Y204.765 M03 S0 F1500
X68.25 Y204.455 M03 S255 F110
X68.93 Y205.125 M03 S0 F1500
X68.63 Y204.765 M03 S255 F110
X69.15 Y205.555 M03 S0 F1500
X68.93 Y205.125 M03 S255 F110
X69.3 Y206.025 M03 S0 F1500
X69.15 Y205.555 M03 S255 F110
X69.35 Y206.525 M03 S0 F1500
X69.3 Y206.025 M03 S255 F110
X69.35 Y206.525 M03 S0 F1500
X69.35 Y206.525 M03 S255 F110
X67.2 Y153.815 M03 S0 F1500
X67 Y152.125 M03 S255 F110
X67.49 Y155.465 M03 S0 F1500
X67.2 Y153.815 M03 S255 F110
X67.85 Y157.085 M03 S0 F1500
X67.49 Y155.465 M03 S255 F110
X68.29 Y158.675 M03 S0 F1500
X67.85 Y157.085 M03 S255 F110
X68.81 Y160.235 M03 S0 F1500
X68.29 Y158.675 M03 S255 F110
X69.4 Y161.755 M03 S0 F1500
X68.81 Y160.235 M03 S255 F110
X70.79 Y164.665 M03 S0 F1500
X69.4 Y161.755 M03 S255 F110
X72.44 Y167.415 M03 S0 F1500
X70.79 Y164.665 M03 S255 F110
X74.34 Y169.965 M03 S0 F1500
X72.44 Y167.415 M03 S255 F110
X76.48 Y172.315 M03 S0 F1500
X74.34 Y169.965 M03 S255 F110
X78.81 Y174.455 M03 S0 F1500
X76.48 Y172.315 M03 S255 F110
X81.34 Y176.355 M03 S0 F1500
X78.81 Y174.455 M03 S255 F110
X84.05 Y178.005 M03 S0 F1500
X81.34 Y176.355 M03 S255 F110
X86.91 Y179.385 M03 S0 F1500
X84.05 Y178.005 M03 S255 F110
X89.91 Y180.505 M03 S0 F1500
X86.91 Y179.385 M03 S255 F110
X91.46 Y180.955 M03 S0 F1500
X89.91 Y180.505 M03 S255 F110
X93.04 Y181.325 M03 S0 F1500
X91.46 Y180.955 M03 S255 F110
X94.64 Y181.625 M03 S0 F1500
X93.04 Y181.325 M03 S255 F110
X96.26 Y181.835 M03 S0 F1500
X94.64 Y181.625 M03 S255 F110
X97.91 Y181.975 M03 S0 F1500
X96.26 Y181.835 M03 S255 F110
X99.58 Y182.025 M03 S0 F1500
X97.91 Y181.975 M03 S255 F110
X101.25 Y182.005 M03 S0 F1500
X99.58 Y182.025 M03 S255 F110
X102.95 Y181.885 M03 S0 F1500
X101.25 Y182.005 M03 S255 F110
X104.64 Y181.685 M03 S0 F1500
X102.95 Y181.885 M03 S255 F110
X106.29 Y181.405 M03 S0 F1500
X104.64 Y181.685 M03 S255 F110
X107.91 Y181.035 M03 S0 F1500
X106.29 Y181.405 M03 S255 F110
X109.5 Y180.605 M03 S0 F1500
X107.91 Y181.035 M03 S255 F110
X111.06 Y180.075 M03 S0 F1500
X109.5 Y180.605 M03 S255 F110
X112.58 Y179.485 M03 S0 F1500
X111.06 Y180.075 M03 S255 F110
X115.49 Y178.105 M03 S0 F1500
X112.58 Y179.485 M03 S255 F110
X118.24 Y176.455 M03 S0 F1500
X115.49 Y178.105 M03 S255 F110
X120.79 Y174.555 M03 S0 F1500
X118.24 Y176.455 M03 S255 F110
X123.14 Y172.415 M03 S0 F1500
X120.79 Y174.555 M03 S255 F110
X125.28 Y170.075 M03 S0 F1500
X123.14 Y172.415 M03 S255 F110
X127.18 Y167.535 M03 S0 F1500
X125.28 Y170.075 M03 S255 F110
X128.83 Y164.835 M03 S0 F1500
X127.18 Y167.535 M03 S255 F110
X130.21 Y161.975 M03 S0 F1500
X128.83 Y164.835 M03 S255 F110
X131.33 Y158.975 M03 S0 F1500
X130.21 Y161.975 M03 S255 F110
X131.78 Y157.425 M03 S0 F1500
X131.33 Y158.975 M03 S255 F110
X132.15 Y155.855 M03 S0 F1500
X131.78 Y157.425 M03 S255 F110
X132.45 Y154.255 M03 S0 F1500
X132.15 Y155.855 M03 S255 F110
X132.66 Y152.625 M03 S0 F1500
X132.45 Y154.255 M03 S255 F110
X132.8 Y150.975 M03 S0 F1500
X132.66 Y152.625 M03 S255 F110
X132.85 Y149.315 M03 S0 F1500
X132.8 Y150.975 M03 S255 F110
X132.83 Y147.625 M03 S0 F1500
X132.85 Y149.315 M03 S255 F110
X132.71 Y145.935 M03 S0 F1500
X132.83 Y147.625 M03 S255 F110
X132.51 Y144.255 M03 S0 F1500
X132.71 Y145.935 M03 S255 F110
X132.23 Y142.605 M03 S0 F1500
X132.51 Y144.255 M03 S255 F110
X131.86 Y140.975 M03 S0 F1500
X132.23 Y142.605 M03 S255 F110
X131.43 Y139.385 M03 S0 F1500
X131.86 Y140.975 M03 S255 F110
X130.9 Y137.825 M03 S0 F1500
X131.43 Y139.385 M03 S255 F110
X130.31 Y136.315 M03 S0 F1500
X130.9 Y137.825 M03 S255 F110
X128.93 Y133.405 M03 S0 F1500
X130.31 Y136.315 M03 S255 F110
X127.28 Y130.655 M03 S0 F1500
X128.93 Y133.405 M03 S255 F110
X125.37 Y128.105 M03 S0 F1500
X127.28 Y130.655 M03 S255 F110
X123.24 Y125.755 M03 S0 F1500
X125.37 Y128.105 M03 S255 F110
X120.9 Y123.615 M03 S0 F1500
X123.24 Y125.755 M03 S255 F110
X118.36 Y121.715 M03 S0 F1500
X120.9 Y123.615 M03 S255 F110
X115.66 Y120.065 M03 S0 F1500
X118.36 Y121.715 M03 S255 F110
X112.8 Y118.675 M03 S0 F1500
X115.66 Y120.065 M03 S255 F110
X109.8 Y117.545 M03 S0 F1500
X112.8 Y118.675 M03 S255 F110
X108.25 Y117.115 M03 S0 F1500
X109.8 Y117.545 M03 S255 F110
X106.68 Y116.735 M03 S0 F1500
X108.25 Y117.115 M03 S255 F110
X105.08 Y116.435 M03 S0 F1500
X106.68 Y116.735 M03 S255 F110
X103.45 Y116.225 M03 S0 F1500
X105.08 Y116.435 M03 S255 F110
X101.8 Y116.085 M03 S0 F1500
X103.45 Y116.225 M03 S255 F110
X100.14 Y116.025 M03 S0 F1500
X101.8 Y116.085 M03 S255 F110
X98.45 Y116.045 M03 S0 F1500
X100.14 Y116.025 M03 S255 F110
X96.76 Y116.175 M03 S0 F1500
X98.45 Y116.045 M03 S255 F110
X93.85 Y116.575 M03 S0 F1500
X96.76 Y116.175 M03 S255 F110
X91.01 Y117.235 M03 S0 F1500
X93.85 Y116.575 M03 S255 F110
X88.29 Y118.125 M03 S0 F1500
X91.01 Y117.235 M03 S255 F110
X85.66 Y119.235 M03 S0 F1500
X88.29 Y118.125 M03 S255 F110
X83.18 Y120.565 M03 S0 F1500
X85.66 Y119.235 M03 S255 F110
X80.8 Y122.085 M03 S0 F1500
X83.18 Y120.565 M03 S255 F110
X78.59 Y123.795 M03 S0 F1500
X80.8 Y122.085 M03 S255 F110
X76.53 Y125.705 M03 S0 F1500
X78.59 Y123.795 M03 S255 F110
X74.63 Y127.765 M03 S0 F1500
X76.53 Y125.705 M03 S255 F110
X72.91 Y129.975 M03 S0 F1500
X74.63 Y127.765 M03 S255 F110
X71.39 Y132.355 M03 S0 F1500
X72.91 Y129.975 M03 S255 F110
X70.06 Y134.835 M03 S0 F1500
X71.39 Y132.355 M03 S255 F110
X68.95 Y137.465 M03 S0 F1500
X70.06 Y134.835 M03 S255 F110
X68.06 Y140.185 M03 S0 F1500
X68.95 Y137.465 M03 S255 F110
X67.4 Y143.025 M03 S0 F1500
X68.06 Y140.185 M03 S255 F110
X67 Y145.935 M03 S0 F1500
X67.4 Y143.025 M03 S255 F110
X68.59 Y146.225 M03 S0 F1500
X67.99 Y146.035 M03 S255 F110
X69.11 Y146.525 M03 S0 F1500
X68.59 Y146.225 M03 S255 F110
X69.58 Y146.915 M03 S0 F1500
X69.11 Y146.525 M03 S255 F110
X69.95 Y147.375 M03 S0 F1500
X69.58 Y146.915 M03 S255 F110
X70.23 Y147.905 M03 S0 F1500
X69.95 Y147.375 M03 S255 F110
X70.4 Y148.465 M03 S0 F1500
X70.23 Y147.905 M03 S255 F110
X70.45 Y149.065 M03 S0 F1500
X70.4 Y148.465 M03 S255 F110
X70.39 Y149.685 M03 S0 F1500
X70.45 Y149.065 M03 S255 F110
X70.21 Y150.255 M03 S0 F1500
X70.39 Y149.685 M03 S255 F110
X69.95 Y150.765 M03 S0 F1500
X70.21 Y150.255 M03 S255 F110
X69.59 Y151.205 M03 S0 F1500
X69.95 Y150.765 M03 S255 F110
X69.16 Y151.565 M03 S0 F1500
X69.59 Y151.205 M03 S255 F110
X68.69 Y151.855 M03 S0 F1500
X69.16 Y151.565 M03 S255 F110
X68.15 Y152.055 M03 S0 F1500
X68.69 Y151.855 M03 S255 F110
X67.59 Y152.135 M03 S0 F1500
X68.15 Y152.055 M03 S255 F110
X67 Y152.125 M03 S0 F1500
X67.59 Y152.135 M03 S255 F110
X103.3 Y149.525 M03 S0 F1500
X103.35 Y149.025 M03 S255 F110
X103.15 Y150.005 M03 S0 F1500
X103.3 Y149.525 M03 S255 F110
X102.93 Y150.425 M03 S0 F1500
X103.15 Y150.005 M03 S255 F110
X102.62 Y150.805 M03 S0 F1500
X102.93 Y150.425 M03 S255 F110
X102.25 Y151.105 M03 S0 F1500
X102.62 Y150.805 M03 S255 F110
X101.83 Y151.325 M03 S0 F1500
X102.25 Y151.105 M03 S255 F110
X101.35 Y151.475 M03 S0 F1500
X101.83 Y151.325 M03 S255 F110
X100.85 Y151.525 M03 S0 F1500
X101.35 Y151.475 M03 S255 F110
X100.35 Y151.475 M03 S0 F1500
X100.85 Y151.525 M03 S255 F110
X99.87 Y151.325 M03 S0 F1500
X100.35 Y151.475 M03 S255 F110
X99.45 Y151.105 M03 S0 F1500
X99.87 Y151.325 M03 S255 F110
X99.09 Y150.805 M03 S0 F1500
X99.45 Y151.105 M03 S255 F110
X98.78 Y150.425 M03 S0 F1500
X99.09 Y150.805 M03 S255 F110
X98.55 Y150.005 M03 S0 F1500
X98.78 Y150.425 M03 S255 F110
X98.4 Y149.525 M03 S0 F1500
X98.55 Y150.005 M03 S255 F110
X98.35 Y149.025 M03 S0 F1500
X98.4 Y149.525 M03 S255 F110
X98.4 Y148.525 M03 S0 F1500
X98.35 Y149.025 M03 S255 F110
X98.55 Y148.055 M03 S0 F1500
X98.4 Y148.525 M03 S255 F110
X98.78 Y147.625 M03 S0 F1500
X98.55 Y148.055 M03 S255 F110
X99.09 Y147.265 M03 S0 F1500
X98.78 Y147.625 M03 S255 F110
X99.45 Y146.955 M03 S0 F1500
X99.09 Y147.265 M03 S255 F110
X99.87 Y146.725 M03 S0 F1500
X99.45 Y146.955 M03 S255 F110
X100.35 Y146.575 M03 S0 F1500
X99.87 Y146.725 M03 S255 F110
X100.85 Y146.525 M03 S0 F1500
X100.35 Y146.575 M03 S255 F110
X101.35 Y146.575 M03 S0 F1500
X100.85 Y146.525 M03 S255 F110
X101.83 Y146.725 M03 S0 F1500
X101.35 Y146.575 M03 S255 F110
X102.25 Y146.955 M03 S0 F1500
X101.83 Y146.725 M03 S255 F110
X102.62 Y147.265 M03 S0 F1500
X102.25 Y146.955 M03 S255 F110
X102.93 Y147.625 M03 S0 F1500
X102.62 Y147.265 M03 S255 F110
X103.15 Y148.055 M03 S0 F1500
X102.93 Y147.625 M03 S255 F110
X103.3 Y148.525 M03 S0 F1500
X103.15 Y148.055 M03 S255 F110
X103.35 Y149.025 M03 S0 F1500
X103.3 Y148.525 M03 S255 F110
X103.35 Y149.025 M03 S0 F1500
X103.35 Y149.025 M03 S255 F110
X100.2 Y211.315 M03 S0 F1500
X100 Y209.625 M03 S255 F110
X100.49 Y212.965 M03 S0 F1500
X100.2 Y211.315 M03 S255 F110
X100.85 Y214.585 M03 S0 F1500
X100.49 Y212.965 M03 S255 F110
X101.29 Y216.175 M03 S0 F1500
X100.85 Y214.585 M03 S255 F110
X101.81 Y217.735 M03 S0 F1500
X101.29 Y216.175 M03 S255 F110
X102.4 Y219.255 M03 S0 F1500
X101.81 Y217.735 M03 S255 F110
X103.79 Y222.165 M03 S0 F1500
X102.4 Y219.255 M03 S255 F110
X105.44 Y224.915 M03 S0 F1500
X103.79 Y222.165 M03 S255 F110
X107.34 Y227.465 M03 S0 F1500
X105.44 Y224.915 M03 S255 F110
X109.48 Y229.815 M03 S0 F1500
X107.34 Y227.465 M03 S255 F110
X111.81 Y231.955 M03 S0 F1500
X109.48 Y229.815 M03 S255 F110
X114.34 Y233.855 M03 S0 F1500
X111.81 Y231.955 M03 S255 F110
X117.05 Y235.505 M03 S0 F1500
X114.34 Y233.855 M03 S255 F110
X119.91 Y236.885 M03 S0 F1500
X117.05 Y235.505 M03 S255 F110
X122.91 Y238.005 M03 S0 F1500
X119.91 Y236.885 M03 S255 F110
X124.46 Y238.455 M03 S0 F1500
X122.91 Y238.005 M03 S255 F110
X126.04 Y238.825 M03 S0 F1500
X124.46 Y238.455 M03 S255 F110
X127.64 Y239.125 M03 S0 F1500
X126.04 Y238.825 M03 S255 F110
X129.26 Y239.335 M03 S0 F1500
X127.64 Y239.125 M03 S255 F110
X130.91 Y239.475 M03 S0 F1500
X129.26 Y239.335 M03 S255 F110
X132.58 Y239.525 M03 S0 F1500
X130.91 Y239.475 M03 S255 F110
X134.25 Y239.505 M03 S0 F1500
X132.58 Y239.525 M03 S255 F110
X135.95 Y239.385 M03 S0 F1500
X134.25 Y239.505 M03 S255 F110
X137.64 Y239.185 M03 S0 F1500
X135.95 Y239.385 M03 S255 F110
X139.29 Y238.905 M03 S0 F1500
X137.64 Y239.185 M03 S255 F110
X140.91 Y238.535 M03 S0 F1500
X139.29 Y238.905 M03 S255 F110
X142.5 Y238.105 M03 S0 F1500
X140.91 Y238.535 M03 S255 F110
X144.06 Y237.575 M03 S0 F1500
X142.5 Y238.105 M03 S255 F110
X145.58 Y236.985 M03 S0 F1500
X144.06 Y237.575 M03 S255 F110
X148.49 Y235.605 M03 S0 F1500
X145.58 Y236.985 M03 S255 F110
X151.24 Y233.955 M03 S0 F1500
X148.49 Y235.605 M03 S255 F110
X153.79 Y232.055 M03 S0 F1500
X151.24 Y233.955 M03 S255 F110
X156.14 Y229.915 M03 S0 F1500
X153.79 Y232.055 M03 S255 F110
X158.28 Y227.575 M03 S0 F1500
X156.14 Y229.915 M03 S255 F110
X160.18 Y225.035 M03 S0 F1500
X158.28 Y227.575 M03 S255 F110
X161.83 Y222.335 M03 S0 F1500
X160.18 Y225.035 M03 S255 F110
X163.21 Y219.475 M03 S0 F1500
X161.83 Y222.335 M03 S255 F110
X164.33 Y216.475 M03 S0 F1500
X163.21 Y219.475 M03 S255 F110
X164.78 Y214.925 M03 S0 F1500
X164.33 Y216.475 M03 S255 F110
X165.15 Y213.355 M03 S0 F1500
X164.78 Y214.925 M03 S255 F110
X165.45 Y211.755 M03 S0 F1500
X165.15 Y213.355 M03 S255 F110
X165.66 Y210.125 M03 S0 F1500
X165.45 Y211.755 M03 S255 F110
X165.8 Y208.475 M03 S0 F1500
X165.66 Y210.125 M03 S255 F110
X165.85 Y206.815 M03 S0 F1500
X165.8 Y208.475 M03 S255 F110
X165.83 Y205.125 M03 S0 F1500
X165.85 Y206.815 M03 S255 F110
X165.71 Y203.435 M03 S0 F1500
X165.83 Y205.125 M03 S255 F110
X165.51 Y201.755 M03 S0 F1500
X165.71 Y203.435 M03 S255 F110
X165.23 Y200.105 M03 S0 F1500
X165.51 Y201.755 M03 S255 F110
X164.86 Y198.475 M03 S0 F1500
X165.23 Y200.105 M03 S255 F110
X164.43 Y196.885 M03 S0 F1500
X164.86 Y198.475 M03 S255 F110
X163.9 Y195.325 M03 S0 F1500
X164.43 Y196.885 M03 S255 F110
X163.31 Y193.815 M03 S0 F1500
X163.9 Y195.325 M03 S255 F110
X161.93 Y190.905 M03 S0 F1500
X163.31 Y193.815 M03 S255 F110
X160.28 Y188.155 M03 S0 F1500
X161.93 Y190.905 M03 S255 F110
X158.38 Y185.605 M03 S0 F1500
X160.28 Y188.155 M03 S255 F110
X156.24 Y183.255 M03 S0 F1500
X158.38 Y185.605 M03 S255 F110
X153.9 Y181.115 M03 S0 F1500
X156.24 Y183.255 M03 S255 F110
X151.36 Y179.215 M03 S0 F1500
X153.9 Y181.115 M03 S255 F110
X148.66 Y177.565 M03 S0 F1500
X151.36 Y179.215 M03 S255 F110
X145.8 Y176.175 M03 S0 F1500
X148.66 Y177.565 M03 S255 F110
X142.8 Y175.055 M03 S0 F1500
X145.8 Y176.175 M03 S255 F110
X141.25 Y174.615 M03 S0 F1500
X142.8 Y175.055 M03 S255 F110
X139.68 Y174.235 M03 S0 F1500
X141.25 Y174.615 M03 S255 F110
X138.08 Y173.935 M03 S0 F1500
X139.68 Y174.235 M03 S255 F110
X136.45 Y173.725 M03 S0 F1500
X138.08 Y173.935 M03 S255 F110
X134.8 Y173.585 M03 S0 F1500
X136.45 Y173.725 M03 S255 F110
X133.14 Y173.525 M03 S0 F1500
X134.8 Y173.585 M03 S255 F110
X131.45 Y173.555 M03 S0 F1500
X133.14 Y173.525 M03 S255 F110
X129.76 Y173.675 M03 S0 F1500
X131.45 Y173.555 M03 S255 F110
X126.85 Y174.075 M03 S0 F1500
X129.76 Y173.675 M03 S255 F110
X124.01 Y174.735 M03 S0 F1500
X126.85 Y174.075 M03 S255 F110
X121.29 Y175.625 M03 S0 F1500
X124.01 Y174.735 M03 S255 F110
X118.66 Y176.735 M03 S0 F1500
X121.29 Y175.625 M03 S255 F110
X116.18 Y178.065 M03 S0 F1500
X118.66 Y176.735 M03 S255 F110
X113.8 Y179.585 M03 S0 F1500
X116.18 Y178.065 M03 S255 F110
X111.59 Y181.305 M03 S0 F1500
X113.8 Y179.585 M03 S255 F110
X109.53 Y183.205 M03 S0 F1500
X111.59 Y181.305 M03 S255 F110
X107.62 Y185.265 M03 S0 F1500
X109.53 Y183.205 M03 S255 F110
X105.91 Y187.475 M03 S0 F1500
X107.62 Y185.265 M03 S255 F110
X104.39 Y189.855 M03 S0 F1500
X105.91 Y187.475 M03 S255 F110
X103.06 Y192.335 M03 S0 F1500
X104.39 Y189.855 M03 S255 F110
X101.95 Y194.965 M03 S0 F1500
X103.06 Y192.335 M03 S255 F110
X101.06 Y197.685 M03 S0 F1500
X101.95 Y194.965 M03 S255 F110
X100.4 Y200.525 M03 S0 F1500
X101.06 Y197.685 M03 S255 F110
X100 Y203.435 M03 S0 F1500
X100.4 Y200.525 M03 S255 F110
X101.59 Y203.725 M03 S0 F1500
X100.99 Y203.535 M03 S255 F110
X102.11 Y204.025 M03 S0 F1500
X101.59 Y203.725 M03 S255 F110
X102.58 Y204.415 M03 S0 F1500
X102.11 Y204.025 M03 S255 F110
X102.95 Y204.875 M03 S0 F1500
X102.58 Y204.415 M03 S255 F110
X103.23 Y205.405 M03 S0 F1500
X102.95 Y204.875 M03 S255 F110
X103.4 Y205.965 M03 S0 F1500
X103.23 Y205.405 M03 S255 F110
X103.45 Y206.565 M03 S0 F1500
X103.4 Y205.965 M03 S255 F110
X103.39 Y207.185 M03 S0 F1500
X103.45 Y206.565 M03 S255 F110
X103.21 Y207.755 M03 S0 F1500
X103.39 Y207.185 M03 S255 F110
X102.95 Y208.265 M03 S0 F1500
X103.21 Y207.755 M03 S255 F110
X102.6 Y208.705 M03 S0 F1500
X102.95 Y208.265 M03 S255 F110
X102.18 Y209.065 M03 S0 F1500
X102.6 Y208.705 M03 S255 F110
X101.69 Y209.355 M03 S0 F1500
X102.18 Y209.065 M03 S255 F110
X101.16 Y209.555 M03 S0 F1500
X101.69 Y209.355 M03 S255 F110
X100.59 Y209.635 M03 S0 F1500
X101.16 Y209.555 M03 S255 F110
X100 Y209.625 M03 S0 F1500
X100.59 Y209.635 M03 S255 F110
X136.3 Y207.025 M03 S0 F1500
X136.35 Y206.525 M03 S255 F110
X136.15 Y207.505 M03 S0 F1500
X136.3 Y207.025 M03 S255 F110
X135.93 Y207.925 M03 S0 F1500
X136.15 Y207.505 M03 S255 F110
X135.63 Y208.305 M03 S0 F1500
X135.93 Y207.925 M03 S255 F110
X135.25 Y208.605 M03 S0 F1500
X135.63 Y208.305 M03 S255 F110
X134.83 Y208.825 M03 S0 F1500
X135.25 Y208.605 M03 S255 F110
X134.35 Y208.975 M03 S0 F1500
X134.83 Y208.825 M03 S255 F110
X133.85 Y209.025 M03 S0 F1500
X134.35 Y208.975 M03 S255 F110
X133.35 Y208.975 M03 S0 F1500
X133.85 Y209.025 M03 S255 F110
X132.87 Y208.825 M03 S0 F1500
X133.35 Y208.975 M03 S255 F110
X132.45 Y208.605 M03 S0 F1500
X132.87 Y208.825 M03 S255 F110
X132.09 Y208.305 M03 S0 F1500
X132.45 Y208.605 M03 S255 F110
X131.78 Y207.925 M03 S0 F1500
X132.09 Y208.305 M03 S255 F110
X131.55 Y207.505 M03 S0 F1500
X131.78 Y207.925 M03 S255 F110
X131.4 Y207.025 M03 S0 F1500
X131.55 Y207.505 M03 S255 F110
X131.35 Y206.525 M03 S0 F1500
X131.4 Y207.025 M03 S255 F110
X131.4 Y206.025 M03 S0 F1500
X131.35 Y206.525 M03 S255 F110
X131.55 Y205.555 M03 S0 F1500
X131.4 Y206.025 M03 S255 F110
X131.78 Y205.125 M03 S0 F1500
X131.55 Y205.555 M03 S255 F110
X132.09 Y204.765 M03 S0 F1500
X131.78 Y205.125 M03 S255 F110
X132.45 Y204.455 M03 S0 F1500
X132.09 Y204.765 M03 S255 F110
X132.87 Y204.225 M03 S0 F1500
X132.45 Y204.455 M03 S255 F110
X133.35 Y204.075 M03 S0 F1500
X132.87 Y204.225 M03 S255 F110
X133.85 Y204.025 M03 S0 F1500
X133.35 Y204.075 M03 S255 F110
X134.35 Y204.075 M03 S0 F1500
X133.85 Y204.025 M03 S255 F110
X134.83 Y204.225 M03 S0 F1500
X134.35 Y204.075 M03 S255 F110
X135.25 Y204.455 M03 S0 F1500
X134.83 Y204.225 M03 S255 F110
X135.63 Y204.765 M03 S0 F1500
X135.25 Y204.455 M03 S255 F110
X135.93 Y205.125 M03 S0 F1500
X135.63 Y204.765 M03 S255 F110
X136.15 Y205.555 M03 S0 F1500
X135.93 Y205.125 M03 S255 F110
X136.3 Y206.025 M03 S0 F1500
X136.15 Y205.555 M03 S255 F110
X136.35 Y206.525 M03 S0 F1500
X136.3 Y206.025 M03 S255 F110
X136.35 Y206.525 M03 S0 F1500
X136.35 Y206.525 M03 S255 F110
X134.2 Y153.815 M03 S0 F1500
X134 Y152.125 M03 S255 F110
X134.49 Y155.465 M03 S0 F1500
X134.2 Y153.815 M03 S255 F110
X134.85 Y157.085 M03 S0 F1500
X134.49 Y155.465 M03 S255 F110
X135.29 Y158.675 M03 S0 F1500
X134.85 Y157.085 M03 S255 F110
X135.81 Y160.235 M03 S0 F1500
X135.29 Y158.675 M03 S255 F110
X136.4 Y161.755 M03 S0 F1500
X135.81 Y160.235 M03 S255 F110
X137.79 Y164.665 M03 S0 F1500
X136.4 Y161.755 M03 S255 F110
X139.44 Y167.415 M03 S0 F1500
X137.79 Y164.665 M03 S255 F110
X141.34 Y169.965 M03 S0 F1500
X139.44 Y167.415 M03 S255 F110
X143.48 Y172.315 M03 S0 F1500
X141.34 Y169.965 M03 S255 F110
X145.81 Y174.455 M03 S0 F1500
X143.48 Y172.315 M03 S255 F110
X148.34 Y176.355 M03 S0 F1500
X145.81 Y174.455 M03 S255 F110
X151.05 Y178.005 M03 S0 F1500
X148.34 Y176.355 M03 S255 F110
X153.91 Y179.385 M03 S0 F1500
X151.05 Y178.005 M03 S255 F110
X156.91 Y180.505 M03 S0 F1500
X153.91 Y179.385 M03 S255 F110
X158.46 Y180.955 M03 S0 F1500
X156.91 Y180.505 M03 S255 F110
X160.04 Y181.325 M03 S0 F1500
X158.46 Y180.955 M03 S255 F110
X161.64 Y181.625 M03 S0 F1500
X160.04 Y181.325 M03 S255 F110
X163.26 Y181.835 M03 S0 F1500
X161.64 Y181.625 M03 S255 F110
X164.91 Y181.975 M03 S0 F1500
X163.26 Y181.835 M03 S255 F110
X166.58 Y182.025 M03 S0 F1500
X164.91 Y181.975 M03 S255 F110
X168.25 Y182.005 M03 S0 F1500
X166.58 Y182.025 M03 S255 F110
X169.95 Y181.885 M03 S0 F1500
X168.25 Y182.005 M03 S255 F110
X171.64 Y181.685 M03 S0 F1500
X169.95 Y181.885 M03 S255 F110
X173.29 Y181.405 M03 S0 F1500
X171.64 Y181.685 M03 S255 F110
X174.91 Y181.035 M03 S0 F1500
X173.29 Y181.405 M03 S255 F110
X176.5 Y180.605 M03 S0 F1500
X174.91 Y181.035 M03 S255 F110
X178.06 Y180.075 M03 S0 F1500
X176.5 Y180.605 M03 S255 F110
X179.58 Y179.485 M03 S0 F1500
X178.06 Y180.075 M03 S255 F110
X182.49 Y178.105 M03 S0 F1500
X179.58 Y179.485 M03 S255 F110
X185.24 Y176.455 M03 S0 F1500
X182.49 Y178.105 M03 S255 F110
X187.79 Y174.555 M03 S0 F1500
X185.24 Y176.455 M03 S255 F110
X190.14 Y172.415 M03 S0 F1500
X187.79 Y174.555 M03 S255 F110
X192.28 Y170.075 M03 S0 F1500
X190.14 Y172.415 M03 S255 F110
X194.18 Y167.535 M03 S0 F1500
X192.28 Y170.075 M03 S255 F110
X195.83 Y164.835 M03 S0 F1500
X194.18 Y167.535 M03 S255 F110
X197.21 Y161.975 M03 S0 F1500
X195.83 Y164.835 M03 S255 F110
X198.33 Y158.975 M03 S0 F1500
X197.21 Y161.975 M03 S255 F110
X198.78 Y157.425 M03 S0 F1500
X198.33 Y158.975 M03 S255 F110
X199.15 Y155.855 M03 S0 F1500
X198.78 Y157.425 M03 S255 F110
X199.45 Y154.255 M03 S0 F1500
X199.15 Y155.855 M03 S255 F110
X199.66 Y152.625 M03 S0 F1500
X199.45 Y154.255 M03 S255 F110
X199.8 Y150.975 M03 S0 F1500
X199.66 Y152.625 M03 S255 F110
X199.85 Y149.315 M03 S0 F1500
X199.8 Y150.975 M03 S255 F110
X199.83 Y147.625 M03 S0 F1500
X199.85 Y149.315 M03 S255 F110
X199.71 Y145.935 M03 S0 F1500
X199.83 Y147.625 M03 S255 F110
X199.51 Y144.255 M03 S0 F1500
X199.71 Y145.935 M03 S255 F110
X199.23 Y142.605 M03 S0 F1500
X199.51 Y144.255 M03 S255 F110
X198.86 Y140.975 M03 S0 F1500
X199.23 Y142.605 M03 S255 F110
X198.43 Y139.385 M03 S0 F1500
X198.86 Y140.975 M03 S255 F110
X197.9 Y137.825 M03 S0 F1500
X198.43 Y139.385 M03 S255 F110
X197.31 Y136.315 M03 S0 F1500
X197.9 Y137.825 M03 S255 F110
X195.93 Y133.405 M03 S0 F1500
X197.31 Y136.315 M03 S255 F110
X194.28 Y130.655 M03 S0 F1500
X195.93 Y133.405 M03 S255 F110
X192.38 Y128.105 M03 S0 F1500
X194.28 Y130.655 M03 S255 F110
X190.24 Y125.755 M03 S0 F1500
X192.38 Y128.105 M03 S255 F110
X187.9 Y123.615 M03 S0 F1500
X190.24 Y125.755 M03 S255 F110
X185.36 Y121.715 M03 S0 F1500
X187.9 Y123.615 M03 S255 F110
X182.66 Y120.065 M03 S0 F1500
X185.36 Y121.715 M03 S255 F110
X179.8 Y118.675 M03 S0 F1500
X182.66 Y120.065 M03 S255 F110
X176.8 Y117.545 M03 S0 F1500
X179.8 Y118.675 M03 S255 F110
X175.25 Y117.115 M03 S0 F1500
X176.8 Y117.545 M03 S255 F110
X173.68 Y116.735 M03 S0 F1500
X175.25 Y117.115 M03 S255 F110
X172.08 Y116.435 M03 S0 F1500
X173.68 Y116.735 M03 S255 F110
X170.45 Y116.225 M03 S0 F1500
X172.08 Y116.435 M03 S255 F110
X168.8 Y116.085 M03 S0 F1500
X170.45 Y116.225 M03 S255 F110
X167.14 Y116.025 M03 S0 F1500
X168.8 Y116.085 M03 S255 F110
X165.45 Y116.045 M03 S0 F1500
X167.14 Y116.025 M03 S255 F110
X163.76 Y116.175 M03 S0 F1500
X165.45 Y116.045 M03 S255 F110
X160.85 Y116.575 M03 S0 F1500
X163.76 Y116.175 M03 S255 F110
X158.01 Y117.235 M03 S0 F1500
X160.85 Y116.575 M03 S255 F110
X155.29 Y118.125 M03 S0 F1500
X158.01 Y117.235 M03 S255 F110
X152.66 Y119.235 M03 S0 F1500
X155.29 Y118.125 M03 S255 F110
X150.18 Y120.565 M03 S0 F1500
X152.66 Y119.235 M03 S255 F110
X147.8 Y122.085 M03 S0 F1500
X150.18 Y120.565 M03 S255 F110
X145.59 Y123.795 M03 S0 F1500
X147.8 Y122.085 M03 S255 F110
X143.53 Y125.705 M03 S0 F1500
X145.59 Y123.795 M03 S255 F110
X141.63 Y127.765 M03 S0 F1500
X143.53 Y125.705 M03 S255 F110
X139.91 Y129.975 M03 S0 F1500
X141.63 Y127.765 M03 S255 F110
X138.39 Y132.355 M03 S0 F1500
X139.91 Y129.975 M03 S255 F110
X137.06 Y134.835 M03 S0 F1500
X138.39 Y132.355 M03 S255 F110
X135.95 Y137.465 M03 S0 F1500
X137.06 Y134.835 M03 S255 F110
X135.06 Y140.185 M03 S0 F1500
X135.95 Y137.465 M03 S255 F110
X134.4 Y143.025 M03 S0 F1500
X135.06 Y140.185 M03 S255 F110
X134 Y145.935 M03 S0 F1500
X134.4 Y143.025 M03 S255 F110
X135.59 Y146.225 M03 S0 F1500
X134.99 Y146.035 M03 S255 F110
X136.11 Y146.525 M03 S0 F1500
X135.59 Y146.225 M03 S255 F110
X136.58 Y146.915 M03 S0 F1500
X136.11 Y146.525 M03 S255 F110
X136.95 Y147.375 M03 S0 F1500
X136.58 Y146.915 M03 S255 F110
X137.23 Y147.905 M03 S0 F1500
X136.95 Y147.375 M03 S255 F110
X137.4 Y148.465 M03 S0 F1500
X137.23 Y147.905 M03 S255 F110
X137.45 Y149.065 M03 S0 F1500
X137.4 Y148.465 M03 S255 F110
X137.39 Y149.685 M03 S0 F1500
X137.45 Y149.065 M03 S255 F110
X137.21 Y150.255 M03 S0 F1500
X137.39 Y149.685 M03 S255 F110
X136.95 Y150.765 M03 S0 F1500
X137.21 Y150.255 M03 S255 F110
X136.59 Y151.205 M03 S0 F1500
X136.95 Y150.765 M03 S255 F110
X136.16 Y151.565 M03 S0 F1500
X136.59 Y151.205 M03 S255 F110
X135.69 Y151.855 M03 S0 F1500
X136.16 Y151.565 M03 S255 F110
X135.15 Y152.055 M03 S0 F1500
X135.69 Y151.855 M03 S255 F110
X134.59 Y152.135 M03 S0 F1500
X135.15 Y152.055 M03 S255 F110
X134 Y152.125 M03 S0 F1500
X134.59 Y152.135 M03 S255 F110
X170.3 Y149.525 M03 S0 F1500
X170.35 Y149.025 M03 S255 F110
X170.15 Y150.005 M03 S0 F1500
X170.3 Y149.525 M03 S255 F110
X169.93 Y150.425 M03 S0 F1500
X170.15 Y150.005 M03 S255 F110
X169.63 Y150.805 M03 S0 F1500
X169.93 Y150.425 M03 S255 F110
X169.25 Y151.105 M03 S0 F1500
X169.63 Y150.805 M03 S255 F110
X168.83 Y151.325 M03 S0 F1500
X169.25 Y151.105 M03 S255 F110
X168.35 Y151.475 M03 S0 F1500
X168.83 Y151.325 M03 S255 F110
X167.85 Y151.525 M03 S0 F1500
X168.35 Y151.475 M03 S255 F110
X167.35 Y151.475 M03 S0 F1500
X167.85 Y151.525 M03 S255 F110
X166.88 Y151.325 M03 S0 F1500
X167.35 Y151.475 M03 S255 F110
X166.45 Y151.105 M03 S0 F1500
X166.88 Y151.325 M03 S255 F110
X166.09 Y150.805 M03 S0 F1500
X166.45 Y151.105 M03 S255 F110
X165.78 Y150.425 M03 S0 F1500
X166.09 Y150.805 M03 S255 F110
X165.55 Y150.005 M03 S0 F1500
X165.78 Y150.425 M03 S255 F110
X165.4 Y149.525 M03 S0 F1500
X165.55 Y150.005 M03 S255 F110
X165.35 Y149.025 M03 S0 F1500
X165.4 Y149.525 M03 S255 F110
X165.4 Y148.525 M03 S0 F1500
X165.35 Y149.025 M03 S255 F110
X165.55 Y148.055 M03 S0 F1500
X165.4 Y148.525 M03 S255 F110
X165.78 Y147.625 M03 S0 F1500
X165.55 Y148.055 M03 S255 F110
X166.09 Y147.265 M03 S0 F1500
X165.78 Y147.625 M03 S255 F110
X166.45 Y146.955 M03 S0 F1500
X166.09 Y147.265 M03 S255 F110
X166.88 Y146.725 M03 S0 F1500
X166.45 Y146.955 M03 S255 F110
X167.35 Y146.575 M03 S0 F1500
X166.88 Y146.725 M03 S255 F110
X167.85 Y146.525 M03 S0 F1500
X167.35 Y146.575 M03 S255 F110
X168.35 Y146.575 M03 S0 F1500
X167.85 Y146.525 M03 S255 F110
X168.83 Y146.725 M03 S0 F1500
X168.35 Y146.575 M03 S255 F110
X169.25 Y146.955 M03 S0 F1500
X168.83 Y146.725 M03 S255 F110
X169.63 Y147.265 M03 S0 F1500
X169.25 Y146.955 M03 S255 F110
X169.93 Y147.625 M03 S0 F1500
X169.63 Y147.265 M03 S255 F110
X170.15 Y148.055 M03 S0 F1500
X169.93 Y147.625 M03 S255 F110
X170.3 Y148.525 M03 S0 F1500
X170.15 Y148.055 M03 S255 F110
X170.35 Y149.025 M03 S0 F1500
X170.3 Y148.525 M03 S255 F110
X170.35 Y149.025 M03 S0 F1500
X170.35 Y149.025 M03 S255 F110
X167.2 Y211.315 M03 S0 F1500
X167 Y209.625 M03 S255 F110
X167.49 Y212.965 M03 S0 F1500
X167.2 Y211.315 M03 S255 F110
X167.85 Y214.585 M03 S0 F1500
X167.49 Y212.965 M03 S255 F110
X168.29 Y216.175 M03 S0 F1500
X167.85 Y214.585 M03 S255 F110
X168.81 Y217.735 M03 S0 F1500
X168.29 Y216.175 M03 S255 F110
X169.4 Y219.255 M03 S0 F1500
X168.81 Y217.735 M03 S255 F110
X170.79 Y222.165 M03 S0 F1500
X169.4 Y219.255 M03 S255 F110
X172.44 Y224.915 M03 S0 F1500
X170.79 Y222.165 M03 S255 F110
X174.34 Y227.465 M03 S0 F1500
X172.44 Y224.915 M03 S255 F110
X176.48 Y229.815 M03 S0 F1500
X174.34 Y227.465 M03 S255 F110
X178.81 Y231.955 M03 S0 F1500
X176.48 Y229.815 M03 S255 F110
X181.34 Y233.855 M03 S0 F1500
X178.81 Y231.955 M03 S255 F110
X184.05 Y235.505 M03 S0 F1500
X181.34 Y233.855 M03 S255 F110
X186.91 Y236.885 M03 S0 F1500
X184.05 Y235.505 M03 S255 F110
X189.91 Y238.005 M03 S0 F1500
X186.91 Y236.885 M03 S255 F110
X191.46 Y238.455 M03 S0 F1500
X189.91 Y238.005 M03 S255 F110
X193.04 Y238.825 M03 S0 F1500
X191.46 Y238.455 M03 S255 F110
X194.64 Y239.125 M03 S0 F1500
X193.04 Y238.825 M03 S255 F110
X196.26 Y239.335 M03 S0 F1500
X194.64 Y239.125 M03 S255 F110
X197.91 Y239.475 M03 S0 F1500
X196.26 Y239.335 M03 S255 F110
X199.58 Y239.525 M03 S0 F1500
X197.91 Y239.475 M03 S255 F110
X201.25 Y239.505 M03 S0 F1500
X199.58 Y239.525 M03 S255 F110
X202.95 Y239.385 M03 S0 F1500
X201.25 Y239.505 M03 S255 F110
X204.64 Y239.185 M03 S0 F1500
X202.95 Y239.385 M03 S255 F110
X206.29 Y238.905 M03 S0 F1500
X204.64 Y239.185 M03 S255 F110
X207.91 Y238.535 M03 S0 F1500
X206.29 Y238.905 M03 S255 F110
X209.5 Y238.105 M03 S0 F1500
X207.91 Y238.535 M03 S255 F110
X211.06 Y237.575 M03 S0 F1500
X209.5 Y238.105 M03 S255 F110
X212.58 Y236.985 M03 S0 F1500
X211.06 Y237.575 M03 S255 F110
X215.49 Y235.605 M03 S0 F1500
X212.58 Y236.985 M03 S255 F110
X218.24 Y233.955 M03 S0 F1500
X215.49 Y235.605 M03 S255 F110
X220.79 Y232.055 M03 S0 F1500
X218.24 Y233.955 M03 S255 F110
X223.14 Y229.915 M03 S0 F1500
X220.79 Y232.055 M03 S255 F110
X225.28 Y227.575 M03 S0 F1500
X223.14 Y229.915 M03 S255 F110
X227.18 Y225.035 M03 S0 F1500
X225.28 Y227.575 M03 S255 F110
X228.83 Y222.335 M03 S0 F1500
X227.18 Y225.035 M03 S255 F110
X230.21 Y219.475 M03 S0 F1500
X228.83 Y222.335 M03 S255 F110
X231.33 Y216.475 M03 S0 F1500
X230.21 Y219.475 M03 S255 F110
X231.78 Y214.925 M03 S0 F1500
X231.33 Y216.475 M03 S255 F110
X232.15 Y213.355 M03 S0 F1500
X231.78 Y214.925 M03 S255 F110
X232.45 Y211.755 M03 S0 F1500
X232.15 Y213.355 M03 S255 F110
X232.66 Y210.125 M03 S0 F1500
X232.45 Y211.755 M03 S255 F110
X232.8 Y208.475 M03 S0 F1500
X232.66 Y210.125 M03 S255 F110
X232.85 Y206.815 M03 S0 F1500
X232.8 Y208.475 M03 S255 F110
X232.83 Y205.125 M03 S0 F1500
X232.85 Y206.815 M03 S255 F110
X232.71 Y203.435 M03 S0 F1500
X232.83 Y205.125 M03 S255 F110
X232.51 Y201.755 M03 S0 F1500
X232.71 Y203.435 M03 S255 F110
X232.23 Y200.105 M03 S0 F1500
X232.51 Y201.755 M03 S255 F110
X231.86 Y198.475 M03 S0 F1500
X232.23 Y200.105 M03 S255 F110
X231.43 Y196.885 M03 S0 F1500
X231.86 Y198.475 M03 S255 F110
X230.9 Y195.325 M03 S0 F1500
X231.43 Y196.885 M03 S255 F110
X230.31 Y193.815 M03 S0 F1500
X230.9 Y195.325 M03 S255 F110
X228.93 Y190.905 M03 S0 F1500
X230.31 Y193.815 M03 S255 F110
X227.28 Y188.155 M03 S0 F1500
X228.93 Y190.905 M03 S255 F110
X225.38 Y185.605 M03 S0 F1500
X227.28 Y188.155 M03 S255 F110
X223.24 Y183.255 M03 S0 F1500
X225.38 Y185.605 M03 S255 F110
X220.9 Y181.115 M03 S0 F1500
X223.24 Y183.255 M03 S255 F110
X218.36 Y179.215 M03 S0 F1500
X220.9 Y181.115 M03 S255 F110
X215.66 Y177.565 M03 S0 F1500
X218.36 Y179.215 M03 S255 F110
X212.8 Y176.175 M03 S0 F1500
X215.66 Y177.565 M03 S255 F110
X209.8 Y175.055 M03 S0 F1500
X212.8 Y176.175 M03 S255 F110
X208.25 Y174.615 M03 S0 F1500
X209.8 Y175.055 M03 S255 F110
X206.68 Y174.235 M03 S0 F1500
X208.25 Y174.615 M03 S255 F110
X205.08 Y173.935 M03 S0 F1500
X206.68 Y174.235 M03 S255 F110
X203.45 Y173.725 M03 S0 F1500
X205.08 Y173.935 M03 S255 F110
X201.8 Y173.585 M03 S0 F1500
X203.45 Y173.725 M03 S255 F110
X200.14 Y173.525 M03 S0 F1500
X201.8 Y173.585 M03 S255 F110
X198.45 Y173.555 M03 S0 F1500
X200.14 Y173.525 M03 S255 F110
X196.76 Y173.675 M03 S0 F1500
X198.45 Y173.555 M03 S255 F110
X193.85 Y174.075 M03 S0 F1500
X196.76 Y173.675 M03 S255 F110
X191.01 Y174.735 M03 S0 F1500
X193.85 Y174.075 M03 S255 F110
X188.29 Y175.625 M03 S0 F1500
X191.01 Y174.735 M03 S255 F110
X185.66 Y176.735 M03 S0 F1500
X188.29 Y175.625 M03 S255 F110
X183.18 Y178.065 M03 S0 F1500
X185.66 Y176.735 M03 S255 F110
X180.8 Y179.585 M03 S0 F1500
X183.18 Y178.065 M03 S255 F110
X178.59 Y181.305 M03 S0 F1500
X180.8 Y179.585 M03 S255 F110
X176.53 Y183.205 M03 S0 F1500
X178.59 Y181.305 M03 S255 F110
X174.63 Y185.265 M03 S0 F1500
X176.53 Y183.205 M03 S255 F110
X172.91 Y187.475 M03 S0 F1500
X174.63 Y185.265 M03 S255 F110
X171.39 Y189.855 M03 S0 F1500
X172.91 Y187.475 M03 S255 F110
X170.06 Y192.335 M03 S0 F1500
X171.39 Y189.855 M03 S255 F110
X168.95 Y194.965 M03 S0 F1500
X170.06 Y192.335 M03 S255 F110
X168.06 Y197.685 M03 S0 F1500
X168.95 Y194.965 M03 S255 F110
X167.4 Y200.525 M03 S0 F1500
X168.06 Y197.685 M03 S255 F110
X167 Y203.435 M03 S0 F1500
X167.4 Y200.525 M03 S255 F110
X168.59 Y203.725 M03 S0 F1500
X167.99 Y203.535 M03 S255 F110
X169.11 Y204.025 M03 S0 F1500
X168.59 Y203.725 M03 S255 F110
X169.58 Y204.415 M03 S0 F1500
X169.11 Y204.025 M03 S255 F110
X169.95 Y204.875 M03 S0 F1500
X169.58 Y204.415 M03 S255 F110
X170.23 Y205.405 M03 S0 F1500
X169.95 Y204.875 M03 S255 F110
X170.4 Y205.965 M03 S0 F1500
X170.23 Y205.405 M03 S255 F110
X170.45 Y206.565 M03 S0 F1500
X170.4 Y205.965 M03 S255 F110
X170.39 Y207.185 M03 S0 F1500
X170.45 Y206.565 M03 S255 F110
X170.21 Y207.755 M03 S0 F1500
X170.39 Y207.185 M03 S255 F110
X169.95 Y208.265 M03 S0 F1500
X170.21 Y207.755 M03 S255 F110
X169.6 Y208.705 M03 S0 F1500
X169.95 Y208.265 M03 S255 F110
X169.18 Y209.065 M03 S0 F1500
X169.6 Y208.705 M03 S255 F110
X168.69 Y209.355 M03 S0 F1500
X169.18 Y209.065 M03 S255 F110
X168.16 Y209.555 M03 S0 F1500
X168.69 Y209.355 M03 S255 F110
X167.59 Y209.635 M03 S0 F1500
X168.16 Y209.555 M03 S255 F110
X167 Y209.625 M03 S0 F1500
X167.59 Y209.635 M03 S255 F110
X203.3 Y207.025 M03 S0 F1500
X203.35 Y206.525 M03 S255 F110
X203.15 Y207.505 M03 S0 F1500
X203.3 Y207.025 M03 S255 F110
X202.93 Y207.925 M03 S0 F1500
X203.15 Y207.505 M03 S255 F110
X202.63 Y208.305 M03 S0 F1500
X202.93 Y207.925 M03 S255 F110
X202.25 Y208.605 M03 S0 F1500
X202.63 Y208.305 M03 S255 F110
X201.83 Y208.825 M03 S0 F1500
X202.25 Y208.605 M03 S255 F110
X201.35 Y208.975 M03 S0 F1500
X201.83 Y208.825 M03 S255 F110
X200.85 Y209.025 M03 S0 F1500
X201.35 Y208.975 M03 S255 F110
X200.35 Y208.975 M03 S0 F1500
X200.85 Y209.025 M03 S255 F110
X199.88 Y208.825 M03 S0 F1500
X200.35 Y208.975 M03 S255 F110
X199.45 Y208.605 M03 S0 F1500
X199.88 Y208.825 M03 S255 F110
X199.09 Y208.305 M03 S0 F1500
X199.45 Y208.605 M03 S255 F110
X198.78 Y207.925 M03 S0 F1500
X199.09 Y208.305 M03 S255 F110
X198.55 Y207.505 M03 S0 F1500
X198.78 Y207.925 M03 S255 F110
X198.4 Y207.025 M03 S0 F1500
X198.55 Y207.505 M03 S255 F110
X198.35 Y206.525 M03 S0 F1500
X198.4 Y207.025 M03 S255 F110
X198.4 Y206.025 M03 S0 F1500
X198.35 Y206.525 M03 S255 F110
X198.55 Y205.555 M03 S0 F1500
X198.4 Y206.025 M03 S255 F110
X198.78 Y205.125 M03 S0 F1500
X198.55 Y205.555 M03 S255 F110
X199.09 Y204.765 M03 S0 F1500
X198.78 Y205.125 M03 S255 F110
X199.45 Y204.455 M03 S0 F1500
X199.09 Y204.765 M03 S255 F110
X199.88 Y204.225 M03 S0 F1500
X199.45 Y204.455 M03 S255 F110
X200.35 Y204.075 M03 S0 F1500
X199.88 Y204.225 M03 S255 F110
X200.85 Y204.025 M03 S0 F1500
X200.35 Y204.075 M03 S255 F110
X201.35 Y204.075 M03 S0 F1500
X200.85 Y204.025 M03 S255 F110
X201.83 Y204.225 M03 S0 F1500
X201.35 Y204.075 M03 S255 F110
X202.25 Y204.455 M03 S0 F1500
X201.83 Y204.225 M03 S255 F110
X202.63 Y204.765 M03 S0 F1500
X202.25 Y204.455 M03 S255 F110
X202.93 Y205.125 M03 S0 F1500
X202.63 Y204.765 M03 S255 F110
X203.15 Y205.555 M03 S0 F1500
X202.93 Y205.125 M03 S255 F110
X203.3 Y206.025 M03 S0 F1500
X203.15 Y205.555 M03 S255 F110
X203.35 Y206.525 M03 S0 F1500
X203.3 Y206.025 M03 S255 F110
X203.35 Y206.525 M03 S0 F1500
X203.35 Y206.525 M03 S255 F110
M03 S0
M05
G00 X0 Y0 
