( Generated by T2Laser ) 
( SketchGcode for Grbl )
( Start Point: LL      )
( Frame Mode : Abs.    )
( X Maximum  : 67      )
( Y Maximum  : 67      )
( Laser Max  : 255     )
( Vector Rate: 1500    )
( Rapid Feed : 1500    )
G21
G90
F1500
M05
G01 X66.5 Y33.25 F1500
M03 S0
X66.325 Y36.65 M03 S255 F1500
X65.825 Y39.95 M03 S255 F1500
X65.025 Y43.125 M03 S255 F1500
X63.9 Y46.175 M03 S255 F1500
X62.525 Y49.1 M03 S255 F1500
X60.875 Y51.825 M03 S255 F1500
X58.975 Y54.4 M03 S255 F1500
X56.825 Y56.75 M03 S255 F1500
X54.5 Y58.9 M03 S255 F1500
X51.95 Y60.825 M03 S255 F1500
X49.225 Y62.475 M03 S255 F1500
X46.35 Y63.875 M03 S255 F1500
X43.325 Y65 M03 S255 F1500
X40.15 Y65.825 M03 S255 F1500
X36.875 Y66.325 M03 S255 F1500
X33.5 Y66.5 M03 S255 F1500
X30.125 Y66.325 M03 S255 F1500
X26.85 Y65.825 M03 S255 F1500
X23.675 Y65 M03 S255 F1500
X20.65 Y63.875 M03 S255 F1500
X17.775 Y62.475 M03 S255 F1500
X15.05 Y60.825 M03 S255 F1500
X12.5 Y58.9 M03 S255 F1500
X10.175 Y56.75 M03 S255 F1500
X8.025 Y54.4 M03 S255 F1500
X6.125 Y51.825 M03 S255 F1500
X4.475 Y49.1 M03 S255 F1500
X3.1 Y46.175 M03 S255 F1500
X1.975 Y43.125 M03 S255 F1500
X1.175 Y39.95 M03 S255 F1500
X0.675 Y36.65 M03 S255 F1500
X0.5 Y33.25 M03 S255 F1500
X0.675 Y29.85 M03 S255 F1500
X1.175 Y26.55 M03 S255 F1500
X1.975 Y23.35 M03 S255 F1500
X3.1 Y20.3 M03 S255 F1500
X4.475 Y17.4 M03 S255 F1500
X6.125 Y14.65 M03 S255 F1500
X8.025 Y12.1 M03 S255 F1500
X10.175 Y9.725 M03 S255 F1500
X12.5 Y7.6 M03 S255 F1500
X15.05 Y5.675 M03 S255 F1500
X17.775 Y4 M03 S255 F1500
X20.65 Y2.6 M03 S255 F1500
X23.675 Y1.5 M03 S255 F1500
X26.85 Y0.675 M03 S255 F1500
X30.125 Y0.175 M03 S255 F1500
X33.5 Y0 M03 S255 F1500
X36.875 Y0.175 M03 S255 F1500
X40.15 Y0.675 M03 S255 F1500
X43.325 Y1.5 M03 S255 F1500
X46.35 Y2.6 M03 S255 F1500
X49.225 Y4 M03 S255 F1500
X51.95 Y5.675 M03 S255 F1500
X54.5 Y7.6 M03 S255 F1500
X56.825 Y9.725 M03 S255 F1500
X58.975 Y12.1 M03 S255 F1500
X60.875 Y14.65 M03 S255 F1500
X62.525 Y17.4 M03 S255 F1500
X63.9 Y20.3 M03 S255 F1500
X65.025 Y23.35 M03 S255 F1500
X65.825 Y26.55 M03 S255 F1500
X66.325 Y29.85 M03 S255 F1500
X66.5 Y33.25 M03 S255 F1500
X6 Y33.5 M03 S0 F1500
X5.8 Y34.475 M03 S255 F1500
X5.275 Y35.275 M03 S255 F1500
X4.475 Y35.8 M03 S255 F1500
X3.5 Y36 M03 S255 F1500
X2.525 Y35.8 M03 S255 F1500
X1.725 Y35.275 M03 S255 F1500
X1.2 Y34.475 M03 S255 F1500
X1 Y33.5 M03 S255 F1500
X1.2 Y32.525 M03 S255 F1500
X1.725 Y31.725 M03 S255 F1500
X2.525 Y31.2 M03 S255 F1500
X3.5 Y31 M03 S255 F1500
X4.475 Y31.2 M03 S255 F1500
X5.275 Y31.725 M03 S255 F1500
X5.8 Y32.525 M03 S255 F1500
X6 Y33.5 M03 S255 F1500
X36 Y33.625 M03 S0 F1500
X35.8 Y34.55 M03 S255 F1500
X35.275 Y35.3 M03 S255 F1500
X34.475 Y35.8 M03 S255 F1500
X33.5 Y36 M03 S255 F1500
X32.525 Y35.8 M03 S255 F1500
X31.725 Y35.3 M03 S255 F1500
X31.2 Y34.55 M03 S255 F1500
X31 Y33.625 M03 S255 F1500
X31.2 Y32.7 M03 S255 F1500
X31.725 Y31.95 M03 S255 F1500
X32.525 Y31.425 M03 S255 F1500
X33.5 Y31.25 M03 S255 F1500
X34.475 Y31.425 M03 S255 F1500
X35.275 Y31.95 M03 S255 F1500
X35.8 Y32.7 M03 S255 F1500
X36 Y33.625 M03 S255 F1500
M03 S0
M05
G01 X133 Y33.25 M03 S0 F1500
M03 S0
X133 Y33.25 M03 S0 F1500
X132.825 Y36.65 M03 S255 F1500
X132.325 Y39.95 M03 S255 F1500
X131.525 Y43.125 M03 S255 F1500
X130.4 Y46.175 M03 S255 F1500
X129.025 Y49.1 M03 S255 F1500
X127.375 Y51.825 M03 S255 F1500
X125.475 Y54.4 M03 S255 F1500
X123.325 Y56.75 M03 S255 F1500
X121 Y58.9 M03 S255 F1500
X118.45 Y60.825 M03 S255 F1500
X115.725 Y62.475 M03 S255 F1500
X112.85 Y63.875 M03 S255 F1500
X109.825 Y65 M03 S255 F1500
X106.65 Y65.825 M03 S255 F1500
X103.375 Y66.325 M03 S255 F1500
X100 Y66.5 M03 S255 F1500
X96.625 Y66.325 M03 S255 F1500
X93.35 Y65.825 M03 S255 F1500
X90.175 Y65 M03 S255 F1500
X87.15 Y63.875 M03 S255 F1500
X84.275 Y62.475 M03 S255 F1500
X81.55 Y60.825 M03 S255 F1500
X79 Y58.9 M03 S255 F1500
X76.675 Y56.75 M03 S255 F1500
X74.525 Y54.4 M03 S255 F1500
X72.625 Y51.825 M03 S255 F1500
X70.975 Y49.1 M03 S255 F1500
X69.6 Y46.175 M03 S255 F1500
X68.475 Y43.125 M03 S255 F1500
X67.675 Y39.95 M03 S255 F1500
X67.175 Y36.65 M03 S255 F1500
X67 Y33.25 M03 S255 F1500
X67.175 Y29.85 M03 S255 F1500
X67.675 Y26.55 M03 S255 F1500
X68.475 Y23.35 M03 S255 F1500
X69.6 Y20.3 M03 S255 F1500
X70.975 Y17.4 M03 S255 F1500
X72.625 Y14.65 M03 S255 F1500
X74.525 Y12.1 M03 S255 F1500
X76.675 Y9.725 M03 S255 F1500
X79 Y7.6 M03 S255 F1500
X81.55 Y5.675 M03 S255 F1500
X84.275 Y4 M03 S255 F1500
X87.15 Y2.6 M03 S255 F1500
X90.175 Y1.5 M03 S255 F1500
X93.35 Y0.675 M03 S255 F1500
X96.625 Y0.175 M03 S255 F1500
X100 Y0 M03 S255 F1500
X103.375 Y0.175 M03 S255 F1500
X106.65 Y0.675 M03 S255 F1500
X109.825 Y1.5 M03 S255 F1500
X112.85 Y2.6 M03 S255 F1500
X115.725 Y4 M03 S255 F1500
X118.45 Y5.675 M03 S255 F1500
X121 Y7.6 M03 S255 F1500
X123.325 Y9.725 M03 S255 F1500
X125.475 Y12.1 M03 S255 F1500
X127.375 Y14.65 M03 S255 F1500
X129.025 Y17.4 M03 S255 F1500
X130.4 Y20.3 M03 S255 F1500
X131.525 Y23.35 M03 S255 F1500
X132.325 Y26.55 M03 S255 F1500
X132.825 Y29.85 M03 S255 F1500
X133 Y33.25 M03 S255 F1500
X72.5 Y33.5 M03 S0 F1500
X72.3 Y34.475 M03 S255 F1500
X71.775 Y35.275 M03 S255 F1500
X70.975 Y35.8 M03 S255 F1500
X70 Y36 M03 S255 F1500
X69.025 Y35.8 M03 S255 F1500
X68.225 Y35.275 M03 S255 F1500
X67.7 Y34.475 M03 S255 F1500
X67.5 Y33.5 M03 S255 F1500
X67.7 Y32.525 M03 S255 F1500
X68.225 Y31.725 M03 S255 F1500
X69.025 Y31.2 M03 S255 F1500
X70 Y31 M03 S255 F1500
X70.975 Y31.2 M03 S255 F1500
X71.775 Y31.725 M03 S255 F1500
X72.3 Y32.525 M03 S255 F1500
X72.5 Y33.5 M03 S255 F1500
X102.5 Y33.625 M03 S0 F1500
X102.3 Y34.55 M03 S255 F1500
X101.775 Y35.3 M03 S255 F1500
X100.975 Y35.8 M03 S255 F1500
X100 Y36 M03 S255 F1500
X99.025 Y35.8 M03 S255 F1500
X98.225 Y35.3 M03 S255 F1500
X97.7 Y34.55 M03 S255 F1500
X97.5 Y33.625 M03 S255 F1500
X97.7 Y32.7 M03 S255 F1500
X98.225 Y31.95 M03 S255 F1500
X99.025 Y31.425 M03 S255 F1500
X100 Y31.25 M03 S255 F1500
X100.975 Y31.425 M03 S255 F1500
X101.775 Y31.95 M03 S255 F1500
X102.3 Y32.7 M03 S255 F1500
X102.5 Y33.625 M03 S255 F1500
M03 S0
M05
G01 X199.5 Y33.25 M03 S0 F1500
M03 S0
X199.5 Y33.25 M03 S0 F1500
X199.325 Y36.65 M03 S255 F1500
X198.825 Y39.95 M03 S255 F1500
X198.025 Y43.125 M03 S255 F1500
X196.9 Y46.175 M03 S255 F1500
X195.525 Y49.1 M03 S255 F1500
X193.875 Y51.825 M03 S255 F1500
X191.975 Y54.4 M03 S255 F1500
X189.825 Y56.75 M03 S255 F1500
X187.5 Y58.9 M03 S255 F1500
X184.95 Y60.825 M03 S255 F1500
X182.225 Y62.475 M03 S255 F1500
X179.35 Y63.875 M03 S255 F1500
X176.325 Y65 M03 S255 F1500
X173.15 Y65.825 M03 S255 F1500
X169.875 Y66.325 M03 S255 F1500
X166.5 Y66.5 M03 S255 F1500
X163.125 Y66.325 M03 S255 F1500
X159.85 Y65.825 M03 S255 F1500
X156.675 Y65 M03 S255 F1500
X153.65 Y63.875 M03 S255 F1500
X150.775 Y62.475 M03 S255 F1500
X148.05 Y60.825 M03 S255 F1500
X145.5 Y58.9 M03 S255 F1500
X143.175 Y56.75 M03 S255 F1500
X141.025 Y54.4 M03 S255 F1500
X139.125 Y51.825 M03 S255 F1500
X137.475 Y49.1 M03 S255 F1500
X136.1 Y46.175 M03 S255 F1500
X134.975 Y43.125 M03 S255 F1500
X134.175 Y39.95 M03 S255 F1500
X133.675 Y36.65 M03 S255 F1500
X133.5 Y33.25 M03 S255 F1500
X133.675 Y29.85 M03 S255 F1500
X134.175 Y26.55 M03 S255 F1500
X134.975 Y23.35 M03 S255 F1500
X136.1 Y20.3 M03 S255 F1500
X137.475 Y17.4 M03 S255 F1500
X139.125 Y14.65 M03 S255 F1500
X141.025 Y12.1 M03 S255 F1500
X143.175 Y9.725 M03 S255 F1500
X145.5 Y7.6 M03 S255 F1500
X148.05 Y5.675 M03 S255 F1500
X150.775 Y4 M03 S255 F1500
X153.65 Y2.6 M03 S255 F1500
X156.675 Y1.5 M03 S255 F1500
X159.85 Y0.675 M03 S255 F1500
X163.125 Y0.175 M03 S255 F1500
X166.5 Y0 M03 S255 F1500
X169.875 Y0.175 M03 S255 F1500
X173.15 Y0.675 M03 S255 F1500
X176.325 Y1.5 M03 S255 F1500
X179.35 Y2.6 M03 S255 F1500
X182.225 Y4 M03 S255 F1500
X184.95 Y5.675 M03 S255 F1500
X187.5 Y7.6 M03 S255 F1500
X189.825 Y9.725 M03 S255 F1500
X191.975 Y12.1 M03 S255 F1500
X193.875 Y14.65 M03 S255 F1500
X195.525 Y17.4 M03 S255 F1500
X196.9 Y20.3 M03 S255 F1500
X198.025 Y23.35 M03 S255 F1500
X198.825 Y26.55 M03 S255 F1500
X199.325 Y29.85 M03 S255 F1500
X199.5 Y33.25 M03 S255 F1500
X139 Y33.5 M03 S0 F1500
X138.8 Y34.475 M03 S255 F1500
X138.275 Y35.275 M03 S255 F1500
X137.475 Y35.8 M03 S255 F1500
X136.5 Y36 M03 S255 F1500
X135.525 Y35.8 M03 S255 F1500
X134.725 Y35.275 M03 S255 F1500
X134.2 Y34.475 M03 S255 F1500
X134 Y33.5 M03 S255 F1500
X134.2 Y32.525 M03 S255 F1500
X134.725 Y31.725 M03 S255 F1500
X135.525 Y31.2 M03 S255 F1500
X136.5 Y31 M03 S255 F1500
X137.475 Y31.2 M03 S255 F1500
X138.275 Y31.725 M03 S255 F1500
X138.8 Y32.525 M03 S255 F1500
X139 Y33.5 M03 S255 F1500
X169 Y33.625 M03 S0 F1500
X168.8 Y34.55 M03 S255 F1500
X168.275 Y35.3 M03 S255 F1500
X167.475 Y35.8 M03 S255 F1500
X166.5 Y36 M03 S255 F1500
X165.525 Y35.8 M03 S255 F1500
X164.725 Y35.3 M03 S255 F1500
X164.2 Y34.55 M03 S255 F1500
X164 Y33.625 M03 S255 F1500
X164.2 Y32.7 M03 S255 F1500
X164.725 Y31.95 M03 S255 F1500
X165.525 Y31.425 M03 S255 F1500
X166.5 Y31.25 M03 S255 F1500
X167.475 Y31.425 M03 S255 F1500
X168.275 Y31.95 M03 S255 F1500
X168.8 Y32.7 M03 S255 F1500
X169 Y33.625 M03 S255 F1500
M03 S0
M05
G01 X266 Y33.25 M03 S0 F1500
M03 S0
X266 Y33.25 M03 S0 F1500
X265.825 Y36.65 M03 S255 F1500
X265.325 Y39.95 M03 S255 F1500
X264.525 Y43.125 M03 S255 F1500
X263.4 Y46.175 M03 S255 F1500
X262.025 Y49.1 M03 S255 F1500
X260.375 Y51.825 M03 S255 F1500
X258.475 Y54.4 M03 S255 F1500
X256.325 Y56.75 M03 S255 F1500
X254 Y58.9 M03 S255 F1500
X251.45 Y60.825 M03 S255 F1500
X248.725 Y62.475 M03 S255 F1500
X245.85 Y63.875 M03 S255 F1500
X242.825 Y65 M03 S255 F1500
X239.65 Y65.825 M03 S255 F1500
X236.375 Y66.325 M03 S255 F1500
X233 Y66.5 M03 S255 F1500
X229.625 Y66.325 M03 S255 F1500
X226.35 Y65.825 M03 S255 F1500
X223.175 Y65 M03 S255 F1500
X220.15 Y63.875 M03 S255 F1500
X217.275 Y62.475 M03 S255 F1500
X214.55 Y60.825 M03 S255 F1500
X212 Y58.9 M03 S255 F1500
X209.675 Y56.75 M03 S255 F1500
X207.525 Y54.4 M03 S255 F1500
X205.625 Y51.825 M03 S255 F1500
X203.975 Y49.1 M03 S255 F1500
X202.6 Y46.175 M03 S255 F1500
X201.475 Y43.125 M03 S255 F1500
X200.675 Y39.95 M03 S255 F1500
X200.175 Y36.65 M03 S255 F1500
X200 Y33.25 M03 S255 F1500
X200.175 Y29.85 M03 S255 F1500
X200.675 Y26.55 M03 S255 F1500
X201.475 Y23.35 M03 S255 F1500
X202.6 Y20.3 M03 S255 F1500
X203.975 Y17.4 M03 S255 F1500
X205.625 Y14.65 M03 S255 F1500
X207.525 Y12.1 M03 S255 F1500
X209.675 Y9.725 M03 S255 F1500
X212 Y7.6 M03 S255 F1500
X214.55 Y5.675 M03 S255 F1500
X217.275 Y4 M03 S255 F1500
X220.15 Y2.6 M03 S255 F1500
X223.175 Y1.5 M03 S255 F1500
X226.35 Y0.675 M03 S255 F1500
X229.625 Y0.175 M03 S255 F1500
X233 Y0 M03 S255 F1500
X236.375 Y0.175 M03 S255 F1500
X239.65 Y0.675 M03 S255 F1500
X242.825 Y1.5 M03 S255 F1500
X245.85 Y2.6 M03 S255 F1500
X248.725 Y4 M03 S255 F1500
X251.45 Y5.675 M03 S255 F1500
X254 Y7.6 M03 S255 F1500
X256.325 Y9.725 M03 S255 F1500
X258.475 Y12.1 M03 S255 F1500
X260.375 Y14.65 M03 S255 F1500
X262.025 Y17.4 M03 S255 F1500
X263.4 Y20.3 M03 S255 F1500
X264.525 Y23.35 M03 S255 F1500
X265.325 Y26.55 M03 S255 F1500
X265.825 Y29.85 M03 S255 F1500
X266 Y33.25 M03 S255 F1500
X205.5 Y33.5 M03 S0 F1500
X205.3 Y34.475 M03 S255 F1500
X204.775 Y35.275 M03 S255 F1500
X203.975 Y35.8 M03 S255 F1500
X203 Y36 M03 S255 F1500
X202.025 Y35.8 M03 S255 F1500
X201.225 Y35.275 M03 S255 F1500
X200.7 Y34.475 M03 S255 F1500
X200.5 Y33.5 M03 S255 F1500
X200.7 Y32.525 M03 S255 F1500
X201.225 Y31.725 M03 S255 F1500
X202.025 Y31.2 M03 S255 F1500
X203 Y31 M03 S255 F1500
X203.975 Y31.2 M03 S255 F1500
X204.775 Y31.725 M03 S255 F1500
X205.3 Y32.525 M03 S255 F1500
X205.5 Y33.5 M03 S255 F1500
X235.5 Y33.625 M03 S0 F1500
X235.3 Y34.55 M03 S255 F1500
X234.775 Y35.3 M03 S255 F1500
X233.975 Y35.8 M03 S255 F1500
X233 Y36 M03 S255 F1500
X232.025 Y35.8 M03 S255 F1500
X231.225 Y35.3 M03 S255 F1500
X230.7 Y34.55 M03 S255 F1500
X230.5 Y33.625 M03 S255 F1500
X230.7 Y32.7 M03 S255 F1500
X231.225 Y31.95 M03 S255 F1500
X232.025 Y31.425 M03 S255 F1500
X233 Y31.25 M03 S255 F1500
X233.975 Y31.425 M03 S255 F1500
X234.775 Y31.95 M03 S255 F1500
X235.3 Y32.7 M03 S255 F1500
X235.5 Y33.625 M03 S255 F1500
M03 S0
M05
G01 X332.5 Y33.25 M03 S0 F1500
M03 S0
X332.5 Y33.25 M03 S0 F1500
X332.325 Y36.65 M03 S255 F1500
X331.825 Y39.95 M03 S255 F1500
X331.025 Y43.125 M03 S255 F1500
X329.9 Y46.175 M03 S255 F1500
X328.525 Y49.1 M03 S255 F1500
X326.875 Y51.825 M03 S255 F1500
X324.975 Y54.4 M03 S255 F1500
X322.825 Y56.75 M03 S255 F1500
X320.5 Y58.9 M03 S255 F1500
X317.95 Y60.825 M03 S255 F1500
X315.225 Y62.475 M03 S255 F1500
X312.35 Y63.875 M03 S255 F1500
X309.325 Y65 M03 S255 F1500
X306.15 Y65.825 M03 S255 F1500
X302.875 Y66.325 M03 S255 F1500
X299.5 Y66.5 M03 S255 F1500
X296.125 Y66.325 M03 S255 F1500
X292.85 Y65.825 M03 S255 F1500
X289.675 Y65 M03 S255 F1500
X286.65 Y63.875 M03 S255 F1500
X283.775 Y62.475 M03 S255 F1500
X281.05 Y60.825 M03 S255 F1500
X278.5 Y58.9 M03 S255 F1500
X276.175 Y56.75 M03 S255 F1500
X274.025 Y54.4 M03 S255 F1500
X272.125 Y51.825 M03 S255 F1500
X270.475 Y49.1 M03 S255 F1500
X269.1 Y46.175 M03 S255 F1500
X267.975 Y43.125 M03 S255 F1500
X267.175 Y39.95 M03 S255 F1500
X266.675 Y36.65 M03 S255 F1500
X266.5 Y33.25 M03 S255 F1500
X266.675 Y29.85 M03 S255 F1500
X267.175 Y26.55 M03 S255 F1500
X267.975 Y23.35 M03 S255 F1500
X269.1 Y20.3 M03 S255 F1500
X270.475 Y17.4 M03 S255 F1500
X272.125 Y14.65 M03 S255 F1500
X274.025 Y12.1 M03 S255 F1500
X276.175 Y9.725 M03 S255 F1500
X278.5 Y7.6 M03 S255 F1500
X281.05 Y5.675 M03 S255 F1500
X283.775 Y4 M03 S255 F1500
X286.65 Y2.6 M03 S255 F1500
X289.675 Y1.5 M03 S255 F1500
X292.85 Y0.675 M03 S255 F1500
X296.125 Y0.175 M03 S255 F1500
X299.5 Y0 M03 S255 F1500
X302.875 Y0.175 M03 S255 F1500
X306.15 Y0.675 M03 S255 F1500
X309.325 Y1.5 M03 S255 F1500
X312.35 Y2.6 M03 S255 F1500
X315.225 Y4 M03 S255 F1500
X317.95 Y5.675 M03 S255 F1500
X320.5 Y7.6 M03 S255 F1500
X322.825 Y9.725 M03 S255 F1500
X324.975 Y12.1 M03 S255 F1500
X326.875 Y14.65 M03 S255 F1500
X328.525 Y17.4 M03 S255 F1500
X329.9 Y20.3 M03 S255 F1500
X331.025 Y23.35 M03 S255 F1500
X331.825 Y26.55 M03 S255 F1500
X332.325 Y29.85 M03 S255 F1500
X332.5 Y33.25 M03 S255 F1500
X272 Y33.5 M03 S0 F1500
X271.8 Y34.475 M03 S255 F1500
X271.275 Y35.275 M03 S255 F1500
X270.475 Y35.8 M03 S255 F1500
X269.5 Y36 M03 S255 F1500
X268.525 Y35.8 M03 S255 F1500
X267.725 Y35.275 M03 S255 F1500
X267.2 Y34.475 M03 S255 F1500
X267 Y33.5 M03 S255 F1500
X267.2 Y32.525 M03 S255 F1500
X267.725 Y31.725 M03 S255 F1500
X268.525 Y31.2 M03 S255 F1500
X269.5 Y31 M03 S255 F1500
X270.475 Y31.2 M03 S255 F1500
X271.275 Y31.725 M03 S255 F1500
X271.8 Y32.525 M03 S255 F1500
X272 Y33.5 M03 S255 F1500
X302 Y33.625 M03 S0 F1500
X301.8 Y34.55 M03 S255 F1500
X301.275 Y35.3 M03 S255 F1500
X300.475 Y35.8 M03 S255 F1500
X299.5 Y36 M03 S255 F1500
X298.525 Y35.8 M03 S255 F1500
X297.725 Y35.3 M03 S255 F1500
X297.2 Y34.55 M03 S255 F1500
X297 Y33.625 M03 S255 F1500
X297.2 Y32.7 M03 S255 F1500
X297.725 Y31.95 M03 S255 F1500
X298.525 Y31.425 M03 S255 F1500
X299.5 Y31.25 M03 S255 F1500
X300.475 Y31.425 M03 S255 F1500
X301.275 Y31.95 M03 S255 F1500
X301.8 Y32.7 M03 S255 F1500
X302 Y33.625 M03 S255 F1500
M03 S0
M05
G01 X332.5 Y99.75 M03 S0 F1500
M03 S0
X332.5 Y99.75 M03 S0 F1500
X332.325 Y103.15 M03 S255 F1500
X331.825 Y106.45 M03 S255 F1500
X331.025 Y109.625 M03 S255 F1500
X329.9 Y112.675 M03 S255 F1500
X328.525 Y115.6 M03 S255 F1500
X326.875 Y118.325 M03 S255 F1500
X324.975 Y120.9 M03 S255 F1500
X322.825 Y123.25 M03 S255 F1500
X320.5 Y125.4 M03 S255 F1500
X317.95 Y127.325 M03 S255 F1500
X315.225 Y128.975 M03 S255 F1500
X312.35 Y130.375 M03 S255 F1500
X309.325 Y131.5 M03 S255 F1500
X306.15 Y132.325 M03 S255 F1500
X302.875 Y132.825 M03 S255 F1500
X299.5 Y133 M03 S255 F1500
X296.125 Y132.825 M03 S255 F1500
X292.85 Y132.325 M03 S255 F1500
X289.675 Y131.5 M03 S255 F1500
X286.65 Y130.375 M03 S255 F1500
X283.775 Y128.975 M03 S255 F1500
X281.05 Y127.325 M03 S255 F1500
X278.5 Y125.4 M03 S255 F1500
X276.175 Y123.25 M03 S255 F1500
X274.025 Y120.9 M03 S255 F1500
X272.125 Y118.325 M03 S255 F1500
X270.475 Y115.6 M03 S255 F1500
X269.1 Y112.675 M03 S255 F1500
X267.975 Y109.625 M03 S255 F1500
X267.175 Y106.45 M03 S255 F1500
X266.675 Y103.15 M03 S255 F1500
X266.5 Y99.75 M03 S255 F1500
X266.675 Y96.35 M03 S255 F1500
X267.175 Y93.05 M03 S255 F1500
X267.975 Y89.85 M03 S255 F1500
X269.1 Y86.8 M03 S255 F1500
X270.475 Y83.9 M03 S255 F1500
X272.125 Y81.15 M03 S255 F1500
X274.025 Y78.6 M03 S255 F1500
X276.175 Y76.225 M03 S255 F1500
X278.5 Y74.1 M03 S255 F1500
X281.05 Y72.175 M03 S255 F1500
X283.775 Y70.5 M03 S255 F1500
X286.65 Y69.1 M03 S255 F1500
X289.675 Y68 M03 S255 F1500
X292.85 Y67.175 M03 S255 F1500
X296.125 Y66.675 M03 S255 F1500
X299.5 Y66.5 M03 S255 F1500
X302.875 Y66.675 M03 S255 F1500
X306.15 Y67.175 M03 S255 F1500
X309.325 Y68 M03 S255 F1500
X312.35 Y69.1 M03 S255 F1500
X315.225 Y70.5 M03 S255 F1500
X317.95 Y72.175 M03 S255 F1500
X320.5 Y74.1 M03 S255 F1500
X322.825 Y76.225 M03 S255 F1500
X324.975 Y78.6 M03 S255 F1500
X326.875 Y81.15 M03 S255 F1500
X328.525 Y83.9 M03 S255 F1500
X329.9 Y86.8 M03 S255 F1500
X331.025 Y89.85 M03 S255 F1500
X331.825 Y93.05 M03 S255 F1500
X332.325 Y96.35 M03 S255 F1500
X332.5 Y99.75 M03 S255 F1500
X272 Y100 M03 S0 F1500
X271.8 Y100.975 M03 S255 F1500
X271.275 Y101.775 M03 S255 F1500
X270.475 Y102.3 M03 S255 F1500
X269.5 Y102.5 M03 S255 F1500
X268.525 Y102.3 M03 S255 F1500
X267.725 Y101.775 M03 S255 F1500
X267.2 Y100.975 M03 S255 F1500
X267 Y100 M03 S255 F1500
X267.2 Y99.025 M03 S255 F1500
X267.725 Y98.225 M03 S255 F1500
X268.525 Y97.7 M03 S255 F1500
X269.5 Y97.5 M03 S255 F1500
X270.475 Y97.7 M03 S255 F1500
X271.275 Y98.225 M03 S255 F1500
X271.8 Y99.025 M03 S255 F1500
X272 Y100 M03 S255 F1500
X302 Y100.125 M03 S0 F1500
X301.8 Y101.05 M03 S255 F1500
X301.275 Y101.8 M03 S255 F1500
X300.475 Y102.3 M03 S255 F1500
X299.5 Y102.5 M03 S255 F1500
X298.525 Y102.3 M03 S255 F1500
X297.725 Y101.8 M03 S255 F1500
X297.2 Y101.05 M03 S255 F1500
X297 Y100.125 M03 S255 F1500
X297.2 Y99.2 M03 S255 F1500
X297.725 Y98.45 M03 S255 F1500
X298.525 Y97.925 M03 S255 F1500
X299.5 Y97.75 M03 S255 F1500
X300.475 Y97.925 M03 S255 F1500
X301.275 Y98.45 M03 S255 F1500
X301.8 Y99.2 M03 S255 F1500
X302 Y100.125 M03 S255 F1500
M03 S0
M05
G01 X266 Y99.75 M03 S0 F1500
M03 S0
X266 Y99.75 M03 S0 F1500
X265.825 Y103.15 M03 S255 F1500
X265.325 Y106.45 M03 S255 F1500
X264.525 Y109.625 M03 S255 F1500
X263.4 Y112.675 M03 S255 F1500
X262.025 Y115.6 M03 S255 F1500
X260.375 Y118.325 M03 S255 F1500
X258.475 Y120.9 M03 S255 F1500
X256.325 Y123.25 M03 S255 F1500
X254 Y125.4 M03 S255 F1500
X251.45 Y127.325 M03 S255 F1500
X248.725 Y128.975 M03 S255 F1500
X245.85 Y130.375 M03 S255 F1500
X242.825 Y131.5 M03 S255 F1500
X239.65 Y132.325 M03 S255 F1500
X236.375 Y132.825 M03 S255 F1500
X233 Y133 M03 S255 F1500
X229.625 Y132.825 M03 S255 F1500
X226.35 Y132.325 M03 S255 F1500
X223.175 Y131.5 M03 S255 F1500
X220.15 Y130.375 M03 S255 F1500
X217.275 Y128.975 M03 S255 F1500
X214.55 Y127.325 M03 S255 F1500
X212 Y125.4 M03 S255 F1500
X209.675 Y123.25 M03 S255 F1500
X207.525 Y120.9 M03 S255 F1500
X205.625 Y118.325 M03 S255 F1500
X203.975 Y115.6 M03 S255 F1500
X202.6 Y112.675 M03 S255 F1500
X201.475 Y109.625 M03 S255 F1500
X200.675 Y106.45 M03 S255 F1500
X200.175 Y103.15 M03 S255 F1500
X200 Y99.75 M03 S255 F1500
X200.175 Y96.35 M03 S255 F1500
X200.675 Y93.05 M03 S255 F1500
X201.475 Y89.85 M03 S255 F1500
X202.6 Y86.8 M03 S255 F1500
X203.975 Y83.9 M03 S255 F1500
X205.625 Y81.15 M03 S255 F1500
X207.525 Y78.6 M03 S255 F1500
X209.675 Y76.225 M03 S255 F1500
X212 Y74.1 M03 S255 F1500
X214.55 Y72.175 M03 S255 F1500
X217.275 Y70.5 M03 S255 F1500
X220.15 Y69.1 M03 S255 F1500
X223.175 Y68 M03 S255 F1500
X226.35 Y67.175 M03 S255 F1500
X229.625 Y66.675 M03 S255 F1500
X233 Y66.5 M03 S255 F1500
X236.375 Y66.675 M03 S255 F1500
X239.65 Y67.175 M03 S255 F1500
X242.825 Y68 M03 S255 F1500
X245.85 Y69.1 M03 S255 F1500
X248.725 Y70.5 M03 S255 F1500
X251.45 Y72.175 M03 S255 F1500
X254 Y74.1 M03 S255 F1500
X256.325 Y76.225 M03 S255 F1500
X258.475 Y78.6 M03 S255 F1500
X260.375 Y81.15 M03 S255 F1500
X262.025 Y83.9 M03 S255 F1500
X263.4 Y86.8 M03 S255 F1500
X264.525 Y89.85 M03 S255 F1500
X265.325 Y93.05 M03 S255 F1500
X265.825 Y96.35 M03 S255 F1500
X266 Y99.75 M03 S255 F1500
X205.5 Y100 M03 S0 F1500
X205.3 Y100.975 M03 S255 F1500
X204.775 Y101.775 M03 S255 F1500
X203.975 Y102.3 M03 S255 F1500
X203 Y102.5 M03 S255 F1500
X202.025 Y102.3 M03 S255 F1500
X201.225 Y101.775 M03 S255 F1500
X200.7 Y100.975 M03 S255 F1500
X200.5 Y100 M03 S255 F1500
X200.7 Y99.025 M03 S255 F1500
X201.225 Y98.225 M03 S255 F1500
X202.025 Y97.7 M03 S255 F1500
X203 Y97.5 M03 S255 F1500
X203.975 Y97.7 M03 S255 F1500
X204.775 Y98.225 M03 S255 F1500
X205.3 Y99.025 M03 S255 F1500
X205.5 Y100 M03 S255 F1500
X235.5 Y100.125 M03 S0 F1500
X235.3 Y101.05 M03 S255 F1500
X234.775 Y101.8 M03 S255 F1500
X233.975 Y102.3 M03 S255 F1500
X233 Y102.5 M03 S255 F1500
X232.025 Y102.3 M03 S255 F1500
X231.225 Y101.8 M03 S255 F1500
X230.7 Y101.05 M03 S255 F1500
X230.5 Y100.125 M03 S255 F1500
X230.7 Y99.2 M03 S255 F1500
X231.225 Y98.45 M03 S255 F1500
X232.025 Y97.925 M03 S255 F1500
X233 Y97.75 M03 S255 F1500
X233.975 Y97.925 M03 S255 F1500
X234.775 Y98.45 M03 S255 F1500
X235.3 Y99.2 M03 S255 F1500
X235.5 Y100.125 M03 S255 F1500
M03 S0
M05
G01 X199.5 Y99.75 M03 S0 F1500
M03 S0
X199.5 Y99.75 M03 S0 F1500
X199.325 Y103.15 M03 S255 F1500
X198.825 Y106.45 M03 S255 F1500
X198.025 Y109.625 M03 S255 F1500
X196.9 Y112.675 M03 S255 F1500
X195.525 Y115.6 M03 S255 F1500
X193.875 Y118.325 M03 S255 F1500
X191.975 Y120.9 M03 S255 F1500
X189.825 Y123.25 M03 S255 F1500
X187.5 Y125.4 M03 S255 F1500
X184.95 Y127.325 M03 S255 F1500
X182.225 Y128.975 M03 S255 F1500
X179.35 Y130.375 M03 S255 F1500
X176.325 Y131.5 M03 S255 F1500
X173.15 Y132.325 M03 S255 F1500
X169.875 Y132.825 M03 S255 F1500
X166.5 Y133 M03 S255 F1500
X163.125 Y132.825 M03 S255 F1500
X159.85 Y132.325 M03 S255 F1500
X156.675 Y131.5 M03 S255 F1500
X153.65 Y130.375 M03 S255 F1500
X150.775 Y128.975 M03 S255 F1500
X148.05 Y127.325 M03 S255 F1500
X145.5 Y125.4 M03 S255 F1500
X143.175 Y123.25 M03 S255 F1500
X141.025 Y120.9 M03 S255 F1500
X139.125 Y118.325 M03 S255 F1500
X137.475 Y115.6 M03 S255 F1500
X136.1 Y112.675 M03 S255 F1500
X134.975 Y109.625 M03 S255 F1500
X134.175 Y106.45 M03 S255 F1500
X133.675 Y103.15 M03 S255 F1500
X133.5 Y99.75 M03 S255 F1500
X133.675 Y96.35 M03 S255 F1500
X134.175 Y93.05 M03 S255 F1500
X134.975 Y89.85 M03 S255 F1500
X136.1 Y86.8 M03 S255 F1500
X137.475 Y83.9 M03 S255 F1500
X139.125 Y81.15 M03 S255 F1500
X141.025 Y78.6 M03 S255 F1500
X143.175 Y76.225 M03 S255 F1500
X145.5 Y74.1 M03 S255 F1500
X148.05 Y72.175 M03 S255 F1500
X150.775 Y70.5 M03 S255 F1500
X153.65 Y69.1 M03 S255 F1500
X156.675 Y68 M03 S255 F1500
X159.85 Y67.175 M03 S255 F1500
X163.125 Y66.675 M03 S255 F1500
X166.5 Y66.5 M03 S255 F1500
X169.875 Y66.675 M03 S255 F1500
X173.15 Y67.175 M03 S255 F1500
X176.325 Y68 M03 S255 F1500
X179.35 Y69.1 M03 S255 F1500
X182.225 Y70.5 M03 S255 F1500
X184.95 Y72.175 M03 S255 F1500
X187.5 Y74.1 M03 S255 F1500
X189.825 Y76.225 M03 S255 F1500
X191.975 Y78.6 M03 S255 F1500
X193.875 Y81.15 M03 S255 F1500
X195.525 Y83.9 M03 S255 F1500
X196.9 Y86.8 M03 S255 F1500
X198.025 Y89.85 M03 S255 F1500
X198.825 Y93.05 M03 S255 F1500
X199.325 Y96.35 M03 S255 F1500
X199.5 Y99.75 M03 S255 F1500
X139 Y100 M03 S0 F1500
X138.8 Y100.975 M03 S255 F1500
X138.275 Y101.775 M03 S255 F1500
X137.475 Y102.3 M03 S255 F1500
X136.5 Y102.5 M03 S255 F1500
X135.525 Y102.3 M03 S255 F1500
X134.725 Y101.775 M03 S255 F1500
X134.2 Y100.975 M03 S255 F1500
X134 Y100 M03 S255 F1500
X134.2 Y99.025 M03 S255 F1500
X134.725 Y98.225 M03 S255 F1500
X135.525 Y97.7 M03 S255 F1500
X136.5 Y97.5 M03 S255 F1500
X137.475 Y97.7 M03 S255 F1500
X138.275 Y98.225 M03 S255 F1500
X138.8 Y99.025 M03 S255 F1500
X139 Y100 M03 S255 F1500
X169 Y100.125 M03 S0 F1500
X168.8 Y101.05 M03 S255 F1500
X168.275 Y101.8 M03 S255 F1500
X167.475 Y102.3 M03 S255 F1500
X166.5 Y102.5 M03 S255 F1500
X165.525 Y102.3 M03 S255 F1500
X164.725 Y101.8 M03 S255 F1500
X164.2 Y101.05 M03 S255 F1500
X164 Y100.125 M03 S255 F1500
X164.2 Y99.2 M03 S255 F1500
X164.725 Y98.45 M03 S255 F1500
X165.525 Y97.925 M03 S255 F1500
X166.5 Y97.75 M03 S255 F1500
X167.475 Y97.925 M03 S255 F1500
X168.275 Y98.45 M03 S255 F1500
X168.8 Y99.2 M03 S255 F1500
X169 Y100.125 M03 S255 F1500
M03 S0
M05
G01 X133 Y99.75 M03 S0 F1500
M03 S0
X133 Y99.75 M03 S0 F1500
X132.825 Y103.15 M03 S255 F1500
X132.325 Y106.45 M03 S255 F1500
X131.525 Y109.625 M03 S255 F1500
X130.4 Y112.675 M03 S255 F1500
X129.025 Y115.6 M03 S255 F1500
X127.375 Y118.325 M03 S255 F1500
X125.475 Y120.9 M03 S255 F1500
X123.325 Y123.25 M03 S255 F1500
X121 Y125.4 M03 S255 F1500
X118.45 Y127.325 M03 S255 F1500
X115.725 Y128.975 M03 S255 F1500
X112.85 Y130.375 M03 S255 F1500
X109.825 Y131.5 M03 S255 F1500
X106.65 Y132.325 M03 S255 F1500
X103.375 Y132.825 M03 S255 F1500
X100 Y133 M03 S255 F1500
X96.625 Y132.825 M03 S255 F1500
X93.35 Y132.325 M03 S255 F1500
X90.175 Y131.5 M03 S255 F1500
X87.15 Y130.375 M03 S255 F1500
X84.275 Y128.975 M03 S255 F1500
X81.55 Y127.325 M03 S255 F1500
X79 Y125.4 M03 S255 F1500
X76.675 Y123.25 M03 S255 F1500
X74.525 Y120.9 M03 S255 F1500
X72.625 Y118.325 M03 S255 F1500
X70.975 Y115.6 M03 S255 F1500
X69.6 Y112.675 M03 S255 F1500
X68.475 Y109.625 M03 S255 F1500
X67.675 Y106.45 M03 S255 F1500
X67.175 Y103.15 M03 S255 F1500
X67 Y99.75 M03 S255 F1500
X67.175 Y96.35 M03 S255 F1500
X67.675 Y93.05 M03 S255 F1500
X68.475 Y89.85 M03 S255 F1500
X69.6 Y86.8 M03 S255 F1500
X70.975 Y83.9 M03 S255 F1500
X72.625 Y81.15 M03 S255 F1500
X74.525 Y78.6 M03 S255 F1500
X76.675 Y76.225 M03 S255 F1500
X79 Y74.1 M03 S255 F1500
X81.55 Y72.175 M03 S255 F1500
X84.275 Y70.5 M03 S255 F1500
X87.15 Y69.1 M03 S255 F1500
X90.175 Y68 M03 S255 F1500
X93.35 Y67.175 M03 S255 F1500
X96.625 Y66.675 M03 S255 F1500
X100 Y66.5 M03 S255 F1500
X103.375 Y66.675 M03 S255 F1500
X106.65 Y67.175 M03 S255 F1500
X109.825 Y68 M03 S255 F1500
X112.85 Y69.1 M03 S255 F1500
X115.725 Y70.5 M03 S255 F1500
X118.45 Y72.175 M03 S255 F1500
X121 Y74.1 M03 S255 F1500
X123.325 Y76.225 M03 S255 F1500
X125.475 Y78.6 M03 S255 F1500
X127.375 Y81.15 M03 S255 F1500
X129.025 Y83.9 M03 S255 F1500
X130.4 Y86.8 M03 S255 F1500
X131.525 Y89.85 M03 S255 F1500
X132.325 Y93.05 M03 S255 F1500
X132.825 Y96.35 M03 S255 F1500
X133 Y99.75 M03 S255 F1500
X72.5 Y100 M03 S0 F1500
X72.3 Y100.975 M03 S255 F1500
X71.775 Y101.775 M03 S255 F1500
X70.975 Y102.3 M03 S255 F1500
X70 Y102.5 M03 S255 F1500
X69.025 Y102.3 M03 S255 F1500
X68.225 Y101.775 M03 S255 F1500
X67.7 Y100.975 M03 S255 F1500
X67.5 Y100 M03 S255 F1500
X67.7 Y99.025 M03 S255 F1500
X68.225 Y98.225 M03 S255 F1500
X69.025 Y97.7 M03 S255 F1500
X70 Y97.5 M03 S255 F1500
X70.975 Y97.7 M03 S255 F1500
X71.775 Y98.225 M03 S255 F1500
X72.3 Y99.025 M03 S255 F1500
X72.5 Y100 M03 S255 F1500
X102.5 Y100.125 M03 S0 F1500
X102.3 Y101.05 M03 S255 F1500
X101.775 Y101.8 M03 S255 F1500
X100.975 Y102.3 M03 S255 F1500
X100 Y102.5 M03 S255 F1500
X99.025 Y102.3 M03 S255 F1500
X98.225 Y101.8 M03 S255 F1500
X97.7 Y101.05 M03 S255 F1500
X97.5 Y100.125 M03 S255 F1500
X97.7 Y99.2 M03 S255 F1500
X98.225 Y98.45 M03 S255 F1500
X99.025 Y97.925 M03 S255 F1500
X100 Y97.75 M03 S255 F1500
X100.975 Y97.925 M03 S255 F1500
X101.775 Y98.45 M03 S255 F1500
X102.3 Y99.2 M03 S255 F1500
X102.5 Y100.125 M03 S255 F1500
M03 S0
M05
G01 X66.5 Y99.75 M03 S0 F1500
M03 S0
X66.5 Y99.75 M03 S0 F1500
X66.325 Y103.15 M03 S255 F1500
X65.825 Y106.45 M03 S255 F1500
X65.025 Y109.625 M03 S255 F1500
X63.9 Y112.675 M03 S255 F1500
X62.525 Y115.6 M03 S255 F1500
X60.875 Y118.325 M03 S255 F1500
X58.975 Y120.9 M03 S255 F1500
X56.825 Y123.25 M03 S255 F1500
X54.5 Y125.4 M03 S255 F1500
X51.95 Y127.325 M03 S255 F1500
X49.225 Y128.975 M03 S255 F1500
X46.35 Y130.375 M03 S255 F1500
X43.325 Y131.5 M03 S255 F1500
X40.15 Y132.325 M03 S255 F1500
X36.875 Y132.825 M03 S255 F1500
X33.5 Y133 M03 S255 F1500
X30.125 Y132.825 M03 S255 F1500
X26.85 Y132.325 M03 S255 F1500
X23.675 Y131.5 M03 S255 F1500
X20.65 Y130.375 M03 S255 F1500
X17.775 Y128.975 M03 S255 F1500
X15.05 Y127.325 M03 S255 F1500
X12.5 Y125.4 M03 S255 F1500
X10.175 Y123.25 M03 S255 F1500
X8.025 Y120.9 M03 S255 F1500
X6.125 Y118.325 M03 S255 F1500
X4.475 Y115.6 M03 S255 F1500
X3.1 Y112.675 M03 S255 F1500
X1.975 Y109.625 M03 S255 F1500
X1.175 Y106.45 M03 S255 F1500
X0.675 Y103.15 M03 S255 F1500
X0.5 Y99.75 M03 S255 F1500
X0.675 Y96.35 M03 S255 F1500
X1.175 Y93.05 M03 S255 F1500
X1.975 Y89.85 M03 S255 F1500
X3.1 Y86.8 M03 S255 F1500
X4.475 Y83.9 M03 S255 F1500
X6.125 Y81.15 M03 S255 F1500
X8.025 Y78.6 M03 S255 F1500
X10.175 Y76.225 M03 S255 F1500
X12.5 Y74.1 M03 S255 F1500
X15.05 Y72.175 M03 S255 F1500
X17.775 Y70.5 M03 S255 F1500
X20.65 Y69.1 M03 S255 F1500
X23.675 Y68 M03 S255 F1500
X26.85 Y67.175 M03 S255 F1500
X30.125 Y66.675 M03 S255 F1500
X33.5 Y66.5 M03 S255 F1500
X36.875 Y66.675 M03 S255 F1500
X40.15 Y67.175 M03 S255 F1500
X43.325 Y68 M03 S255 F1500
X46.35 Y69.1 M03 S255 F1500
X49.225 Y70.5 M03 S255 F1500
X51.95 Y72.175 M03 S255 F1500
X54.5 Y74.1 M03 S255 F1500
X56.825 Y76.225 M03 S255 F1500
X58.975 Y78.6 M03 S255 F1500
X60.875 Y81.15 M03 S255 F1500
X62.525 Y83.9 M03 S255 F1500
X63.9 Y86.8 M03 S255 F1500
X65.025 Y89.85 M03 S255 F1500
X65.825 Y93.05 M03 S255 F1500
X66.325 Y96.35 M03 S255 F1500
X66.5 Y99.75 M03 S255 F1500
X6 Y100 M03 S0 F1500
X5.8 Y100.975 M03 S255 F1500
X5.275 Y101.775 M03 S255 F1500
X4.475 Y102.3 M03 S255 F1500
X3.5 Y102.5 M03 S255 F1500
X2.525 Y102.3 M03 S255 F1500
X1.725 Y101.775 M03 S255 F1500
X1.2 Y100.975 M03 S255 F1500
X1 Y100 M03 S255 F1500
X1.2 Y99.025 M03 S255 F1500
X1.725 Y98.225 M03 S255 F1500
X2.525 Y97.7 M03 S255 F1500
X3.5 Y97.5 M03 S255 F1500
X4.475 Y97.7 M03 S255 F1500
X5.275 Y98.225 M03 S255 F1500
X5.8 Y99.025 M03 S255 F1500
X6 Y100 M03 S255 F1500
X36 Y100.125 M03 S0 F1500
X35.8 Y101.05 M03 S255 F1500
X35.275 Y101.8 M03 S255 F1500
X34.475 Y102.3 M03 S255 F1500
X33.5 Y102.5 M03 S255 F1500
X32.525 Y102.3 M03 S255 F1500
X31.725 Y101.8 M03 S255 F1500
X31.2 Y101.05 M03 S255 F1500
X31 Y100.125 M03 S255 F1500
X31.2 Y99.2 M03 S255 F1500
X31.725 Y98.45 M03 S255 F1500
X32.525 Y97.925 M03 S255 F1500
X33.5 Y97.75 M03 S255 F1500
X34.475 Y97.925 M03 S255 F1500
X35.275 Y98.45 M03 S255 F1500
X35.8 Y99.2 M03 S255 F1500
X36 Y100.125 M03 S255 F1500
M03 S0
M05
G01 X66.5 Y166.25 M03 S0 F1500
M03 S0
X66.5 Y166.25 M03 S0 F1500
X66.325 Y169.65 M03 S255 F1500
X65.825 Y172.95 M03 S255 F1500
X65.025 Y176.125 M03 S255 F1500
X63.9 Y179.175 M03 S255 F1500
X62.525 Y182.1 M03 S255 F1500
X60.875 Y184.825 M03 S255 F1500
X58.975 Y187.4 M03 S255 F1500
X56.825 Y189.75 M03 S255 F1500
X54.5 Y191.9 M03 S255 F1500
X51.95 Y193.825 M03 S255 F1500
X49.225 Y195.475 M03 S255 F1500
X46.35 Y196.875 M03 S255 F1500
X43.325 Y198 M03 S255 F1500
X40.15 Y198.825 M03 S255 F1500
X36.875 Y199.325 M03 S255 F1500
X33.5 Y199.5 M03 S255 F1500
X30.125 Y199.325 M03 S255 F1500
X26.85 Y198.825 M03 S255 F1500
X23.675 Y198 M03 S255 F1500
X20.65 Y196.875 M03 S255 F1500
X17.775 Y195.475 M03 S255 F1500
X15.05 Y193.825 M03 S255 F1500
X12.5 Y191.9 M03 S255 F1500
X10.175 Y189.75 M03 S255 F1500
X8.025 Y187.4 M03 S255 F1500
X6.125 Y184.825 M03 S255 F1500
X4.475 Y182.1 M03 S255 F1500
X3.1 Y179.175 M03 S255 F1500
X1.975 Y176.125 M03 S255 F1500
X1.175 Y172.95 M03 S255 F1500
X0.675 Y169.65 M03 S255 F1500
X0.5 Y166.25 M03 S255 F1500
X0.675 Y162.85 M03 S255 F1500
X1.175 Y159.55 M03 S255 F1500
X1.975 Y156.35 M03 S255 F1500
X3.1 Y153.3 M03 S255 F1500
X4.475 Y150.4 M03 S255 F1500
X6.125 Y147.65 M03 S255 F1500
X8.025 Y145.1 M03 S255 F1500
X10.175 Y142.725 M03 S255 F1500
X12.5 Y140.6 M03 S255 F1500
X15.05 Y138.675 M03 S255 F1500
X17.775 Y137 M03 S255 F1500
X20.65 Y135.6 M03 S255 F1500
X23.675 Y134.5 M03 S255 F1500
X26.85 Y133.675 M03 S255 F1500
X30.125 Y133.175 M03 S255 F1500
X33.5 Y133 M03 S255 F1500
X36.875 Y133.175 M03 S255 F1500
X40.15 Y133.675 M03 S255 F1500
X43.325 Y134.5 M03 S255 F1500
X46.35 Y135.6 M03 S255 F1500
X49.225 Y137 M03 S255 F1500
X51.95 Y138.675 M03 S255 F1500
X54.5 Y140.6 M03 S255 F1500
X56.825 Y142.725 M03 S255 F1500
X58.975 Y145.1 M03 S255 F1500
X60.875 Y147.65 M03 S255 F1500
X62.525 Y150.4 M03 S255 F1500
X63.9 Y153.3 M03 S255 F1500
X65.025 Y156.35 M03 S255 F1500
X65.825 Y159.55 M03 S255 F1500
X66.325 Y162.85 M03 S255 F1500
X66.5 Y166.25 M03 S255 F1500
X6 Y166.5 M03 S0 F1500
X5.8 Y167.475 M03 S255 F1500
X5.275 Y168.275 M03 S255 F1500
X4.475 Y168.8 M03 S255 F1500
X3.5 Y169 M03 S255 F1500
X2.525 Y168.8 M03 S255 F1500
X1.725 Y168.275 M03 S255 F1500
X1.2 Y167.475 M03 S255 F1500
X1 Y166.5 M03 S255 F1500
X1.2 Y165.525 M03 S255 F1500
X1.725 Y164.725 M03 S255 F1500
X2.525 Y164.2 M03 S255 F1500
X3.5 Y164 M03 S255 F1500
X4.475 Y164.2 M03 S255 F1500
X5.275 Y164.725 M03 S255 F1500
X5.8 Y165.525 M03 S255 F1500
X6 Y166.5 M03 S255 F1500
X36 Y166.625 M03 S0 F1500
X35.8 Y167.55 M03 S255 F1500
X35.275 Y168.3 M03 S255 F1500
X34.475 Y168.8 M03 S255 F1500
X33.5 Y169 M03 S255 F1500
X32.525 Y168.8 M03 S255 F1500
X31.725 Y168.3 M03 S255 F1500
X31.2 Y167.55 M03 S255 F1500
X31 Y166.625 M03 S255 F1500
X31.2 Y165.7 M03 S255 F1500
X31.725 Y164.95 M03 S255 F1500
X32.525 Y164.425 M03 S255 F1500
X33.5 Y164.25 M03 S255 F1500
X34.475 Y164.425 M03 S255 F1500
X35.275 Y164.95 M03 S255 F1500
X35.8 Y165.7 M03 S255 F1500
X36 Y166.625 M03 S255 F1500
M03 S0
M05
G01 X133 Y166.25 M03 S0 F1500
M03 S0
X133 Y166.25 M03 S0 F1500
X132.825 Y169.65 M03 S255 F1500
X132.325 Y172.95 M03 S255 F1500
X131.525 Y176.125 M03 S255 F1500
X130.4 Y179.175 M03 S255 F1500
X129.025 Y182.1 M03 S255 F1500
X127.375 Y184.825 M03 S255 F1500
X125.475 Y187.4 M03 S255 F1500
X123.325 Y189.75 M03 S255 F1500
X121 Y191.9 M03 S255 F1500
X118.45 Y193.825 M03 S255 F1500
X115.725 Y195.475 M03 S255 F1500
X112.85 Y196.875 M03 S255 F1500
X109.825 Y198 M03 S255 F1500
X106.65 Y198.825 M03 S255 F1500
X103.375 Y199.325 M03 S255 F1500
X100 Y199.5 M03 S255 F1500
X96.625 Y199.325 M03 S255 F1500
X93.35 Y198.825 M03 S255 F1500
X90.175 Y198 M03 S255 F1500
X87.15 Y196.875 M03 S255 F1500
X84.275 Y195.475 M03 S255 F1500
X81.55 Y193.825 M03 S255 F1500
X79 Y191.9 M03 S255 F1500
X76.675 Y189.75 M03 S255 F1500
X74.525 Y187.4 M03 S255 F1500
X72.625 Y184.825 M03 S255 F1500
X70.975 Y182.1 M03 S255 F1500
X69.6 Y179.175 M03 S255 F1500
X68.475 Y176.125 M03 S255 F1500
X67.675 Y172.95 M03 S255 F1500
X67.175 Y169.65 M03 S255 F1500
X67 Y166.25 M03 S255 F1500
X67.175 Y162.85 M03 S255 F1500
X67.675 Y159.55 M03 S255 F1500
X68.475 Y156.35 M03 S255 F1500
X69.6 Y153.3 M03 S255 F1500
X70.975 Y150.4 M03 S255 F1500
X72.625 Y147.65 M03 S255 F1500
X74.525 Y145.1 M03 S255 F1500
X76.675 Y142.725 M03 S255 F1500
X79 Y140.6 M03 S255 F1500
X81.55 Y138.675 M03 S255 F1500
X84.275 Y137 M03 S255 F1500
X87.15 Y135.6 M03 S255 F1500
X90.175 Y134.5 M03 S255 F1500
X93.35 Y133.675 M03 S255 F1500
X96.625 Y133.175 M03 S255 F1500
X100 Y133 M03 S255 F1500
X103.375 Y133.175 M03 S255 F1500
X106.65 Y133.675 M03 S255 F1500
X109.825 Y134.5 M03 S255 F1500
X112.85 Y135.6 M03 S255 F1500
X115.725 Y137 M03 S255 F1500
X118.45 Y138.675 M03 S255 F1500
X121 Y140.6 M03 S255 F1500
X123.325 Y142.725 M03 S255 F1500
X125.475 Y145.1 M03 S255 F1500
X127.375 Y147.65 M03 S255 F1500
X129.025 Y150.4 M03 S255 F1500
X130.4 Y153.3 M03 S255 F1500
X131.525 Y156.35 M03 S255 F1500
X132.325 Y159.55 M03 S255 F1500
X132.825 Y162.85 M03 S255 F1500
X133 Y166.25 M03 S255 F1500
X72.5 Y166.5 M03 S0 F1500
X72.3 Y167.475 M03 S255 F1500
X71.775 Y168.275 M03 S255 F1500
X70.975 Y168.8 M03 S255 F1500
X70 Y169 M03 S255 F1500
X69.025 Y168.8 M03 S255 F1500
X68.225 Y168.275 M03 S255 F1500
X67.7 Y167.475 M03 S255 F1500
X67.5 Y166.5 M03 S255 F1500
X67.7 Y165.525 M03 S255 F1500
X68.225 Y164.725 M03 S255 F1500
X69.025 Y164.2 M03 S255 F1500
X70 Y164 M03 S255 F1500
X70.975 Y164.2 M03 S255 F1500
X71.775 Y164.725 M03 S255 F1500
X72.3 Y165.525 M03 S255 F1500
X72.5 Y166.5 M03 S255 F1500
X102.5 Y166.625 M03 S0 F1500
X102.3 Y167.55 M03 S255 F1500
X101.775 Y168.3 M03 S255 F1500
X100.975 Y168.8 M03 S255 F1500
X100 Y169 M03 S255 F1500
X99.025 Y168.8 M03 S255 F1500
X98.225 Y168.3 M03 S255 F1500
X97.7 Y167.55 M03 S255 F1500
X97.5 Y166.625 M03 S255 F1500
X97.7 Y165.7 M03 S255 F1500
X98.225 Y164.95 M03 S255 F1500
X99.025 Y164.425 M03 S255 F1500
X100 Y164.25 M03 S255 F1500
X100.975 Y164.425 M03 S255 F1500
X101.775 Y164.95 M03 S255 F1500
X102.3 Y165.7 M03 S255 F1500
X102.5 Y166.625 M03 S255 F1500
M03 S0
M05
G01 X199.5 Y166.25 M03 S0 F1500
M03 S0
X199.5 Y166.25 M03 S0 F1500
X199.325 Y169.65 M03 S255 F1500
X198.825 Y172.95 M03 S255 F1500
X198.025 Y176.125 M03 S255 F1500
X196.9 Y179.175 M03 S255 F1500
X195.525 Y182.1 M03 S255 F1500
X193.875 Y184.825 M03 S255 F1500
X191.975 Y187.4 M03 S255 F1500
X189.825 Y189.75 M03 S255 F1500
X187.5 Y191.9 M03 S255 F1500
X184.95 Y193.825 M03 S255 F1500
X182.225 Y195.475 M03 S255 F1500
X179.35 Y196.875 M03 S255 F1500
X176.325 Y198 M03 S255 F1500
X173.15 Y198.825 M03 S255 F1500
X169.875 Y199.325 M03 S255 F1500
X166.5 Y199.5 M03 S255 F1500
X163.125 Y199.325 M03 S255 F1500
X159.85 Y198.825 M03 S255 F1500
X156.675 Y198 M03 S255 F1500
X153.65 Y196.875 M03 S255 F1500
X150.775 Y195.475 M03 S255 F1500
X148.05 Y193.825 M03 S255 F1500
X145.5 Y191.9 M03 S255 F1500
X143.175 Y189.75 M03 S255 F1500
X141.025 Y187.4 M03 S255 F1500
X139.125 Y184.825 M03 S255 F1500
X137.475 Y182.1 M03 S255 F1500
X136.1 Y179.175 M03 S255 F1500
X134.975 Y176.125 M03 S255 F1500
X134.175 Y172.95 M03 S255 F1500
X133.675 Y169.65 M03 S255 F1500
X133.5 Y166.25 M03 S255 F1500
X133.675 Y162.85 M03 S255 F1500
X134.175 Y159.55 M03 S255 F1500
X134.975 Y156.35 M03 S255 F1500
X136.1 Y153.3 M03 S255 F1500
X137.475 Y150.4 M03 S255 F1500
X139.125 Y147.65 M03 S255 F1500
X141.025 Y145.1 M03 S255 F1500
X143.175 Y142.725 M03 S255 F1500
X145.5 Y140.6 M03 S255 F1500
X148.05 Y138.675 M03 S255 F1500
X150.775 Y137 M03 S255 F1500
X153.65 Y135.6 M03 S255 F1500
X156.675 Y134.5 M03 S255 F1500
X159.85 Y133.675 M03 S255 F1500
X163.125 Y133.175 M03 S255 F1500
X166.5 Y133 M03 S255 F1500
X169.875 Y133.175 M03 S255 F1500
X173.15 Y133.675 M03 S255 F1500
X176.325 Y134.5 M03 S255 F1500
X179.35 Y135.6 M03 S255 F1500
X182.225 Y137 M03 S255 F1500
X184.95 Y138.675 M03 S255 F1500
X187.5 Y140.6 M03 S255 F1500
X189.825 Y142.725 M03 S255 F1500
X191.975 Y145.1 M03 S255 F1500
X193.875 Y147.65 M03 S255 F1500
X195.525 Y150.4 M03 S255 F1500
X196.9 Y153.3 M03 S255 F1500
X198.025 Y156.35 M03 S255 F1500
X198.825 Y159.55 M03 S255 F1500
X199.325 Y162.85 M03 S255 F1500
X199.5 Y166.25 M03 S255 F1500
X139 Y166.5 M03 S0 F1500
X138.8 Y167.475 M03 S255 F1500
X138.275 Y168.275 M03 S255 F1500
X137.475 Y168.8 M03 S255 F1500
X136.5 Y169 M03 S255 F1500
X135.525 Y168.8 M03 S255 F1500
X134.725 Y168.275 M03 S255 F1500
X134.2 Y167.475 M03 S255 F1500
X134 Y166.5 M03 S255 F1500
X134.2 Y165.525 M03 S255 F1500
X134.725 Y164.725 M03 S255 F1500
X135.525 Y164.2 M03 S255 F1500
X136.5 Y164 M03 S255 F1500
X137.475 Y164.2 M03 S255 F1500
X138.275 Y164.725 M03 S255 F1500
X138.8 Y165.525 M03 S255 F1500
X139 Y166.5 M03 S255 F1500
X169 Y166.625 M03 S0 F1500
X168.8 Y167.55 M03 S255 F1500
X168.275 Y168.3 M03 S255 F1500
X167.475 Y168.8 M03 S255 F1500
X166.5 Y169 M03 S255 F1500
X165.525 Y168.8 M03 S255 F1500
X164.725 Y168.3 M03 S255 F1500
X164.2 Y167.55 M03 S255 F1500
X164 Y166.625 M03 S255 F1500
X164.2 Y165.7 M03 S255 F1500
X164.725 Y164.95 M03 S255 F1500
X165.525 Y164.425 M03 S255 F1500
X166.5 Y164.25 M03 S255 F1500
X167.475 Y164.425 M03 S255 F1500
X168.275 Y164.95 M03 S255 F1500
X168.8 Y165.7 M03 S255 F1500
X169 Y166.625 M03 S255 F1500
M03 S0
M05
G01 X266 Y166.25 M03 S0 F1500
M03 S0
X266 Y166.25 M03 S0 F1500
X265.825 Y169.65 M03 S255 F1500
X265.325 Y172.95 M03 S255 F1500
X264.525 Y176.125 M03 S255 F1500
X263.4 Y179.175 M03 S255 F1500
X262.025 Y182.1 M03 S255 F1500
X260.375 Y184.825 M03 S255 F1500
X258.475 Y187.4 M03 S255 F1500
X256.325 Y189.75 M03 S255 F1500
X254 Y191.9 M03 S255 F1500
X251.45 Y193.825 M03 S255 F1500
X248.725 Y195.475 M03 S255 F1500
X245.85 Y196.875 M03 S255 F1500
X242.825 Y198 M03 S255 F1500
X239.65 Y198.825 M03 S255 F1500
X236.375 Y199.325 M03 S255 F1500
X233 Y199.5 M03 S255 F1500
X229.625 Y199.325 M03 S255 F1500
X226.35 Y198.825 M03 S255 F1500
X223.175 Y198 M03 S255 F1500
X220.15 Y196.875 M03 S255 F1500
X217.275 Y195.475 M03 S255 F1500
X214.55 Y193.825 M03 S255 F1500
X212 Y191.9 M03 S255 F1500
X209.675 Y189.75 M03 S255 F1500
X207.525 Y187.4 M03 S255 F1500
X205.625 Y184.825 M03 S255 F1500
X203.975 Y182.1 M03 S255 F1500
X202.6 Y179.175 M03 S255 F1500
X201.475 Y176.125 M03 S255 F1500
X200.675 Y172.95 M03 S255 F1500
X200.175 Y169.65 M03 S255 F1500
X200 Y166.25 M03 S255 F1500
X200.175 Y162.85 M03 S255 F1500
X200.675 Y159.55 M03 S255 F1500
X201.475 Y156.35 M03 S255 F1500
X202.6 Y153.3 M03 S255 F1500
X203.975 Y150.4 M03 S255 F1500
X205.625 Y147.65 M03 S255 F1500
X207.525 Y145.1 M03 S255 F1500
X209.675 Y142.725 M03 S255 F1500
X212 Y140.6 M03 S255 F1500
X214.55 Y138.675 M03 S255 F1500
X217.275 Y137 M03 S255 F1500
X220.15 Y135.6 M03 S255 F1500
X223.175 Y134.5 M03 S255 F1500
X226.35 Y133.675 M03 S255 F1500
X229.625 Y133.175 M03 S255 F1500
X233 Y133 M03 S255 F1500
X236.375 Y133.175 M03 S255 F1500
X239.65 Y133.675 M03 S255 F1500
X242.825 Y134.5 M03 S255 F1500
X245.85 Y135.6 M03 S255 F1500
X248.725 Y137 M03 S255 F1500
X251.45 Y138.675 M03 S255 F1500
X254 Y140.6 M03 S255 F1500
X256.325 Y142.725 M03 S255 F1500
X258.475 Y145.1 M03 S255 F1500
X260.375 Y147.65 M03 S255 F1500
X262.025 Y150.4 M03 S255 F1500
X263.4 Y153.3 M03 S255 F1500
X264.525 Y156.35 M03 S255 F1500
X265.325 Y159.55 M03 S255 F1500
X265.825 Y162.85 M03 S255 F1500
X266 Y166.25 M03 S255 F1500
X205.5 Y166.5 M03 S0 F1500
X205.3 Y167.475 M03 S255 F1500
X204.775 Y168.275 M03 S255 F1500
X203.975 Y168.8 M03 S255 F1500
X203 Y169 M03 S255 F1500
X202.025 Y168.8 M03 S255 F1500
X201.225 Y168.275 M03 S255 F1500
X200.7 Y167.475 M03 S255 F1500
X200.5 Y166.5 M03 S255 F1500
X200.7 Y165.525 M03 S255 F1500
X201.225 Y164.725 M03 S255 F1500
X202.025 Y164.2 M03 S255 F1500
X203 Y164 M03 S255 F1500
X203.975 Y164.2 M03 S255 F1500
X204.775 Y164.725 M03 S255 F1500
X205.3 Y165.525 M03 S255 F1500
X205.5 Y166.5 M03 S255 F1500
X235.5 Y166.625 M03 S0 F1500
X235.3 Y167.55 M03 S255 F1500
X234.775 Y168.3 M03 S255 F1500
X233.975 Y168.8 M03 S255 F1500
X233 Y169 M03 S255 F1500
X232.025 Y168.8 M03 S255 F1500
X231.225 Y168.3 M03 S255 F1500
X230.7 Y167.55 M03 S255 F1500
X230.5 Y166.625 M03 S255 F1500
X230.7 Y165.7 M03 S255 F1500
X231.225 Y164.95 M03 S255 F1500
X232.025 Y164.425 M03 S255 F1500
X233 Y164.25 M03 S255 F1500
X233.975 Y164.425 M03 S255 F1500
X234.775 Y164.95 M03 S255 F1500
X235.3 Y165.7 M03 S255 F1500
X235.5 Y166.625 M03 S255 F1500
M03 S0
M05
G01 X332.5 Y166.25 M03 S0 F1500
M03 S0
X332.5 Y166.25 M03 S0 F1500
X332.325 Y169.65 M03 S255 F1500
X331.825 Y172.95 M03 S255 F1500
X331.025 Y176.125 M03 S255 F1500
X329.9 Y179.175 M03 S255 F1500
X328.525 Y182.1 M03 S255 F1500
X326.875 Y184.825 M03 S255 F1500
X324.975 Y187.4 M03 S255 F1500
X322.825 Y189.75 M03 S255 F1500
X320.5 Y191.9 M03 S255 F1500
X317.95 Y193.825 M03 S255 F1500
X315.225 Y195.475 M03 S255 F1500
X312.35 Y196.875 M03 S255 F1500
X309.325 Y198 M03 S255 F1500
X306.15 Y198.825 M03 S255 F1500
X302.875 Y199.325 M03 S255 F1500
X299.5 Y199.5 M03 S255 F1500
X296.125 Y199.325 M03 S255 F1500
X292.85 Y198.825 M03 S255 F1500
X289.675 Y198 M03 S255 F1500
X286.65 Y196.875 M03 S255 F1500
X283.775 Y195.475 M03 S255 F1500
X281.05 Y193.825 M03 S255 F1500
X278.5 Y191.9 M03 S255 F1500
X276.175 Y189.75 M03 S255 F1500
X274.025 Y187.4 M03 S255 F1500
X272.125 Y184.825 M03 S255 F1500
X270.475 Y182.1 M03 S255 F1500
X269.1 Y179.175 M03 S255 F1500
X267.975 Y176.125 M03 S255 F1500
X267.175 Y172.95 M03 S255 F1500
X266.675 Y169.65 M03 S255 F1500
X266.5 Y166.25 M03 S255 F1500
X266.675 Y162.85 M03 S255 F1500
X267.175 Y159.55 M03 S255 F1500
X267.975 Y156.35 M03 S255 F1500
X269.1 Y153.3 M03 S255 F1500
X270.475 Y150.4 M03 S255 F1500
X272.125 Y147.65 M03 S255 F1500
X274.025 Y145.1 M03 S255 F1500
X276.175 Y142.725 M03 S255 F1500
X278.5 Y140.6 M03 S255 F1500
X281.05 Y138.675 M03 S255 F1500
X283.775 Y137 M03 S255 F1500
X286.65 Y135.6 M03 S255 F1500
X289.675 Y134.5 M03 S255 F1500
X292.85 Y133.675 M03 S255 F1500
X296.125 Y133.175 M03 S255 F1500
X299.5 Y133 M03 S255 F1500
X302.875 Y133.175 M03 S255 F1500
X306.15 Y133.675 M03 S255 F1500
X309.325 Y134.5 M03 S255 F1500
X312.35 Y135.6 M03 S255 F1500
X315.225 Y137 M03 S255 F1500
X317.95 Y138.675 M03 S255 F1500
X320.5 Y140.6 M03 S255 F1500
X322.825 Y142.725 M03 S255 F1500
X324.975 Y145.1 M03 S255 F1500
X326.875 Y147.65 M03 S255 F1500
X328.525 Y150.4 M03 S255 F1500
X329.9 Y153.3 M03 S255 F1500
X331.025 Y156.35 M03 S255 F1500
X331.825 Y159.55 M03 S255 F1500
X332.325 Y162.85 M03 S255 F1500
X332.5 Y166.25 M03 S255 F1500
X272 Y166.5 M03 S0 F1500
X271.8 Y167.475 M03 S255 F1500
X271.275 Y168.275 M03 S255 F1500
X270.475 Y168.8 M03 S255 F1500
X269.5 Y169 M03 S255 F1500
X268.525 Y168.8 M03 S255 F1500
X267.725 Y168.275 M03 S255 F1500
X267.2 Y167.475 M03 S255 F1500
X267 Y166.5 M03 S255 F1500
X267.2 Y165.525 M03 S255 F1500
X267.725 Y164.725 M03 S255 F1500
X268.525 Y164.2 M03 S255 F1500
X269.5 Y164 M03 S255 F1500
X270.475 Y164.2 M03 S255 F1500
X271.275 Y164.725 M03 S255 F1500
X271.8 Y165.525 M03 S255 F1500
X272 Y166.5 M03 S255 F1500
X302 Y166.625 M03 S0 F1500
X301.8 Y167.55 M03 S255 F1500
X301.275 Y168.3 M03 S255 F1500
X300.475 Y168.8 M03 S255 F1500
X299.5 Y169 M03 S255 F1500
X298.525 Y168.8 M03 S255 F1500
X297.725 Y168.3 M03 S255 F1500
X297.2 Y167.55 M03 S255 F1500
X297 Y166.625 M03 S255 F1500
X297.2 Y165.7 M03 S255 F1500
X297.725 Y164.95 M03 S255 F1500
X298.525 Y164.425 M03 S255 F1500
X299.5 Y164.25 M03 S255 F1500
X300.475 Y164.425 M03 S255 F1500
X301.275 Y164.95 M03 S255 F1500
X301.8 Y165.7 M03 S255 F1500
X302 Y166.625 M03 S255 F1500
M03 S0
M05
G01 X332.5 Y232.75 M03 S0 F1500
M03 S0
X332.5 Y232.75 M03 S0 F1500
X332.325 Y236.15 M03 S255 F1500
X331.825 Y239.45 M03 S255 F1500
X331.025 Y242.625 M03 S255 F1500
X329.9 Y245.675 M03 S255 F1500
X328.525 Y248.6 M03 S255 F1500
X326.875 Y251.325 M03 S255 F1500
X324.975 Y253.9 M03 S255 F1500
X322.825 Y256.25 M03 S255 F1500
X320.5 Y258.4 M03 S255 F1500
X317.95 Y260.325 M03 S255 F1500
X315.225 Y261.975 M03 S255 F1500
X312.35 Y263.375 M03 S255 F1500
X309.325 Y264.5 M03 S255 F1500
X306.15 Y265.325 M03 S255 F1500
X302.875 Y265.825 M03 S255 F1500
X299.5 Y266 M03 S255 F1500
X296.125 Y265.825 M03 S255 F1500
X292.85 Y265.325 M03 S255 F1500
X289.675 Y264.5 M03 S255 F1500
X286.65 Y263.375 M03 S255 F1500
X283.775 Y261.975 M03 S255 F1500
X281.05 Y260.325 M03 S255 F1500
X278.5 Y258.4 M03 S255 F1500
X276.175 Y256.25 M03 S255 F1500
X274.025 Y253.9 M03 S255 F1500
X272.125 Y251.325 M03 S255 F1500
X270.475 Y248.6 M03 S255 F1500
X269.1 Y245.675 M03 S255 F1500
X267.975 Y242.625 M03 S255 F1500
X267.175 Y239.45 M03 S255 F1500
X266.675 Y236.15 M03 S255 F1500
X266.5 Y232.75 M03 S255 F1500
X266.675 Y229.35 M03 S255 F1500
X267.175 Y226.05 M03 S255 F1500
X267.975 Y222.85 M03 S255 F1500
X269.1 Y219.8 M03 S255 F1500
X270.475 Y216.9 M03 S255 F1500
X272.125 Y214.15 M03 S255 F1500
X274.025 Y211.6 M03 S255 F1500
X276.175 Y209.225 M03 S255 F1500
X278.5 Y207.1 M03 S255 F1500
X281.05 Y205.175 M03 S255 F1500
X283.775 Y203.5 M03 S255 F1500
X286.65 Y202.1 M03 S255 F1500
X289.675 Y201 M03 S255 F1500
X292.85 Y200.175 M03 S255 F1500
X296.125 Y199.675 M03 S255 F1500
X299.5 Y199.5 M03 S255 F1500
X302.875 Y199.675 M03 S255 F1500
X306.15 Y200.175 M03 S255 F1500
X309.325 Y201 M03 S255 F1500
X312.35 Y202.1 M03 S255 F1500
X315.225 Y203.5 M03 S255 F1500
X317.95 Y205.175 M03 S255 F1500
X320.5 Y207.1 M03 S255 F1500
X322.825 Y209.225 M03 S255 F1500
X324.975 Y211.6 M03 S255 F1500
X326.875 Y214.15 M03 S255 F1500
X328.525 Y216.9 M03 S255 F1500
X329.9 Y219.8 M03 S255 F1500
X331.025 Y222.85 M03 S255 F1500
X331.825 Y226.05 M03 S255 F1500
X332.325 Y229.35 M03 S255 F1500
X332.5 Y232.75 M03 S255 F1500
X272 Y233 M03 S0 F1500
X271.8 Y233.975 M03 S255 F1500
X271.275 Y234.775 M03 S255 F1500
X270.475 Y235.3 M03 S255 F1500
X269.5 Y235.5 M03 S255 F1500
X268.525 Y235.3 M03 S255 F1500
X267.725 Y234.775 M03 S255 F1500
X267.2 Y233.975 M03 S255 F1500
X267 Y233 M03 S255 F1500
X267.2 Y232.025 M03 S255 F1500
X267.725 Y231.225 M03 S255 F1500
X268.525 Y230.7 M03 S255 F1500
X269.5 Y230.5 M03 S255 F1500
X270.475 Y230.7 M03 S255 F1500
X271.275 Y231.225 M03 S255 F1500
X271.8 Y232.025 M03 S255 F1500
X272 Y233 M03 S255 F1500
X302 Y233.125 M03 S0 F1500
X301.8 Y234.05 M03 S255 F1500
X301.275 Y234.8 M03 S255 F1500
X300.475 Y235.3 M03 S255 F1500
X299.5 Y235.5 M03 S255 F1500
X298.525 Y235.3 M03 S255 F1500
X297.725 Y234.8 M03 S255 F1500
X297.2 Y234.05 M03 S255 F1500
X297 Y233.125 M03 S255 F1500
X297.2 Y232.2 M03 S255 F1500
X297.725 Y231.45 M03 S255 F1500
X298.525 Y230.925 M03 S255 F1500
X299.5 Y230.75 M03 S255 F1500
X300.475 Y230.925 M03 S255 F1500
X301.275 Y231.45 M03 S255 F1500
X301.8 Y232.2 M03 S255 F1500
X302 Y233.125 M03 S255 F1500
M03 S0
M05
G01 X266 Y232.75 M03 S0 F1500
M03 S0
X266 Y232.75 M03 S0 F1500
X265.825 Y236.15 M03 S255 F1500
X265.325 Y239.45 M03 S255 F1500
X264.525 Y242.625 M03 S255 F1500
X263.4 Y245.675 M03 S255 F1500
X262.025 Y248.6 M03 S255 F1500
X260.375 Y251.325 M03 S255 F1500
X258.475 Y253.9 M03 S255 F1500
X256.325 Y256.25 M03 S255 F1500
X254 Y258.4 M03 S255 F1500
X251.45 Y260.325 M03 S255 F1500
X248.725 Y261.975 M03 S255 F1500
X245.85 Y263.375 M03 S255 F1500
X242.825 Y264.5 M03 S255 F1500
X239.65 Y265.325 M03 S255 F1500
X236.375 Y265.825 M03 S255 F1500
X233 Y266 M03 S255 F1500
X229.625 Y265.825 M03 S255 F1500
X226.35 Y265.325 M03 S255 F1500
X223.175 Y264.5 M03 S255 F1500
X220.15 Y263.375 M03 S255 F1500
X217.275 Y261.975 M03 S255 F1500
X214.55 Y260.325 M03 S255 F1500
X212 Y258.4 M03 S255 F1500
X209.675 Y256.25 M03 S255 F1500
X207.525 Y253.9 M03 S255 F1500
X205.625 Y251.325 M03 S255 F1500
X203.975 Y248.6 M03 S255 F1500
X202.6 Y245.675 M03 S255 F1500
X201.475 Y242.625 M03 S255 F1500
X200.675 Y239.45 M03 S255 F1500
X200.175 Y236.15 M03 S255 F1500
X200 Y232.75 M03 S255 F1500
X200.175 Y229.35 M03 S255 F1500
X200.675 Y226.05 M03 S255 F1500
X201.475 Y222.85 M03 S255 F1500
X202.6 Y219.8 M03 S255 F1500
X203.975 Y216.9 M03 S255 F1500
X205.625 Y214.15 M03 S255 F1500
X207.525 Y211.6 M03 S255 F1500
X209.675 Y209.225 M03 S255 F1500
X212 Y207.1 M03 S255 F1500
X214.55 Y205.175 M03 S255 F1500
X217.275 Y203.5 M03 S255 F1500
X220.15 Y202.1 M03 S255 F1500
X223.175 Y201 M03 S255 F1500
X226.35 Y200.175 M03 S255 F1500
X229.625 Y199.675 M03 S255 F1500
X233 Y199.5 M03 S255 F1500
X236.375 Y199.675 M03 S255 F1500
X239.65 Y200.175 M03 S255 F1500
X242.825 Y201 M03 S255 F1500
X245.85 Y202.1 M03 S255 F1500
X248.725 Y203.5 M03 S255 F1500
X251.45 Y205.175 M03 S255 F1500
X254 Y207.1 M03 S255 F1500
X256.325 Y209.225 M03 S255 F1500
X258.475 Y211.6 M03 S255 F1500
X260.375 Y214.15 M03 S255 F1500
X262.025 Y216.9 M03 S255 F1500
X263.4 Y219.8 M03 S255 F1500
X264.525 Y222.85 M03 S255 F1500
X265.325 Y226.05 M03 S255 F1500
X265.825 Y229.35 M03 S255 F1500
X266 Y232.75 M03 S255 F1500
X205.5 Y233 M03 S0 F1500
X205.3 Y233.975 M03 S255 F1500
X204.775 Y234.775 M03 S255 F1500
X203.975 Y235.3 M03 S255 F1500
X203 Y235.5 M03 S255 F1500
X202.025 Y235.3 M03 S255 F1500
X201.225 Y234.775 M03 S255 F1500
X200.7 Y233.975 M03 S255 F1500
X200.5 Y233 M03 S255 F1500
X200.7 Y232.025 M03 S255 F1500
X201.225 Y231.225 M03 S255 F1500
X202.025 Y230.7 M03 S255 F1500
X203 Y230.5 M03 S255 F1500
X203.975 Y230.7 M03 S255 F1500
X204.775 Y231.225 M03 S255 F1500
X205.3 Y232.025 M03 S255 F1500
X205.5 Y233 M03 S255 F1500
X235.5 Y233.125 M03 S0 F1500
X235.3 Y234.05 M03 S255 F1500
X234.775 Y234.8 M03 S255 F1500
X233.975 Y235.3 M03 S255 F1500
X233 Y235.5 M03 S255 F1500
X232.025 Y235.3 M03 S255 F1500
X231.225 Y234.8 M03 S255 F1500
X230.7 Y234.05 M03 S255 F1500
X230.5 Y233.125 M03 S255 F1500
X230.7 Y232.2 M03 S255 F1500
X231.225 Y231.45 M03 S255 F1500
X232.025 Y230.925 M03 S255 F1500
X233 Y230.75 M03 S255 F1500
X233.975 Y230.925 M03 S255 F1500
X234.775 Y231.45 M03 S255 F1500
X235.3 Y232.2 M03 S255 F1500
X235.5 Y233.125 M03 S255 F1500
M03 S0
M05
G01 X199.5 Y232.75 M03 S0 F1500
M03 S0
X199.5 Y232.75 M03 S0 F1500
X199.325 Y236.15 M03 S255 F1500
X198.825 Y239.45 M03 S255 F1500
X198.025 Y242.625 M03 S255 F1500
X196.9 Y245.675 M03 S255 F1500
X195.525 Y248.6 M03 S255 F1500
X193.875 Y251.325 M03 S255 F1500
X191.975 Y253.9 M03 S255 F1500
X189.825 Y256.25 M03 S255 F1500
X187.5 Y258.4 M03 S255 F1500
X184.95 Y260.325 M03 S255 F1500
X182.225 Y261.975 M03 S255 F1500
X179.35 Y263.375 M03 S255 F1500
X176.325 Y264.5 M03 S255 F1500
X173.15 Y265.325 M03 S255 F1500
X169.875 Y265.825 M03 S255 F1500
X166.5 Y266 M03 S255 F1500
X163.125 Y265.825 M03 S255 F1500
X159.85 Y265.325 M03 S255 F1500
X156.675 Y264.5 M03 S255 F1500
X153.65 Y263.375 M03 S255 F1500
X150.775 Y261.975 M03 S255 F1500
X148.05 Y260.325 M03 S255 F1500
X145.5 Y258.4 M03 S255 F1500
X143.175 Y256.25 M03 S255 F1500
X141.025 Y253.9 M03 S255 F1500
X139.125 Y251.325 M03 S255 F1500
X137.475 Y248.6 M03 S255 F1500
X136.1 Y245.675 M03 S255 F1500
X134.975 Y242.625 M03 S255 F1500
X134.175 Y239.45 M03 S255 F1500
X133.675 Y236.15 M03 S255 F1500
X133.5 Y232.75 M03 S255 F1500
X133.675 Y229.35 M03 S255 F1500
X134.175 Y226.05 M03 S255 F1500
X134.975 Y222.85 M03 S255 F1500
X136.1 Y219.8 M03 S255 F1500
X137.475 Y216.9 M03 S255 F1500
X139.125 Y214.15 M03 S255 F1500
X141.025 Y211.6 M03 S255 F1500
X143.175 Y209.225 M03 S255 F1500
X145.5 Y207.1 M03 S255 F1500
X148.05 Y205.175 M03 S255 F1500
X150.775 Y203.5 M03 S255 F1500
X153.65 Y202.1 M03 S255 F1500
X156.675 Y201 M03 S255 F1500
X159.85 Y200.175 M03 S255 F1500
X163.125 Y199.675 M03 S255 F1500
X166.5 Y199.5 M03 S255 F1500
X169.875 Y199.675 M03 S255 F1500
X173.15 Y200.175 M03 S255 F1500
X176.325 Y201 M03 S255 F1500
X179.35 Y202.1 M03 S255 F1500
X182.225 Y203.5 M03 S255 F1500
X184.95 Y205.175 M03 S255 F1500
X187.5 Y207.1 M03 S255 F1500
X189.825 Y209.225 M03 S255 F1500
X191.975 Y211.6 M03 S255 F1500
X193.875 Y214.15 M03 S255 F1500
X195.525 Y216.9 M03 S255 F1500
X196.9 Y219.8 M03 S255 F1500
X198.025 Y222.85 M03 S255 F1500
X198.825 Y226.05 M03 S255 F1500
X199.325 Y229.35 M03 S255 F1500
X199.5 Y232.75 M03 S255 F1500
X139 Y233 M03 S0 F1500
X138.8 Y233.975 M03 S255 F1500
X138.275 Y234.775 M03 S255 F1500
X137.475 Y235.3 M03 S255 F1500
X136.5 Y235.5 M03 S255 F1500
X135.525 Y235.3 M03 S255 F1500
X134.725 Y234.775 M03 S255 F1500
X134.2 Y233.975 M03 S255 F1500
X134 Y233 M03 S255 F1500
X134.2 Y232.025 M03 S255 F1500
X134.725 Y231.225 M03 S255 F1500
X135.525 Y230.7 M03 S255 F1500
X136.5 Y230.5 M03 S255 F1500
X137.475 Y230.7 M03 S255 F1500
X138.275 Y231.225 M03 S255 F1500
X138.8 Y232.025 M03 S255 F1500
X139 Y233 M03 S255 F1500
X169 Y233.125 M03 S0 F1500
X168.8 Y234.05 M03 S255 F1500
X168.275 Y234.8 M03 S255 F1500
X167.475 Y235.3 M03 S255 F1500
X166.5 Y235.5 M03 S255 F1500
X165.525 Y235.3 M03 S255 F1500
X164.725 Y234.8 M03 S255 F1500
X164.2 Y234.05 M03 S255 F1500
X164 Y233.125 M03 S255 F1500
X164.2 Y232.2 M03 S255 F1500
X164.725 Y231.45 M03 S255 F1500
X165.525 Y230.925 M03 S255 F1500
X166.5 Y230.75 M03 S255 F1500
X167.475 Y230.925 M03 S255 F1500
X168.275 Y231.45 M03 S255 F1500
X168.8 Y232.2 M03 S255 F1500
X169 Y233.125 M03 S255 F1500
M03 S0
M05
G01 X133 Y232.75 M03 S0 F1500
M03 S0
X133 Y232.75 M03 S0 F1500
X132.825 Y236.15 M03 S255 F1500
X132.325 Y239.45 M03 S255 F1500
X131.525 Y242.625 M03 S255 F1500
X130.4 Y245.675 M03 S255 F1500
X129.025 Y248.6 M03 S255 F1500
X127.375 Y251.325 M03 S255 F1500
X125.475 Y253.9 M03 S255 F1500
X123.325 Y256.25 M03 S255 F1500
X121 Y258.4 M03 S255 F1500
X118.45 Y260.325 M03 S255 F1500
X115.725 Y261.975 M03 S255 F1500
X112.85 Y263.375 M03 S255 F1500
X109.825 Y264.5 M03 S255 F1500
X106.65 Y265.325 M03 S255 F1500
X103.375 Y265.825 M03 S255 F1500
X100 Y266 M03 S255 F1500
X96.625 Y265.825 M03 S255 F1500
X93.35 Y265.325 M03 S255 F1500
X90.175 Y264.5 M03 S255 F1500
X87.15 Y263.375 M03 S255 F1500
X84.275 Y261.975 M03 S255 F1500
X81.55 Y260.325 M03 S255 F1500
X79 Y258.4 M03 S255 F1500
X76.675 Y256.25 M03 S255 F1500
X74.525 Y253.9 M03 S255 F1500
X72.625 Y251.325 M03 S255 F1500
X70.975 Y248.6 M03 S255 F1500
X69.6 Y245.675 M03 S255 F1500
X68.475 Y242.625 M03 S255 F1500
X67.675 Y239.45 M03 S255 F1500
X67.175 Y236.15 M03 S255 F1500
X67 Y232.75 M03 S255 F1500
X67.175 Y229.35 M03 S255 F1500
X67.675 Y226.05 M03 S255 F1500
X68.475 Y222.85 M03 S255 F1500
X69.6 Y219.8 M03 S255 F1500
X70.975 Y216.9 M03 S255 F1500
X72.625 Y214.15 M03 S255 F1500
X74.525 Y211.6 M03 S255 F1500
X76.675 Y209.225 M03 S255 F1500
X79 Y207.1 M03 S255 F1500
X81.55 Y205.175 M03 S255 F1500
X84.275 Y203.5 M03 S255 F1500
X87.15 Y202.1 M03 S255 F1500
X90.175 Y201 M03 S255 F1500
X93.35 Y200.175 M03 S255 F1500
X96.625 Y199.675 M03 S255 F1500
X100 Y199.5 M03 S255 F1500
X103.375 Y199.675 M03 S255 F1500
X106.65 Y200.175 M03 S255 F1500
X109.825 Y201 M03 S255 F1500
X112.85 Y202.1 M03 S255 F1500
X115.725 Y203.5 M03 S255 F1500
X118.45 Y205.175 M03 S255 F1500
X121 Y207.1 M03 S255 F1500
X123.325 Y209.225 M03 S255 F1500
X125.475 Y211.6 M03 S255 F1500
X127.375 Y214.15 M03 S255 F1500
X129.025 Y216.9 M03 S255 F1500
X130.4 Y219.8 M03 S255 F1500
X131.525 Y222.85 M03 S255 F1500
X132.325 Y226.05 M03 S255 F1500
X132.825 Y229.35 M03 S255 F1500
X133 Y232.75 M03 S255 F1500
X72.5 Y233 M03 S0 F1500
X72.3 Y233.975 M03 S255 F1500
X71.775 Y234.775 M03 S255 F1500
X70.975 Y235.3 M03 S255 F1500
X70 Y235.5 M03 S255 F1500
X69.025 Y235.3 M03 S255 F1500
X68.225 Y234.775 M03 S255 F1500
X67.7 Y233.975 M03 S255 F1500
X67.5 Y233 M03 S255 F1500
X67.7 Y232.025 M03 S255 F1500
X68.225 Y231.225 M03 S255 F1500
X69.025 Y230.7 M03 S255 F1500
X70 Y230.5 M03 S255 F1500
X70.975 Y230.7 M03 S255 F1500
X71.775 Y231.225 M03 S255 F1500
X72.3 Y232.025 M03 S255 F1500
X72.5 Y233 M03 S255 F1500
X102.5 Y233.125 M03 S0 F1500
X102.3 Y234.05 M03 S255 F1500
X101.775 Y234.8 M03 S255 F1500
X100.975 Y235.3 M03 S255 F1500
X100 Y235.5 M03 S255 F1500
X99.025 Y235.3 M03 S255 F1500
X98.225 Y234.8 M03 S255 F1500
X97.7 Y234.05 M03 S255 F1500
X97.5 Y233.125 M03 S255 F1500
X97.7 Y232.2 M03 S255 F1500
X98.225 Y231.45 M03 S255 F1500
X99.025 Y230.925 M03 S255 F1500
X100 Y230.75 M03 S255 F1500
X100.975 Y230.925 M03 S255 F1500
X101.775 Y231.45 M03 S255 F1500
X102.3 Y232.2 M03 S255 F1500
X102.5 Y233.125 M03 S255 F1500
M03 S0
M05
G01 X66.5 Y232.75 M03 S0 F1500
M03 S0
X66.5 Y232.75 M03 S0 F1500
X66.325 Y236.15 M03 S255 F1500
X65.825 Y239.45 M03 S255 F1500
X65.025 Y242.625 M03 S255 F1500
X63.9 Y245.675 M03 S255 F1500
X62.525 Y248.6 M03 S255 F1500
X60.875 Y251.325 M03 S255 F1500
X58.975 Y253.9 M03 S255 F1500
X56.825 Y256.25 M03 S255 F1500
X54.5 Y258.4 M03 S255 F1500
X51.95 Y260.325 M03 S255 F1500
X49.225 Y261.975 M03 S255 F1500
X46.35 Y263.375 M03 S255 F1500
X43.325 Y264.5 M03 S255 F1500
X40.15 Y265.325 M03 S255 F1500
X36.875 Y265.825 M03 S255 F1500
X33.5 Y266 M03 S255 F1500
X30.125 Y265.825 M03 S255 F1500
X26.85 Y265.325 M03 S255 F1500
X23.675 Y264.5 M03 S255 F1500
X20.65 Y263.375 M03 S255 F1500
X17.775 Y261.975 M03 S255 F1500
X15.05 Y260.325 M03 S255 F1500
X12.5 Y258.4 M03 S255 F1500
X10.175 Y256.25 M03 S255 F1500
X8.025 Y253.9 M03 S255 F1500
X6.125 Y251.325 M03 S255 F1500
X4.475 Y248.6 M03 S255 F1500
X3.1 Y245.675 M03 S255 F1500
X1.975 Y242.625 M03 S255 F1500
X1.175 Y239.45 M03 S255 F1500
X0.675 Y236.15 M03 S255 F1500
X0.5 Y232.75 M03 S255 F1500
X0.675 Y229.35 M03 S255 F1500
X1.175 Y226.05 M03 S255 F1500
X1.975 Y222.85 M03 S255 F1500
X3.1 Y219.8 M03 S255 F1500
X4.475 Y216.9 M03 S255 F1500
X6.125 Y214.15 M03 S255 F1500
X8.025 Y211.6 M03 S255 F1500
X10.175 Y209.225 M03 S255 F1500
X12.5 Y207.1 M03 S255 F1500
X15.05 Y205.175 M03 S255 F1500
X17.775 Y203.5 M03 S255 F1500
X20.65 Y202.1 M03 S255 F1500
X23.675 Y201 M03 S255 F1500
X26.85 Y200.175 M03 S255 F1500
X30.125 Y199.675 M03 S255 F1500
X33.5 Y199.5 M03 S255 F1500
X36.875 Y199.675 M03 S255 F1500
X40.15 Y200.175 M03 S255 F1500
X43.325 Y201 M03 S255 F1500
X46.35 Y202.1 M03 S255 F1500
X49.225 Y203.5 M03 S255 F1500
X51.95 Y205.175 M03 S255 F1500
X54.5 Y207.1 M03 S255 F1500
X56.825 Y209.225 M03 S255 F1500
X58.975 Y211.6 M03 S255 F1500
X60.875 Y214.15 M03 S255 F1500
X62.525 Y216.9 M03 S255 F1500
X63.9 Y219.8 M03 S255 F1500
X65.025 Y222.85 M03 S255 F1500
X65.825 Y226.05 M03 S255 F1500
X66.325 Y229.35 M03 S255 F1500
X66.5 Y232.75 M03 S255 F1500
X6 Y233 M03 S0 F1500
X5.8 Y233.975 M03 S255 F1500
X5.275 Y234.775 M03 S255 F1500
X4.475 Y235.3 M03 S255 F1500
X3.5 Y235.5 M03 S255 F1500
X2.525 Y235.3 M03 S255 F1500
X1.725 Y234.775 M03 S255 F1500
X1.2 Y233.975 M03 S255 F1500
X1 Y233 M03 S255 F1500
X1.2 Y232.025 M03 S255 F1500
X1.725 Y231.225 M03 S255 F1500
X2.525 Y230.7 M03 S255 F1500
X3.5 Y230.5 M03 S255 F1500
X4.475 Y230.7 M03 S255 F1500
X5.275 Y231.225 M03 S255 F1500
X5.8 Y232.025 M03 S255 F1500
X6 Y233 M03 S255 F1500
X36 Y233.125 M03 S0 F1500
X35.8 Y234.05 M03 S255 F1500
X35.275 Y234.8 M03 S255 F1500
X34.475 Y235.3 M03 S255 F1500
X33.5 Y235.5 M03 S255 F1500
X32.525 Y235.3 M03 S255 F1500
X31.725 Y234.8 M03 S255 F1500
X31.2 Y234.05 M03 S255 F1500
X31 Y233.125 M03 S255 F1500
X31.2 Y232.2 M03 S255 F1500
X31.725 Y231.45 M03 S255 F1500
X32.525 Y230.925 M03 S255 F1500
X33.5 Y230.75 M03 S255 F1500
X34.475 Y230.925 M03 S255 F1500
X35.275 Y231.45 M03 S255 F1500
X35.8 Y232.2 M03 S255 F1500
X36 Y233.125 M03 S255 F1500
M03 S0
M05
G01 X66.5 Y299.25 M03 S0 F1500
M03 S0
X66.5 Y299.25 M03 S0 F1500
X66.325 Y302.65 M03 S255 F1500
X65.825 Y305.95 M03 S255 F1500
X65.025 Y309.125 M03 S255 F1500
X63.9 Y312.175 M03 S255 F1500
X62.525 Y315.1 M03 S255 F1500
X60.875 Y317.825 M03 S255 F1500
X58.975 Y320.4 M03 S255 F1500
X56.825 Y322.75 M03 S255 F1500
X54.5 Y324.9 M03 S255 F1500
X51.95 Y326.825 M03 S255 F1500
X49.225 Y328.475 M03 S255 F1500
X46.35 Y329.875 M03 S255 F1500
X43.325 Y331 M03 S255 F1500
X40.15 Y331.825 M03 S255 F1500
X36.875 Y332.325 M03 S255 F1500
X33.5 Y332.5 M03 S255 F1500
X30.125 Y332.325 M03 S255 F1500
X26.85 Y331.825 M03 S255 F1500
X23.675 Y331 M03 S255 F1500
X20.65 Y329.875 M03 S255 F1500
X17.775 Y328.475 M03 S255 F1500
X15.05 Y326.825 M03 S255 F1500
X12.5 Y324.9 M03 S255 F1500
X10.175 Y322.75 M03 S255 F1500
X8.025 Y320.4 M03 S255 F1500
X6.125 Y317.825 M03 S255 F1500
X4.475 Y315.1 M03 S255 F1500
X3.1 Y312.175 M03 S255 F1500
X1.975 Y309.125 M03 S255 F1500
X1.175 Y305.95 M03 S255 F1500
X0.675 Y302.65 M03 S255 F1500
X0.5 Y299.25 M03 S255 F1500
X0.675 Y295.85 M03 S255 F1500
X1.175 Y292.55 M03 S255 F1500
X1.975 Y289.35 M03 S255 F1500
X3.1 Y286.3 M03 S255 F1500
X4.475 Y283.4 M03 S255 F1500
X6.125 Y280.65 M03 S255 F1500
X8.025 Y278.1 M03 S255 F1500
X10.175 Y275.725 M03 S255 F1500
X12.5 Y273.6 M03 S255 F1500
X15.05 Y271.675 M03 S255 F1500
X17.775 Y270 M03 S255 F1500
X20.65 Y268.6 M03 S255 F1500
X23.675 Y267.5 M03 S255 F1500
X26.85 Y266.675 M03 S255 F1500
X30.125 Y266.175 M03 S255 F1500
X33.5 Y266 M03 S255 F1500
X36.875 Y266.175 M03 S255 F1500
X40.15 Y266.675 M03 S255 F1500
X43.325 Y267.5 M03 S255 F1500
X46.35 Y268.6 M03 S255 F1500
X49.225 Y270 M03 S255 F1500
X51.95 Y271.675 M03 S255 F1500
X54.5 Y273.6 M03 S255 F1500
X56.825 Y275.725 M03 S255 F1500
X58.975 Y278.1 M03 S255 F1500
X60.875 Y280.65 M03 S255 F1500
X62.525 Y283.4 M03 S255 F1500
X63.9 Y286.3 M03 S255 F1500
X65.025 Y289.35 M03 S255 F1500
X65.825 Y292.55 M03 S255 F1500
X66.325 Y295.85 M03 S255 F1500
X66.5 Y299.25 M03 S255 F1500
X6 Y299.5 M03 S0 F1500
X5.8 Y300.475 M03 S255 F1500
X5.275 Y301.275 M03 S255 F1500
X4.475 Y301.8 M03 S255 F1500
X3.5 Y302 M03 S255 F1500
X2.525 Y301.8 M03 S255 F1500
X1.725 Y301.275 M03 S255 F1500
X1.2 Y300.475 M03 S255 F1500
X1 Y299.5 M03 S255 F1500
X1.2 Y298.525 M03 S255 F1500
X1.725 Y297.725 M03 S255 F1500
X2.525 Y297.2 M03 S255 F1500
X3.5 Y297 M03 S255 F1500
X4.475 Y297.2 M03 S255 F1500
X5.275 Y297.725 M03 S255 F1500
X5.8 Y298.525 M03 S255 F1500
X6 Y299.5 M03 S255 F1500
X36 Y299.625 M03 S0 F1500
X35.8 Y300.55 M03 S255 F1500
X35.275 Y301.3 M03 S255 F1500
X34.475 Y301.8 M03 S255 F1500
X33.5 Y302 M03 S255 F1500
X32.525 Y301.8 M03 S255 F1500
X31.725 Y301.3 M03 S255 F1500
X31.2 Y300.55 M03 S255 F1500
X31 Y299.625 M03 S255 F1500
X31.2 Y298.7 M03 S255 F1500
X31.725 Y297.95 M03 S255 F1500
X32.525 Y297.425 M03 S255 F1500
X33.5 Y297.25 M03 S255 F1500
X34.475 Y297.425 M03 S255 F1500
X35.275 Y297.95 M03 S255 F1500
X35.8 Y298.7 M03 S255 F1500
X36 Y299.625 M03 S255 F1500
M03 S0
M05
G01 X133 Y299.25 M03 S0 F1500
M03 S0
X133 Y299.25 M03 S0 F1500
X132.825 Y302.65 M03 S255 F1500
X132.325 Y305.95 M03 S255 F1500
X131.525 Y309.125 M03 S255 F1500
X130.4 Y312.175 M03 S255 F1500
X129.025 Y315.1 M03 S255 F1500
X127.375 Y317.825 M03 S255 F1500
X125.475 Y320.4 M03 S255 F1500
X123.325 Y322.75 M03 S255 F1500
X121 Y324.9 M03 S255 F1500
X118.45 Y326.825 M03 S255 F1500
X115.725 Y328.475 M03 S255 F1500
X112.85 Y329.875 M03 S255 F1500
X109.825 Y331 M03 S255 F1500
X106.65 Y331.825 M03 S255 F1500
X103.375 Y332.325 M03 S255 F1500
X100 Y332.5 M03 S255 F1500
X96.625 Y332.325 M03 S255 F1500
X93.35 Y331.825 M03 S255 F1500
X90.175 Y331 M03 S255 F1500
X87.15 Y329.875 M03 S255 F1500
X84.275 Y328.475 M03 S255 F1500
X81.55 Y326.825 M03 S255 F1500
X79 Y324.9 M03 S255 F1500
X76.675 Y322.75 M03 S255 F1500
X74.525 Y320.4 M03 S255 F1500
X72.625 Y317.825 M03 S255 F1500
X70.975 Y315.1 M03 S255 F1500
X69.6 Y312.175 M03 S255 F1500
X68.475 Y309.125 M03 S255 F1500
X67.675 Y305.95 M03 S255 F1500
X67.175 Y302.65 M03 S255 F1500
X67 Y299.25 M03 S255 F1500
X67.175 Y295.85 M03 S255 F1500
X67.675 Y292.55 M03 S255 F1500
X68.475 Y289.35 M03 S255 F1500
X69.6 Y286.3 M03 S255 F1500
X70.975 Y283.4 M03 S255 F1500
X72.625 Y280.65 M03 S255 F1500
X74.525 Y278.1 M03 S255 F1500
X76.675 Y275.725 M03 S255 F1500
X79 Y273.6 M03 S255 F1500
X81.55 Y271.675 M03 S255 F1500
X84.275 Y270 M03 S255 F1500
X87.15 Y268.6 M03 S255 F1500
X90.175 Y267.5 M03 S255 F1500
X93.35 Y266.675 M03 S255 F1500
X96.625 Y266.175 M03 S255 F1500
X100 Y266 M03 S255 F1500
X103.375 Y266.175 M03 S255 F1500
X106.65 Y266.675 M03 S255 F1500
X109.825 Y267.5 M03 S255 F1500
X112.85 Y268.6 M03 S255 F1500
X115.725 Y270 M03 S255 F1500
X118.45 Y271.675 M03 S255 F1500
X121 Y273.6 M03 S255 F1500
X123.325 Y275.725 M03 S255 F1500
X125.475 Y278.1 M03 S255 F1500
X127.375 Y280.65 M03 S255 F1500
X129.025 Y283.4 M03 S255 F1500
X130.4 Y286.3 M03 S255 F1500
X131.525 Y289.35 M03 S255 F1500
X132.325 Y292.55 M03 S255 F1500
X132.825 Y295.85 M03 S255 F1500
X133 Y299.25 M03 S255 F1500
X72.5 Y299.5 M03 S0 F1500
X72.3 Y300.475 M03 S255 F1500
X71.775 Y301.275 M03 S255 F1500
X70.975 Y301.8 M03 S255 F1500
X70 Y302 M03 S255 F1500
X69.025 Y301.8 M03 S255 F1500
X68.225 Y301.275 M03 S255 F1500
X67.7 Y300.475 M03 S255 F1500
X67.5 Y299.5 M03 S255 F1500
X67.7 Y298.525 M03 S255 F1500
X68.225 Y297.725 M03 S255 F1500
X69.025 Y297.2 M03 S255 F1500
X70 Y297 M03 S255 F1500
X70.975 Y297.2 M03 S255 F1500
X71.775 Y297.725 M03 S255 F1500
X72.3 Y298.525 M03 S255 F1500
X72.5 Y299.5 M03 S255 F1500
X102.5 Y299.625 M03 S0 F1500
X102.3 Y300.55 M03 S255 F1500
X101.775 Y301.3 M03 S255 F1500
X100.975 Y301.8 M03 S255 F1500
X100 Y302 M03 S255 F1500
X99.025 Y301.8 M03 S255 F1500
X98.225 Y301.3 M03 S255 F1500
X97.7 Y300.55 M03 S255 F1500
X97.5 Y299.625 M03 S255 F1500
X97.7 Y298.7 M03 S255 F1500
X98.225 Y297.95 M03 S255 F1500
X99.025 Y297.425 M03 S255 F1500
X100 Y297.25 M03 S255 F1500
X100.975 Y297.425 M03 S255 F1500
X101.775 Y297.95 M03 S255 F1500
X102.3 Y298.7 M03 S255 F1500
X102.5 Y299.625 M03 S255 F1500
M03 S0
M05
G01 X199.5 Y299.25 M03 S0 F1500
M03 S0
X199.5 Y299.25 M03 S0 F1500
X199.325 Y302.65 M03 S255 F1500
X198.825 Y305.95 M03 S255 F1500
X198.025 Y309.125 M03 S255 F1500
X196.9 Y312.175 M03 S255 F1500
X195.525 Y315.1 M03 S255 F1500
X193.875 Y317.825 M03 S255 F1500
X191.975 Y320.4 M03 S255 F1500
X189.825 Y322.75 M03 S255 F1500
X187.5 Y324.9 M03 S255 F1500
X184.95 Y326.825 M03 S255 F1500
X182.225 Y328.475 M03 S255 F1500
X179.35 Y329.875 M03 S255 F1500
X176.325 Y331 M03 S255 F1500
X173.15 Y331.825 M03 S255 F1500
X169.875 Y332.325 M03 S255 F1500
X166.5 Y332.5 M03 S255 F1500
X163.125 Y332.325 M03 S255 F1500
X159.85 Y331.825 M03 S255 F1500
X156.675 Y331 M03 S255 F1500
X153.65 Y329.875 M03 S255 F1500
X150.775 Y328.475 M03 S255 F1500
X148.05 Y326.825 M03 S255 F1500
X145.5 Y324.9 M03 S255 F1500
X143.175 Y322.75 M03 S255 F1500
X141.025 Y320.4 M03 S255 F1500
X139.125 Y317.825 M03 S255 F1500
X137.475 Y315.1 M03 S255 F1500
X136.1 Y312.175 M03 S255 F1500
X134.975 Y309.125 M03 S255 F1500
X134.175 Y305.95 M03 S255 F1500
X133.675 Y302.65 M03 S255 F1500
X133.5 Y299.25 M03 S255 F1500
X133.675 Y295.85 M03 S255 F1500
X134.175 Y292.55 M03 S255 F1500
X134.975 Y289.35 M03 S255 F1500
X136.1 Y286.3 M03 S255 F1500
X137.475 Y283.4 M03 S255 F1500
X139.125 Y280.65 M03 S255 F1500
X141.025 Y278.1 M03 S255 F1500
X143.175 Y275.725 M03 S255 F1500
X145.5 Y273.6 M03 S255 F1500
X148.05 Y271.675 M03 S255 F1500
X150.775 Y270 M03 S255 F1500
X153.65 Y268.6 M03 S255 F1500
X156.675 Y267.5 M03 S255 F1500
X159.85 Y266.675 M03 S255 F1500
X163.125 Y266.175 M03 S255 F1500
X166.5 Y266 M03 S255 F1500
X169.875 Y266.175 M03 S255 F1500
X173.15 Y266.675 M03 S255 F1500
X176.325 Y267.5 M03 S255 F1500
X179.35 Y268.6 M03 S255 F1500
X182.225 Y270 M03 S255 F1500
X184.95 Y271.675 M03 S255 F1500
X187.5 Y273.6 M03 S255 F1500
X189.825 Y275.725 M03 S255 F1500
X191.975 Y278.1 M03 S255 F1500
X193.875 Y280.65 M03 S255 F1500
X195.525 Y283.4 M03 S255 F1500
X196.9 Y286.3 M03 S255 F1500
X198.025 Y289.35 M03 S255 F1500
X198.825 Y292.55 M03 S255 F1500
X199.325 Y295.85 M03 S255 F1500
X199.5 Y299.25 M03 S255 F1500
X139 Y299.5 M03 S0 F1500
X138.8 Y300.475 M03 S255 F1500
X138.275 Y301.275 M03 S255 F1500
X137.475 Y301.8 M03 S255 F1500
X136.5 Y302 M03 S255 F1500
X135.525 Y301.8 M03 S255 F1500
X134.725 Y301.275 M03 S255 F1500
X134.2 Y300.475 M03 S255 F1500
X134 Y299.5 M03 S255 F1500
X134.2 Y298.525 M03 S255 F1500
X134.725 Y297.725 M03 S255 F1500
X135.525 Y297.2 M03 S255 F1500
X136.5 Y297 M03 S255 F1500
X137.475 Y297.2 M03 S255 F1500
X138.275 Y297.725 M03 S255 F1500
X138.8 Y298.525 M03 S255 F1500
X139 Y299.5 M03 S255 F1500
X169 Y299.625 M03 S0 F1500
X168.8 Y300.55 M03 S255 F1500
X168.275 Y301.3 M03 S255 F1500
X167.475 Y301.8 M03 S255 F1500
X166.5 Y302 M03 S255 F1500
X165.525 Y301.8 M03 S255 F1500
X164.725 Y301.3 M03 S255 F1500
X164.2 Y300.55 M03 S255 F1500
X164 Y299.625 M03 S255 F1500
X164.2 Y298.7 M03 S255 F1500
X164.725 Y297.95 M03 S255 F1500
X165.525 Y297.425 M03 S255 F1500
X166.5 Y297.25 M03 S255 F1500
X167.475 Y297.425 M03 S255 F1500
X168.275 Y297.95 M03 S255 F1500
X168.8 Y298.7 M03 S255 F1500
X169 Y299.625 M03 S255 F1500
M03 S0
M05
G01 X266 Y299.25 M03 S0 F1500
M03 S0
X266 Y299.25 M03 S0 F1500
X265.825 Y302.65 M03 S255 F1500
X265.325 Y305.95 M03 S255 F1500
X264.525 Y309.125 M03 S255 F1500
X263.4 Y312.175 M03 S255 F1500
X262.025 Y315.1 M03 S255 F1500
X260.375 Y317.825 M03 S255 F1500
X258.475 Y320.4 M03 S255 F1500
X256.325 Y322.75 M03 S255 F1500
X254 Y324.9 M03 S255 F1500
X251.45 Y326.825 M03 S255 F1500
X248.725 Y328.475 M03 S255 F1500
X245.85 Y329.875 M03 S255 F1500
X242.825 Y331 M03 S255 F1500
X239.65 Y331.825 M03 S255 F1500
X236.375 Y332.325 M03 S255 F1500
X233 Y332.5 M03 S255 F1500
X229.625 Y332.325 M03 S255 F1500
X226.35 Y331.825 M03 S255 F1500
X223.175 Y331 M03 S255 F1500
X220.15 Y329.875 M03 S255 F1500
X217.275 Y328.475 M03 S255 F1500
X214.55 Y326.825 M03 S255 F1500
X212 Y324.9 M03 S255 F1500
X209.675 Y322.75 M03 S255 F1500
X207.525 Y320.4 M03 S255 F1500
X205.625 Y317.825 M03 S255 F1500
X203.975 Y315.1 M03 S255 F1500
X202.6 Y312.175 M03 S255 F1500
X201.475 Y309.125 M03 S255 F1500
X200.675 Y305.95 M03 S255 F1500
X200.175 Y302.65 M03 S255 F1500
X200 Y299.25 M03 S255 F1500
X200.175 Y295.85 M03 S255 F1500
X200.675 Y292.55 M03 S255 F1500
X201.475 Y289.35 M03 S255 F1500
X202.6 Y286.3 M03 S255 F1500
X203.975 Y283.4 M03 S255 F1500
X205.625 Y280.65 M03 S255 F1500
X207.525 Y278.1 M03 S255 F1500
X209.675 Y275.725 M03 S255 F1500
X212 Y273.6 M03 S255 F1500
X214.55 Y271.675 M03 S255 F1500
X217.275 Y270 M03 S255 F1500
X220.15 Y268.6 M03 S255 F1500
X223.175 Y267.5 M03 S255 F1500
X226.35 Y266.675 M03 S255 F1500
X229.625 Y266.175 M03 S255 F1500
X233 Y266 M03 S255 F1500
X236.375 Y266.175 M03 S255 F1500
X239.65 Y266.675 M03 S255 F1500
X242.825 Y267.5 M03 S255 F1500
X245.85 Y268.6 M03 S255 F1500
X248.725 Y270 M03 S255 F1500
X251.45 Y271.675 M03 S255 F1500
X254 Y273.6 M03 S255 F1500
X256.325 Y275.725 M03 S255 F1500
X258.475 Y278.1 M03 S255 F1500
X260.375 Y280.65 M03 S255 F1500
X262.025 Y283.4 M03 S255 F1500
X263.4 Y286.3 M03 S255 F1500
X264.525 Y289.35 M03 S255 F1500
X265.325 Y292.55 M03 S255 F1500
X265.825 Y295.85 M03 S255 F1500
X266 Y299.25 M03 S255 F1500
X205.5 Y299.5 M03 S0 F1500
X205.3 Y300.475 M03 S255 F1500
X204.775 Y301.275 M03 S255 F1500
X203.975 Y301.8 M03 S255 F1500
X203 Y302 M03 S255 F1500
X202.025 Y301.8 M03 S255 F1500
X201.225 Y301.275 M03 S255 F1500
X200.7 Y300.475 M03 S255 F1500
X200.5 Y299.5 M03 S255 F1500
X200.7 Y298.525 M03 S255 F1500
X201.225 Y297.725 M03 S255 F1500
X202.025 Y297.2 M03 S255 F1500
X203 Y297 M03 S255 F1500
X203.975 Y297.2 M03 S255 F1500
X204.775 Y297.725 M03 S255 F1500
X205.3 Y298.525 M03 S255 F1500
X205.5 Y299.5 M03 S255 F1500
X235.5 Y299.625 M03 S0 F1500
X235.3 Y300.55 M03 S255 F1500
X234.775 Y301.3 M03 S255 F1500
X233.975 Y301.8 M03 S255 F1500
X233 Y302 M03 S255 F1500
X232.025 Y301.8 M03 S255 F1500
X231.225 Y301.3 M03 S255 F1500
X230.7 Y300.55 M03 S255 F1500
X230.5 Y299.625 M03 S255 F1500
X230.7 Y298.7 M03 S255 F1500
X231.225 Y297.95 M03 S255 F1500
X232.025 Y297.425 M03 S255 F1500
X233 Y297.25 M03 S255 F1500
X233.975 Y297.425 M03 S255 F1500
X234.775 Y297.95 M03 S255 F1500
X235.3 Y298.7 M03 S255 F1500
X235.5 Y299.625 M03 S255 F1500
M03 S0
M05
G01 X332.5 Y299.25 M03 S0 F1500
M03 S0
X332.5 Y299.25 M03 S0 F1500
X332.325 Y302.65 M03 S255 F1500
X331.825 Y305.95 M03 S255 F1500
X331.025 Y309.125 M03 S255 F1500
X329.9 Y312.175 M03 S255 F1500
X328.525 Y315.1 M03 S255 F1500
X326.875 Y317.825 M03 S255 F1500
X324.975 Y320.4 M03 S255 F1500
X322.825 Y322.75 M03 S255 F1500
X320.5 Y324.9 M03 S255 F1500
X317.95 Y326.825 M03 S255 F1500
X315.225 Y328.475 M03 S255 F1500
X312.35 Y329.875 M03 S255 F1500
X309.325 Y331 M03 S255 F1500
X306.15 Y331.825 M03 S255 F1500
X302.875 Y332.325 M03 S255 F1500
X299.5 Y332.5 M03 S255 F1500
X296.125 Y332.325 M03 S255 F1500
X292.85 Y331.825 M03 S255 F1500
X289.675 Y331 M03 S255 F1500
X286.65 Y329.875 M03 S255 F1500
X283.775 Y328.475 M03 S255 F1500
X281.05 Y326.825 M03 S255 F1500
X278.5 Y324.9 M03 S255 F1500
X276.175 Y322.75 M03 S255 F1500
X274.025 Y320.4 M03 S255 F1500
X272.125 Y317.825 M03 S255 F1500
X270.475 Y315.1 M03 S255 F1500
X269.1 Y312.175 M03 S255 F1500
X267.975 Y309.125 M03 S255 F1500
X267.175 Y305.95 M03 S255 F1500
X266.675 Y302.65 M03 S255 F1500
X266.5 Y299.25 M03 S255 F1500
X266.675 Y295.85 M03 S255 F1500
X267.175 Y292.55 M03 S255 F1500
X267.975 Y289.35 M03 S255 F1500
X269.1 Y286.3 M03 S255 F1500
X270.475 Y283.4 M03 S255 F1500
X272.125 Y280.65 M03 S255 F1500
X274.025 Y278.1 M03 S255 F1500
X276.175 Y275.725 M03 S255 F1500
X278.5 Y273.6 M03 S255 F1500
X281.05 Y271.675 M03 S255 F1500
X283.775 Y270 M03 S255 F1500
X286.65 Y268.6 M03 S255 F1500
X289.675 Y267.5 M03 S255 F1500
X292.85 Y266.675 M03 S255 F1500
X296.125 Y266.175 M03 S255 F1500
X299.5 Y266 M03 S255 F1500
X302.875 Y266.175 M03 S255 F1500
X306.15 Y266.675 M03 S255 F1500
X309.325 Y267.5 M03 S255 F1500
X312.35 Y268.6 M03 S255 F1500
X315.225 Y270 M03 S255 F1500
X317.95 Y271.675 M03 S255 F1500
X320.5 Y273.6 M03 S255 F1500
X322.825 Y275.725 M03 S255 F1500
X324.975 Y278.1 M03 S255 F1500
X326.875 Y280.65 M03 S255 F1500
X328.525 Y283.4 M03 S255 F1500
X329.9 Y286.3 M03 S255 F1500
X331.025 Y289.35 M03 S255 F1500
X331.825 Y292.55 M03 S255 F1500
X332.325 Y295.85 M03 S255 F1500
X332.5 Y299.25 M03 S255 F1500
X272 Y299.5 M03 S0 F1500
X271.8 Y300.475 M03 S255 F1500
X271.275 Y301.275 M03 S255 F1500
X270.475 Y301.8 M03 S255 F1500
X269.5 Y302 M03 S255 F1500
X268.525 Y301.8 M03 S255 F1500
X267.725 Y301.275 M03 S255 F1500
X267.2 Y300.475 M03 S255 F1500
X267 Y299.5 M03 S255 F1500
X267.2 Y298.525 M03 S255 F1500
X267.725 Y297.725 M03 S255 F1500
X268.525 Y297.2 M03 S255 F1500
X269.5 Y297 M03 S255 F1500
X270.475 Y297.2 M03 S255 F1500
X271.275 Y297.725 M03 S255 F1500
X271.8 Y298.525 M03 S255 F1500
X272 Y299.5 M03 S255 F1500
X302 Y299.625 M03 S0 F1500
X301.8 Y300.55 M03 S255 F1500
X301.275 Y301.3 M03 S255 F1500
X300.475 Y301.8 M03 S255 F1500
X299.5 Y302 M03 S255 F1500
X298.525 Y301.8 M03 S255 F1500
X297.725 Y301.3 M03 S255 F1500
X297.2 Y300.55 M03 S255 F1500
X297 Y299.625 M03 S255 F1500
X297.2 Y298.7 M03 S255 F1500
X297.725 Y297.95 M03 S255 F1500
X298.525 Y297.425 M03 S255 F1500
X299.5 Y297.25 M03 S255 F1500
X300.475 Y297.425 M03 S255 F1500
X301.275 Y297.95 M03 S255 F1500
X301.8 Y298.7 M03 S255 F1500
X302 Y299.625 M03 S255 F1500
M03 S0
M05
G00 X0 Y0 
